%
(Injection_Mold_Part_V2-Cavity)
(T3  D=0.25 CR=0. - ZMIN=-0.2299 - flat end mill)
(T7  D=0.125 CR=0. - ZMIN=-0.5 - flat end mill)
(T8  D=0.125 CR=0.0625 - ZMIN=-0.5 - ball end mill)
(T14  D=0.1406 CR=0. TAPER=118deg - ZMIN=-1.0922 - drill)
(T15  D=0.2656 CR=0. TAPER=118deg - ZMIN=-1.1298 - drill)
G90 G54 G64 G50 G17 G40 G80 G94 G91.1 G49
G20 (Inch)
G30

N10(Adaptive1)
T3 G43 H3 M6
S3500 M3 M8
G54
G0 X-0.0078 Y0.0607
G0 Z0.6
G0 Z0.2
G0 Z0.1
G3 X0.0988 Y-0.1516 Z0.087 I0.0533 J-0.1061 F13.3
G3 X-0.0078 Y0.0607 Z0.0739 I-0.0533 J0.1061
G3 X0.0988 Y-0.1516 Z0.0609 I0.0533 J-0.1061
G3 X-0.0078 Y0.0607 Z0.0479 I-0.0533 J0.1061
G3 X0.0988 Y-0.1516 Z0.0349 I0.0533 J-0.1061
G3 X-0.0078 Y0.0607 Z0.0218 I-0.0533 J0.1061
G3 X0.0988 Y-0.1516 Z0.0088 I0.0533 J-0.1061
G3 X-0.0078 Y0.0607 Z-0.0042 I-0.0533 J0.1061
G3 X0.0988 Y-0.1516 Z-0.0172 I0.0533 J-0.1061
G3 X-0.0078 Y0.0607 Z-0.0303 I-0.0533 J0.1061
G3 X0.0988 Y-0.1516 Z-0.0433 I0.0533 J-0.1061
G3 X-0.0078 Y0.0607 Z-0.0563 I-0.0533 J0.1061
G3 X0.0988 Y-0.1516 Z-0.0694 I0.0533 J-0.1061
G3 X-0.0078 Y0.0607 Z-0.0824 I-0.0533 J0.1061
G3 X0.0988 Y-0.1516 Z-0.0954 I0.0533 J-0.1061
G3 X0.1642 Y-0.0455 Z-0.1 I-0.0533 J0.1061
G3 X-0.0733 I-0.1187 J0.
G3 X0.1642 I0.1187 J0.
G1 X0.1644 Y-0.0362 F26.
G1 X0.1708 Y0.0002
G1 X0.1724 Y0.0046
G1 X0.1737 Y0.0098
G1 X0.1746 Y0.0151
G1 X0.175 Y0.0208
G1 Y0.0269
G1 X0.1745 Y0.0334
G1 X0.1733 Y0.0404
G1 X0.1715 Y0.0477
G1 X0.169 Y0.0552
G1 X0.1657 Y0.0629
G1 X0.1615 Y0.0707
G1 X0.1566 Y0.0786
G1 X0.1507 Y0.0864
G1 X0.144 Y0.0939
G1 X0.1364 Y0.1012
G1 X0.1279 Y0.1082
G1 X0.1186 Y0.1146
G1 X0.1085 Y0.1204
G1 X0.0976 Y0.1255
G1 X0.0861 Y0.1299
G1 X0.074 Y0.1334
G1 X0.0614 Y0.136
G1 X0.0484 Y0.1376
G1 X0.0351 Y0.1381
G1 X0.0215 Y0.1376
G1 X0.0079 Y0.1359
G1 X-0.0058 Y0.1332
G1 X-0.0193 Y0.1293
G1 X-0.0326 Y0.1243
G1 X-0.0455 Y0.1182
G1 X-0.0581 Y0.111
G1 X-0.07 Y0.1027
G1 X-0.0814 Y0.0935
G1 X-0.092 Y0.0834
G1 X-0.1019 Y0.0723
G1 X-0.1108 Y0.0605
G1 X-0.1188 Y0.0479
G1 X-0.1258 Y0.0347
G1 X-0.1318 Y0.021
G1 X-0.1366 Y0.0067
G1 X-0.1402 Y-0.0079
G1 X-0.1427 Y-0.0227
G1 X-0.144 Y-0.0378
G1 X-0.1441 Y-0.0529
G1 X-0.1429 Y-0.068
G1 X-0.1406 Y-0.083
G1 X-0.137 Y-0.0977
G1 X-0.1323 Y-0.1122
G1 X-0.1265 Y-0.1262
G1 X-0.1195 Y-0.1397
G1 X-0.1114 Y-0.1526
G1 X-0.1024 Y-0.1648
G1 X-0.0923 Y-0.1763
G1 X-0.0814 Y-0.1869
G1 X-0.0697 Y-0.1967
G1 X-0.0572 Y-0.2054
G1 X-0.0441 Y-0.2131
G1 X-0.0303 Y-0.2198
G1 X-0.0161 Y-0.2253
G1 X-0.0015 Y-0.2297
G1 X0.0134 Y-0.2329
G1 X0.0286 Y-0.2348
G1 X0.0438 Y-0.2356
G1 X0.0591 Y-0.2351
G1 X0.0742 Y-0.2334
G1 X0.0892 Y-0.2305
G1 X0.1039 Y-0.2264
G1 X0.1182 Y-0.2211
G1 X0.1321 Y-0.2147
G1 X0.1454 Y-0.2072
G1 X0.1581 Y-0.1987
G1 X0.17 Y-0.1892
G1 X0.1811 Y-0.1787
G1 X0.1914 Y-0.1674
G1 X0.2007 Y-0.1553
G1 X0.2094 Y-0.1419
G1 X0.2246 Y-0.1137
G1 X0.2362 Y-0.0874
G1 X0.2438 Y-0.0656
G1 X0.2489 Y-0.046
G1 X0.2521 Y-0.0275
G1 X0.2538 Y-0.0097
G1 X0.254 Y0.0077
G1 X0.2529 Y0.0245
G1 X0.2505 Y0.0409
G1 X0.2467 Y0.057
G1 X0.2418 Y0.0726
G1 X0.2355 Y0.0879
G1 X0.228 Y0.1027
G1 X0.2193 Y0.1169
G1 X0.2094 Y0.1305
G1 X0.1983 Y0.1434
G1 X0.1861 Y0.1555
G1 X0.1728 Y0.1667
G1 X0.1585 Y0.177
G1 X0.1431 Y0.1861
G1 X0.1268 Y0.1942
G1 X0.1098 Y0.201
G1 X0.0919 Y0.2065
G1 X0.0735 Y0.2106
G1 X0.0546 Y0.2132
G1 X0.0353 Y0.2143
G1 X0.0158 Y0.2138
G1 X-0.0038 Y0.2118
G1 X-0.0233 Y0.2082
G1 X-0.0427 Y0.203
G1 X-0.0617 Y0.1962
G1 X-0.0802 Y0.1878
G1 X-0.0981 Y0.1779
G1 X-0.1152 Y0.1665
G1 X-0.1315 Y0.1538
G1 X-0.1468 Y0.1396
G1 X-0.1609 Y0.1243
G1 X-0.1739 Y0.1078
G1 X-0.1855 Y0.0902
G1 X-0.1957 Y0.0717
G1 X-0.2044 Y0.0524
G1 X-0.2115 Y0.0324
G1 X-0.217 Y0.0118
G1 X-0.2209 Y-0.0092
G1 X-0.2231 Y-0.0304
G1 X-0.2235 Y-0.0518
G1 X-0.2223 Y-0.0733
G1 X-0.2193 Y-0.0945
G1 X-0.2146 Y-0.1155
G1 X-0.2082 Y-0.1361
G1 X-0.2002 Y-0.1561
G1 X-0.1907 Y-0.1754
G1 X-0.1796 Y-0.1939
G1 X-0.167 Y-0.2114
G1 X-0.153 Y-0.2279
G1 X-0.1378 Y-0.2433
G1 X-0.1214 Y-0.2573
G1 X-0.1039 Y-0.27
G1 X-0.0854 Y-0.2813
G1 X-0.0661 Y-0.2911
G1 X-0.0461 Y-0.2992
G1 X-0.0255 Y-0.3058
G1 X-0.0044 Y-0.3106
G1 X0.0171 Y-0.3138
G1 X0.0387 Y-0.3152
G1 X0.0603 Y-0.3149
G1 X0.0819 Y-0.3128
G1 X0.1032 Y-0.3091
G1 X0.1242 Y-0.3036
G1 X0.1446 Y-0.2964
G1 X0.1645 Y-0.2877
G1 X0.1835 Y-0.2773
G1 X0.2017 Y-0.2655
G1 X0.2189 Y-0.2522
G1 X0.2375 Y-0.2353
G1 X0.2557 Y-0.2159
G1 X0.2727 Y-0.1946
G1 X0.2882 Y-0.1714
G1 X0.3017 Y-0.1474
G1 X0.313 Y-0.1229
G1 X0.3221 Y-0.0982
G1 X0.3289 Y-0.0734
G1 X0.3337 Y-0.0488
G1 X0.3364 Y-0.0242
G1 X0.3371 Y0.0002
G1 X0.3359 Y0.0243
G1 X0.3328 Y0.048
G1 X0.3278 Y0.0713
G1 X0.321 Y0.094
G1 X0.3124 Y0.1161
G1 X0.302 Y0.1374
G1 X0.2899 Y0.1578
G1 X0.2762 Y0.1773
G1 X0.2609 Y0.1957
G1 X0.2441 Y0.213
G1 X0.2258 Y0.2289
G1 X0.2061 Y0.2435
G1 X0.1852 Y0.2565
G1 X0.1631 Y0.2679
G1 X0.1399 Y0.2775
G1 X0.1159 Y0.2854
G1 X0.0911 Y0.2913
G1 X0.0657 Y0.2952
G1 X0.0399 Y0.2971
G1 X0.0138 Y0.297
G1 X-0.0123 Y0.2947
G1 X-0.0384 Y0.2903
G1 X-0.0642 Y0.2838
G1 X-0.0895 Y0.2752
G1 X-0.1142 Y0.2645
G1 X-0.1381 Y0.2518
G1 X-0.161 Y0.2372
G1 X-0.1827 Y0.2207
G1 X-0.2032 Y0.2024
G1 X-0.2221 Y0.1825
G1 X-0.2395 Y0.161
G1 X-0.2552 Y0.1381
G1 X-0.269 Y0.114
G1 X-0.2809 Y0.0887
G1 X-0.2907 Y0.0626
G1 X-0.2984 Y0.0356
G1 X-0.304 Y0.0081
G1 X-0.3073 Y-0.0199
G1 X-0.3084 Y-0.048
G1 X-0.3072 Y-0.0762
G1 X-0.3037 Y-0.1042
G1 X-0.298 Y-0.1319
G1 X-0.2901 Y-0.1591
G1 X-0.28 Y-0.1856
G1 X-0.2678 Y-0.2112
G1 X-0.2536 Y-0.2357
G1 X-0.2375 Y-0.2591
G1 X-0.2195 Y-0.2811
G1 X-0.1998 Y-0.3016
G1 X-0.1785 Y-0.3204
G1 X-0.1558 Y-0.3375
G1 X-0.1318 Y-0.3527
G1 X-0.1066 Y-0.366
G1 X-0.0804 Y-0.3771
G1 X-0.0534 Y-0.3862
G1 X-0.0258 Y-0.393
G1 X0.0023 Y-0.3976
G1 X0.0307 Y-0.4
G1 X0.0592
G1 X0.0876 Y-0.3978
G1 X0.1157 Y-0.3933
G1 X0.1434 Y-0.3865
G1 X0.1704 Y-0.3776
G1 X0.1967 Y-0.3665
G1 X0.2228 Y-0.3529
G1 X0.2484 Y-0.3368
G1 X0.2735 Y-0.3181
G1 X0.2976 Y-0.2969
G1 X0.3204 Y-0.2734
G1 X0.3414 Y-0.2479
G1 X0.3603 Y-0.2207
G1 X0.377 Y-0.1922
G1 X0.3912 Y-0.1626
G1 X0.4029 Y-0.1323
G1 X0.412 Y-0.1013
G1 X0.4186 Y-0.07
G1 X0.4226 Y-0.0385
G1 X0.424 Y-0.0071
G1 X0.423 Y0.0242
G1 X0.4194 Y0.0551
G1 X0.4134 Y0.0856
G1 X0.405 Y0.1153
G1 X0.3942 Y0.1443
G1 X0.3812 Y0.1723
G1 X0.3659 Y0.1992
G1 X0.3485 Y0.2248
G1 X0.329 Y0.2491
G1 X0.3076 Y0.2717
G1 X0.2843 Y0.2927
G1 X0.2592 Y0.3119
G1 X0.2326 Y0.329
G1 X0.2045 Y0.3441
G1 X0.1751 Y0.3569
G1 X0.1446 Y0.3674
G1 X0.1132 Y0.3755
G1 X0.081 Y0.3811
G1 X0.0483 Y0.384
G1 X0.0153 Y0.3844
G1 X-0.0179 Y0.382
G1 X-0.0509 Y0.377
G1 X-0.0835 Y0.3693
G1 X-0.1156 Y0.359
G1 X-0.1469 Y0.3461
G1 X-0.1772 Y0.3306
G1 X-0.2063 Y0.3127
G1 X-0.234 Y0.2924
G1 X-0.26 Y0.2699
G1 X-0.2842 Y0.2453
G1 X-0.3064 Y0.2187
G1 X-0.3265 Y0.1904
G1 X-0.3443 Y0.1605
G1 X-0.3597 Y0.1291
G1 X-0.3726 Y0.0966
G1 X-0.3828 Y0.063
G1 X-0.3903 Y0.0287
G1 X-0.395 Y-0.0062
G1 X-0.3969 Y-0.0413
G1 X-0.396 Y-0.0766
G1 X-0.3922 Y-0.1117
G1 X-0.3857 Y-0.1465
G1 X-0.3763 Y-0.1806
G1 X-0.3643 Y-0.2139
G1 X-0.3496 Y-0.2462
G1 X-0.3323 Y-0.2772
G1 X-0.3126 Y-0.3067
G1 X-0.2906 Y-0.3346
G1 X-0.2664 Y-0.3606
G1 X-0.2402 Y-0.3846
G1 X-0.2121 Y-0.4064
G1 X-0.1824 Y-0.4259
G1 X-0.1512 Y-0.443
G1 X-0.1187 Y-0.4575
G1 X-0.0851 Y-0.4694
G1 X-0.0507 Y-0.4785
G1 X-0.0157 Y-0.4848
G1 X0.0197 Y-0.4883
G1 X0.0553 Y-0.489
G1 X0.0909 Y-0.4868
G1 X0.1261 Y-0.4817
G1 X0.161 Y-0.4738
G1 X0.1954 Y-0.463
G1 X0.2293 Y-0.4494
G1 X0.2624 Y-0.4328
G1 X0.294 Y-0.4137
G1 X0.3241 Y-0.3921
G1 X0.3524 Y-0.3683
G1 X0.3788 Y-0.3423
G1 X0.4031 Y-0.3145
G1 X0.4254 Y-0.2849
G1 X0.4454 Y-0.2538
G1 X0.463 Y-0.2212
G1 X0.4781 Y-0.1875
G1 X0.4907 Y-0.1526
G1 X0.5006 Y-0.117
G1 X0.5078 Y-0.0807
G1 X0.5122 Y-0.044
G1 X0.5138 Y-0.007
G1 X0.5125 Y0.03
G1 X0.5084 Y0.0668
G1 X0.5014 Y0.1031
G1 X0.4916 Y0.1388
G1 X0.4791 Y0.1736
G1 X0.4639 Y0.2073
G1 X0.4461 Y0.2398
G1 X0.4259 Y0.2708
G1 X0.4033 Y0.3
G1 X0.3785 Y0.3275
G1 X0.3516 Y0.353
G1 X0.3229 Y0.3763
G1 X0.2925 Y0.3974
G1 X0.2605 Y0.4161
G1 X0.2273 Y0.4323
G1 X0.1929 Y0.4459
G1 X0.1576 Y0.457
G1 X0.1215 Y0.4654
G1 X0.085 Y0.4711
G1 X0.0481 Y0.474
G1 X0.0111 Y0.4743
G1 X-0.0258 Y0.4717
G1 X-0.0625 Y0.4665
G1 X-0.0986 Y0.4585
G1 X-0.1341 Y0.448
G1 X-0.1687 Y0.4349
G1 X-0.2023 Y0.4193
G1 X-0.2346 Y0.4014
G1 X-0.2657 Y0.3813
G1 X-0.2952 Y0.359
G1 X-0.323 Y0.3346
G1 X-0.349 Y0.3083
G1 X-0.3731 Y0.2801
G1 X-0.395 Y0.2504
G1 X-0.4149 Y0.2191
G1 X-0.4325 Y0.1866
G1 X-0.4478 Y0.1529
G1 X-0.4607 Y0.1182
G1 X-0.4711 Y0.0827
G1 X-0.479 Y0.0465
G1 X-0.4842 Y0.0099
G1 X-0.4869 Y-0.027
G1 X-0.4871 Y-0.064
G1 X-0.4846 Y-0.1009
G1 X-0.4797 Y-0.1376
G1 X-0.4722 Y-0.1738
G1 X-0.4622 Y-0.2095
G1 X-0.4496 Y-0.2443
G1 X-0.4347 Y-0.2781
G1 X-0.4174 Y-0.3109
G1 X-0.398 Y-0.3423
G1 X-0.3764 Y-0.3724
G1 X-0.3528 Y-0.4009
G1 X-0.3273 Y-0.4277
G1 X-0.3 Y-0.4526
G1 X-0.2709 Y-0.4756
G1 X-0.2404 Y-0.4964
G1 X-0.2084 Y-0.5152
G1 X-0.1753 Y-0.5316
G1 X-0.1411 Y-0.5458
G1 X-0.1061 Y-0.5576
G1 X-0.0703 Y-0.5669
G1 X-0.0339 Y-0.5737
G1 X0.0029 Y-0.5779
G1 X0.0399 Y-0.5795
G1 X0.0768 Y-0.5786
G1 X0.1137 Y-0.5752
G1 X0.1502 Y-0.5693
G1 X0.1862 Y-0.5609
G1 X0.2216 Y-0.5499
G1 X0.2561 Y-0.5366
G1 X0.2896 Y-0.5209
G1 X0.3221 Y-0.5031
G1 X0.3533 Y-0.4833
G1 X0.3832 Y-0.4614
G1 X0.4115 Y-0.4376
G1 X0.4382 Y-0.412
G1 X0.4632 Y-0.3847
G1 X0.4865 Y-0.3559
G1 X0.5079 Y-0.3258
G1 X0.5274 Y-0.2943
G1 X0.5448 Y-0.2617
G1 X0.5601 Y-0.228
G1 X0.5733 Y-0.1934
G1 X0.5842 Y-0.158
G1 X0.5929 Y-0.1221
G1 X0.5993 Y-0.0856
G1 X0.6033 Y-0.0489
G1 X0.6049 Y-0.0119
G1 X0.6041 Y0.0251
G1 X0.6009 Y0.062
G1 X0.5953 Y0.0986
G1 X0.5874 Y0.1347
G1 X0.5772 Y0.1703
G1 X0.5646 Y0.2051
G1 X0.5497 Y0.2389
G1 X0.5327 Y0.2718
G1 X0.5136 Y0.3035
G1 X0.4925 Y0.3339
G1 X0.4695 Y0.3628
G1 X0.4446 Y0.3902
G1 X0.4179 Y0.4159
G1 X0.3897 Y0.4398
G1 X0.3599 Y0.4618
G1 X0.3289 Y0.482
G1 X0.2967 Y0.5001
G1 X0.2633 Y0.5161
G1 X0.229 Y0.5299
G1 X0.1938 Y0.5415
G1 X0.158 Y0.5509
G1 X0.1217 Y0.558
G1 X0.085 Y0.5629
G1 X0.0481 Y0.5655
G1 X0.0111 Y0.5657
G1 X-0.0258 Y0.5635
G1 X-0.0625 Y0.559
G1 X-0.0989 Y0.5523
G1 X-0.1348 Y0.5434
G1 X-0.1702 Y0.5323
G1 X-0.2047 Y0.5191
G1 X-0.2383 Y0.5037
G1 X-0.271 Y0.4862
G1 X-0.3025 Y0.4669
G1 X-0.3328 Y0.4457
G1 X-0.3618 Y0.4227
G1 X-0.3894 Y0.398
G1 X-0.4153 Y0.3716
G1 X-0.4396 Y0.3436
G1 X-0.4621 Y0.3143
G1 X-0.4828 Y0.2836
G1 X-0.5017 Y0.2518
G1 X-0.5188 Y0.219
G1 X-0.5338 Y0.1851
G1 X-0.5466 Y0.1504
G1 X-0.5574 Y0.115
G1 X-0.566 Y0.079
G1 X-0.5724 Y0.0426
G1 X-0.5767 Y0.0059
G1 X-0.5789 Y-0.0311
G1 X-0.5788 Y-0.0681
G1 X-0.5765 Y-0.105
G1 X-0.572 Y-0.1417
G1 X-0.5653 Y-0.1781
G1 X-0.5565 Y-0.2141
G1 X-0.5455 Y-0.2494
G1 X-0.5325 Y-0.2841
G1 X-0.5175 Y-0.3179
G1 X-0.5004 Y-0.3507
G1 X-0.4814 Y-0.3824
G1 X-0.4606 Y-0.413
G1 X-0.438 Y-0.4424
G1 X-0.4138 Y-0.4703
G1 X-0.3879 Y-0.4968
G1 X-0.3605 Y-0.5216
G1 X-0.3316 Y-0.5448
G1 X-0.3015 Y-0.5662
G1 X-0.2701 Y-0.5858
G1 X-0.2376 Y-0.6035
G1 X-0.2042 Y-0.6194
G1 X-0.1698 Y-0.6332
G1 X-0.1347 Y-0.6449
G1 X-0.099 Y-0.6545
G1 X-0.0627 Y-0.6619
G1 X-0.0261 Y-0.6672
G1 X0.0107 Y-0.6704
G1 X0.0477 Y-0.6714
G1 X0.0847 Y-0.6703
G1 X0.1216 Y-0.6669
G1 X0.1581 Y-0.6613
G1 X0.1943 Y-0.6535
G1 X0.23 Y-0.6437
G1 X0.2651 Y-0.6319
G1 X0.2994 Y-0.6181
G1 X0.3329 Y-0.6023
G1 X0.3653 Y-0.5846
G1 X0.3968 Y-0.565
G1 X0.427 Y-0.5437
G1 X0.4561 Y-0.5208
G1 X0.4838 Y-0.4963
G1 X0.5101 Y-0.4703
G1 X0.535 Y-0.4429
G1 X0.5583 Y-0.4142
G1 X0.58 Y-0.3842
G1 X0.6 Y-0.353
G1 X0.6182 Y-0.3209
G1 X0.6347 Y-0.2877
G1 X0.6494 Y-0.2538
G1 X0.6622 Y-0.219
G1 X0.6731 Y-0.1837
G1 X0.6819 Y-0.1478
G1 X0.6888 Y-0.1114
G1 X0.6936 Y-0.0747
G1 X0.6964 Y-0.0378
G1 X0.6972 Y-0.0008
G1 X0.6959 Y0.0362
G1 X0.6926 Y0.073
G1 X0.6872 Y0.1096
G1 X0.6797 Y0.1459
G1 X0.6701 Y0.1816
G1 X0.6587 Y0.2168
G1 X0.6452 Y0.2513
G1 X0.6299 Y0.285
G1 X0.6128 Y0.3177
G1 X0.5937 Y0.3495
G1 X0.573 Y0.3801
G1 X0.5505 Y0.4095
G1 X0.5264 Y0.4376
G1 X0.5008 Y0.4643
G1 X0.4738 Y0.4896
G1 X0.4455 Y0.5134
G1 X0.4158 Y0.5355
G1 X0.3849 Y0.5559
G1 X0.353 Y0.5746
G1 X0.3201 Y0.5915
G1 X0.2863 Y0.6066
G1 X0.2517 Y0.6198
G1 X0.2165 Y0.6312
G1 X0.1807 Y0.6406
G1 X0.1445 Y0.648
G1 X0.1079 Y0.6534
G1 X0.071 Y0.6568
G1 X0.0341 Y0.6582
G1 X-0.0029 Y0.6576
G1 X-0.0399 Y0.6551
G1 X-0.0766 Y0.6505
G1 X-0.113 Y0.644
G1 X-0.149 Y0.6355
G1 X-0.1845 Y0.6251
G1 X-0.2194 Y0.6128
G1 X-0.2536 Y0.5987
G1 X-0.2871 Y0.5828
G1 X-0.3196 Y0.5652
G1 X-0.3512 Y0.5459
G1 X-0.3816 Y0.5249
G1 X-0.4109 Y0.5023
G1 X-0.439 Y0.4782
G1 X-0.4658 Y0.4526
G1 X-0.4912 Y0.4257
G1 X-0.5152 Y0.3975
G1 X-0.5376 Y0.3681
G1 X-0.5585 Y0.3376
G1 X-0.5777 Y0.306
G1 X-0.5953 Y0.2734
G1 X-0.6111 Y0.24
G1 X-0.6252 Y0.2057
G1 X-0.6375 Y0.1708
G1 X-0.648 Y0.1354
G1 X-0.6566 Y0.0994
G1 X-0.6632 Y0.063
G1 X-0.668 Y0.0263
G1 X-0.6709 Y-0.0106
G1 X-0.6719 Y-0.0476
G1 X-0.6709 Y-0.0846
G1 X-0.6681 Y-0.1215
G1 X-0.6634 Y-0.1582
G1 X-0.6567 Y-0.1946
G1 X-0.6482 Y-0.2306
G1 X-0.6378 Y-0.2661
G1 X-0.6255 Y-0.301
G1 X-0.6115 Y-0.3353
G1 X-0.5958 Y-0.3688
G1 X-0.5784 Y-0.4014
G1 X-0.5593 Y-0.4331
G1 X-0.5386 Y-0.4638
G1 X-0.5163 Y-0.4933
G1 X-0.4925 Y-0.5217
G1 X-0.4673 Y-0.5487
G1 X-0.4407 Y-0.5745
G1 X-0.4128 Y-0.5988
G1 X-0.3838 Y-0.6217
G1 X-0.3536 Y-0.6431
G1 X-0.3223 Y-0.6629
G1 X-0.29 Y-0.681
G1 X-0.2569 Y-0.6974
G1 X-0.2229 Y-0.7121
G1 X-0.1882 Y-0.7251
G1 X-0.153 Y-0.7362
G1 X-0.1172 Y-0.7456
G1 X-0.0809 Y-0.753
G1 X-0.0443 Y-0.7586
G1 X-0.0075 Y-0.7623
G1 X0.0294 Y-0.764
G1 X0.0664 Y-0.7639
G1 X0.1034 Y-0.7619
G1 X0.1402 Y-0.7581
G1 X0.1767 Y-0.7523
G1 X0.213 Y-0.7446
G1 X0.2487 Y-0.7351
G1 X0.284 Y-0.7238
G1 X0.3186 Y-0.7108
G1 X0.3525 Y-0.696
G1 X0.3857 Y-0.6796
G1 X0.418 Y-0.6615
G1 X0.4493 Y-0.6419
G1 X0.4796 Y-0.6207
G1 X0.5089 Y-0.598
G1 X0.537 Y-0.5739
G1 X0.5639 Y-0.5485
G1 X0.5895 Y-0.5218
G1 X0.6138 Y-0.494
G1 X0.6368 Y-0.4649
G1 X0.6583 Y-0.4348
G1 X0.6784 Y-0.4037
G1 X0.6968 Y-0.3717
G1 X0.7138 Y-0.3388
G1 X0.7291 Y-0.3051
G1 X0.7428 Y-0.2707
G1 X0.7548 Y-0.2357
G1 X0.7652 Y-0.2002
G1 X0.7738 Y-0.1642
G1 X0.7806 Y-0.1278
G1 X0.7856 Y-0.0912
G1 X0.7889 Y-0.0543
G1 X0.7903 Y-0.0173
G1 X0.79 Y0.0197
G1 X0.7878 Y0.0566
G1 X0.7839 Y0.0934
G1 X0.7782 Y0.1299
G1 X0.7706 Y0.1662
G1 X0.7613 Y0.202
G1 X0.7502 Y0.2373
G1 X0.7374 Y0.272
G1 X0.7229 Y0.3061
G1 X0.7068 Y0.3394
G1 X0.6891 Y0.3718
G1 X0.6698 Y0.4034
G1 X0.649 Y0.434
G1 X0.6266 Y0.4635
G1 X0.6029 Y0.4919
G1 X0.5778 Y0.5191
G1 X0.5514 Y0.545
G1 X0.5238 Y0.5696
G1 X0.495 Y0.5929
G1 X0.4651 Y0.6147
G1 X0.4342 Y0.6351
G1 X0.4024 Y0.6539
G1 X0.3696 Y0.6711
G1 X0.3361 Y0.6868
G1 X0.3018 Y0.7008
G1 X0.267 Y0.7132
G1 X0.2315 Y0.7239
G1 X0.1957 Y0.7329
G1 X0.1594 Y0.7401
G1 X0.1228 Y0.7456
G1 X0.086 Y0.7493
G1 X0.049 Y0.7513
G1 X0.012 Y0.7515
G1 X-0.025 Y0.7499
G1 X-0.0618 Y0.7466
G1 X-0.0985 Y0.7416
G1 X-0.1349 Y0.7348
G1 X-0.1709 Y0.7264
G1 X-0.2064 Y0.7162
G1 X-0.2415 Y0.7043
G1 X-0.276 Y0.6908
G1 X-0.3098 Y0.6757
G1 X-0.3428 Y0.6591
G1 X-0.3751 Y0.641
G1 X-0.4064 Y0.6214
G1 X-0.4369 Y0.6003
G1 X-0.4662 Y0.5778
G1 X-0.4945 Y0.554
G1 X-0.5217 Y0.5288
G1 X-0.5476 Y0.5025
G1 X-0.5724 Y0.4749
G1 X-0.5958 Y0.4463
G1 X-0.6179 Y0.4166
G1 X-0.6386 Y0.3859
G1 X-0.6579 Y0.3543
G1 X-0.6756 Y0.3219
G1 X-0.6918 Y0.2886
G1 X-0.7065 Y0.2546
G1 X-0.7196 Y0.22
G1 X-0.7311 Y0.1849
G1 X-0.741 Y0.1492
G1 X-0.7492 Y0.1131
G1 X-0.7558 Y0.0767
G1 X-0.7607 Y0.04
G1 X-0.7639 Y0.0032
G1 X-0.7653 Y-0.0338
G1 X-0.7651 Y-0.0708
G1 X-0.7632 Y-0.1078
G1 X-0.7597 Y-0.1446
G1 X-0.7544 Y-0.1812
G1 X-0.7475 Y-0.2176
G1 X-0.7389 Y-0.2536
G1 X-0.7287 Y-0.2891
G1 X-0.7168 Y-0.3242
G1 X-0.7033 Y-0.3586
G1 X-0.6883 Y-0.3924
G1 X-0.6718 Y-0.4256
G1 X-0.6538 Y-0.4579
G1 X-0.6344 Y-0.4894
G1 X-0.6135 Y-0.5199
G1 X-0.5912 Y-0.5495
G1 X-0.5676 Y-0.578
G1 X-0.5427 Y-0.6053
G1 X-0.5166 Y-0.6316
G1 X-0.4894 Y-0.6566
G1 X-0.461 Y-0.6803
G1 X-0.4316 Y-0.7028
G1 X-0.4012 Y-0.7239
G1 X-0.3698 Y-0.7436
G1 X-0.3376 Y-0.7618
G1 X-0.3046 Y-0.7785
G1 X-0.2708 Y-0.7936
G1 X-0.2364 Y-0.8073
G1 X-0.2015 Y-0.8193
G1 X-0.166 Y-0.8298
G1 X-0.13 Y-0.8386
G1 X-0.0937 Y-0.8458
G1 X-0.0572 Y-0.8514
G1 X-0.0204 Y-0.8552
G1 X0.0166 Y-0.8574
G1 X0.0536 Y-0.8578
G1 X0.0906 Y-0.8566
G1 X0.1275 Y-0.8538
G1 X0.1642 Y-0.8492
G1 X0.2007 Y-0.8431
G1 X0.2368 Y-0.8353
G1 X0.2726 Y-0.8258
G1 X0.3079 Y-0.8147
G1 X0.3427 Y-0.8021
G1 X0.3769 Y-0.7879
G1 X0.4104 Y-0.7722
G1 X0.4432 Y-0.7551
G1 X0.4752 Y-0.7365
G1 X0.5063 Y-0.7166
G1 X0.5366 Y-0.6953
G1 X0.5659 Y-0.6727
G1 X0.5942 Y-0.6488
G1 X0.6213 Y-0.6237
G1 X0.6474 Y-0.5974
G1 X0.6724 Y-0.5701
G1 X0.6961 Y-0.5417
G1 X0.7186 Y-0.5123
G1 X0.7398 Y-0.482
G1 X0.7597 Y-0.4508
G1 X0.7782 Y-0.4188
G1 X0.7953 Y-0.386
G1 X0.811 Y-0.3524
G1 X0.8252 Y-0.3183
G1 X0.838 Y-0.2835
G1 X0.8492 Y-0.2483
G1 X0.859 Y-0.2126
G1 X0.8671 Y-0.1765
G1 X0.8738 Y-0.1401
G1 X0.8788 Y-0.1034
G1 X0.8822 Y-0.0666
G1 X0.884 Y-0.0296
G1 X0.8842 Y0.0074
G1 X0.8828 Y0.0443
G1 X0.8798 Y0.0812
G1 X0.8752 Y0.1179
G1 X0.8691 Y0.1544
G1 X0.8613 Y0.1906
G1 X0.852 Y0.2264
G1 X0.8411 Y0.2618
G1 X0.8286 Y0.2966
G1 X0.8146 Y0.3309
G1 X0.7992 Y0.3645
G1 X0.7823 Y0.3974
G1 X0.764 Y0.4296
G1 X0.7443 Y0.4609
G1 X0.7233 Y0.4914
G1 X0.701 Y0.5209
G1 X0.6774 Y0.5494
G1 X0.6525 Y0.5768
G1 X0.6265 Y0.6031
G1 X0.5994 Y0.6283
G1 X0.5712 Y0.6523
G1 X0.5421 Y0.675
G1 X0.5119 Y0.6965
G1 X0.4809 Y0.7167
G1 X0.449 Y0.7355
G1 X0.4276 Y0.7469
G1 X0.4199 Y0.7503
G1 X0.4118 Y0.7525
G1 X0.4035 Y0.7536
G1 X0.3943 Y0.7548
G1 X0.3775 Y0.7586
G1 X0.3691 Y0.761
G1 X0.2934 Y0.7864
G1 X0.2598 Y0.7954
G1 X0.1758 Y0.8131
G1 X0.1337 Y0.8172
G1 X0.0749 Y0.8218
G1 X0.0581 Y0.8227
G1 X-0.026 Y0.8193
G1 X-0.0589 Y0.8161
G1 X-0.1436 Y0.8018
G1 X-0.1773 Y0.7928
G1 X-0.2445 Y0.7727
G1 X-0.2529 Y0.7699
G1 X-0.2697 Y0.763
G1 X-0.3404 Y0.732
G1 X-0.3717 Y0.7152
G1 X-0.4294 Y0.6808
G1 X-0.4546 Y0.6636
G1 X-0.4883 Y0.6378
G1 X-0.5182 Y0.6143
G1 X-0.5303 Y0.6043
G1 X-0.5387 Y0.5965
G1 X-0.5975 Y0.5376
G1 X-0.6059 Y0.5283
G1 X-0.6247 Y0.5051
G1 X-0.6574 Y0.463
G1 X-0.6648 Y0.4529
G1 X-0.6816 Y0.4281
G1 X-0.7158 Y0.3706
G1 X-0.732 Y0.3404
G1 X-0.7667 Y0.2613
G1 X-0.7699 Y0.2529
G1 X-0.7803 Y0.2193
G1 X-0.7952 Y0.1689
G1 X-0.8018 Y0.1436
G1 X-0.8161 Y0.059
G1 X-0.8186 Y0.0344
G1 X-0.8193 Y0.026
G1 X-0.8228 Y-0.0581
G1 X-0.82 Y-0.1001
G1 X-0.8148 Y-0.159
G1 X-0.8131 Y-0.1758
G1 X-0.7954 Y-0.2598
G1 X-0.7864 Y-0.2934
G1 X-0.761 Y-0.3691
G1 X-0.7572 Y-0.3839
G1 X-0.7549 Y-0.3943
G1 X-0.7537 Y-0.4027
G1 X-0.7523 Y-0.4137
G1 X-0.7469 Y-0.4385
G1 X-0.7383 Y-0.467
G1 X-0.7257 Y-0.4991
G1 X-0.7095 Y-0.5324
G1 X-0.6909 Y-0.5644
G1 X-0.6704 Y-0.5952
G1 X-0.6481 Y-0.6247
G1 X-0.6245 Y-0.6532
G1 X-0.5995 Y-0.6804
G1 X-0.5732 Y-0.7066
G1 X-0.5459 Y-0.7315
G1 X-0.5176 Y-0.7553
G1 X-0.4882 Y-0.7779
G1 X-0.458 Y-0.7991
G1 X-0.4268 Y-0.8191
G1 X-0.3914 Y-0.8396
G1 X-0.3824 Y-0.8434
G1 X-0.373 Y-0.8454
G1 X-0.3633 Y-0.8458
G1 X-0.3538 Y-0.8444
G1 X-0.337 Y-0.8429
G1 X-0.3286 Y-0.8426
G1 X-0.3117 Y-0.8438
G1 X-0.3033 Y-0.8452
G1 X-0.2865 Y-0.8493
G1 X-0.2697 Y-0.8547
G1 X-0.2025 Y-0.8774
G1 X-0.1773 Y-0.8841
G1 X-0.1604 Y-0.8881
G1 X-0.0848 Y-0.9042
G1 X-0.0007 Y-0.9117
G1 X0.0329 Y-0.9136
G1 X0.1169 Y-0.9104
G1 X0.1495 Y-0.907
G1 X0.2262 Y-0.8944
G1 X0.2346 Y-0.8928
G1 X0.2682 Y-0.8837
G1 X0.3355 Y-0.8636
G1 X0.3439 Y-0.8609
G1 X0.3607 Y-0.8539
G1 X0.4315 Y-0.823
G1 X0.4626 Y-0.8062
G1 X0.5204 Y-0.7717
G1 X0.5456 Y-0.7545
G1 X0.5792 Y-0.7287
G1 X0.6091 Y-0.7053
G1 X0.6212 Y-0.6952
G1 X0.6297 Y-0.6874
G1 X0.6885 Y-0.6286
G1 X0.6969 Y-0.6193
G1 X0.7156 Y-0.596
G1 X0.7483 Y-0.554
G1 X0.7603 Y-0.5372
G1 X0.7725 Y-0.5191
G1 X0.8068 Y-0.4615
G1 X0.823 Y-0.4314
G1 X0.8576 Y-0.3523
G1 X0.8609 Y-0.3439
G1 X0.8688 Y-0.3187
G1 X0.8862 Y-0.2598
G1 X0.8928 Y-0.2346
G1 X0.9041 Y-0.1674
G1 X0.907 Y-0.1495
G1 X0.9103 Y-0.1169
G1 X0.9136 Y-0.0329
G1 X0.9117 Y0.0007
G1 X0.9042 Y0.0848
G1 X0.8863 Y0.1689
G1 X0.8798 Y0.1941
G1 X0.8746 Y0.2109
G1 X0.8518 Y0.2781
G1 X0.8482 Y0.2913
G1 X0.8452 Y0.3033
G1 X0.8439 Y0.3117
G1 X0.8427 Y0.3286
G1 X0.843 Y0.337
G1 X0.8449 Y0.3552
G1 X0.8459 Y0.3605
G1 X0.8467 Y0.3737
G1 X0.8464 Y0.3885
G1 X0.8447 Y0.4065
G1 X0.8411 Y0.4264
G1 X0.8348 Y0.4501
G1 X0.8251 Y0.4776
G1 X0.8114 Y0.5085
G1 X0.7936 Y0.541
G1 X0.7735 Y0.5721
G1 X0.7516 Y0.6018
G1 X0.728 Y0.6303
G1 X0.703 Y0.6577
G1 X0.6768 Y0.6838
G1 X0.6495 Y0.7088
G1 X0.6212 Y0.7326
G1 X0.5919 Y0.7552
G1 X0.5614 Y0.7768
G1 X0.5514 Y0.782
G1 X0.5405 Y0.7851
G1 X0.5292 Y0.786
G1 X0.518 Y0.7848
G1 X0.5072 Y0.7815
G1 X0.4973 Y0.7761
G3 X0.4923 Y0.7404 I0.0147 J-0.0202 F40.
G1 X0.8011 Y0.3464
G3 X0.8449 Y0.3552 I0.0197 J0.0154
G1 X0.851 Y0.379 F26.
G1 X0.8566 Y0.3923
G1 X0.8629 Y0.4042
G1 X0.865 Y0.4074
G1 X0.8689 Y0.414
G1 X0.8723 Y0.421
G1 X0.8753 Y0.4286
G1 X0.8782 Y0.438
G1 X0.8806 Y0.4492
G1 X0.8822 Y0.4609
G1 X0.883 Y0.4754
G1 X0.8825 Y0.4911
G1 X0.8806 Y0.5091
G1 X0.8768 Y0.5293
G1 X0.8704 Y0.5525
G1 X0.8612 Y0.5777
G1 X0.848 Y0.6066
G1 X0.83 Y0.639
G1 X0.8094 Y0.6697
G1 X0.7869 Y0.6991
G1 X0.7627 Y0.7271
G1 X0.7371 Y0.7538
G1 X0.7102 Y0.7792
G1 X0.6823 Y0.8035
G1 X0.6613 Y0.8194
G1 X0.6435 Y0.8307
G1 X0.6266 Y0.8396
G1 X0.6202 Y0.8424
G1 X0.6092 Y0.8459
G1 X0.5977 Y0.8471
G1 X0.5862 Y0.8461
G1 X0.5751 Y0.8428
G1 X0.5649 Y0.8374
G1 X0.5559 Y0.83
G1 X0.5165 Y0.7908
G1 X0.5036 Y0.7803
G1 X0.4973 Y0.7761
G3 X0.4943 Y0.7382 I0.0147 J-0.0202 F40.
G1 X0.8269 Y0.4043
G3 X0.865 Y0.4074 I0.0177 J0.0176
G1 X0.8685 Y0.4126 F26.
G1 X0.8748 Y0.421
G1 X0.8821 Y0.4294
G1 X0.9033 Y0.4508
G1 X0.9079 Y0.456
G1 X0.9123 Y0.4617
G1 X0.9166 Y0.4684
G1 X0.9208 Y0.4761
G1 X0.9249 Y0.4854
G1 X0.9284 Y0.4955
G1 X0.9316 Y0.5078
G1 X0.9338 Y0.5207
G1 X0.9353 Y0.5362
G1 X0.9355 Y0.5527
G1 X0.9342 Y0.572
G1 X0.9311 Y0.5928
G1 X0.9255 Y0.6168
G1 X0.9175 Y0.6418
G1 X0.9057 Y0.6705
G1 X0.8895 Y0.7024
G1 X0.8702 Y0.734
G1 X0.8487 Y0.764
G1 X0.8253 Y0.7928
G1 X0.8004 Y0.8201
G1 X0.774 Y0.846
G1 X0.7472 Y0.8686
G1 X0.7255 Y0.8841
G1 X0.7075 Y0.8949
G1 X0.691 Y0.903
G1 X0.6823 Y0.9065
G1 X0.6715 Y0.9096
G1 X0.6602 Y0.9106
G1 X0.649 Y0.9094
G1 X0.6382 Y0.9061
G1 X0.6282 Y0.9007
G1 X0.6195 Y0.8936
G1 X0.5559 Y0.83
G3 X0.5557 Y0.7962 I0.0183 J-0.0171 F40.
G1 X0.8677 Y0.4523
G3 X0.9033 Y0.4508 I0.0185 J0.0168
G1 X0.9575 Y0.505 F26.
G1 X0.963 Y0.5111
G1 X0.9678 Y0.5174
G1 X0.9727 Y0.525
G1 X0.9773 Y0.5335
G1 X0.9819 Y0.5439
G1 X0.9857 Y0.5549
G1 X0.9892 Y0.5684
G1 X0.9916 Y0.5825
G1 X0.9932 Y0.5996
G1 X0.9934 Y0.6172
G1 X0.992 Y0.6386
G1 X0.9887 Y0.6603
G1 X0.9828 Y0.6859
G1 X0.974 Y0.7136
G1 X0.9618 Y0.7433
G1 X0.945 Y0.7763
G1 X0.9257 Y0.8079
G1 X0.9042 Y0.838
G1 X0.8808 Y0.8666
G1 X0.8556 Y0.8937
G1 X0.8287 Y0.9187
G1 X0.8042 Y0.9381
G1 X0.7832 Y0.9521
G1 X0.7653 Y0.9621
G1 X0.7494 Y0.9693
G1 X0.7445 Y0.9711
G1 X0.7317 Y0.9741
G1 X0.7185 Y0.9742
G1 X0.7056 Y0.9714
G1 X0.6937 Y0.9657
G1 X0.6834 Y0.9575
G1 X0.6195 Y0.8936
G3 X0.6188 Y0.8602 I0.0183 J-0.0171 F40.
G1 X0.9214 Y0.507
G3 X0.9575 Y0.505 I0.019 J0.0163
G1 X1.0163 Y0.5639 F26.
G1 X1.0218 Y0.57
G1 X1.0268 Y0.5764
G1 X1.032 Y0.5845
G1 X1.0368 Y0.5933
G1 X1.0414 Y0.6039
G1 X1.0456 Y0.6159
G1 X1.0491 Y0.6296
G1 X1.0518 Y0.6451
G1 X1.0534 Y0.6624
G1 X1.0537 Y0.6817
G1 X1.0528 Y0.6947
G1 X1.0512 Y0.705
G1 X1.0477 Y0.7149
G1 X1.0426 Y0.724
G1 X1.0359 Y0.732
G3 X0.9941 Y0.7174 I-0.0171 J-0.0183 F40.
G1 X0.9838 Y0.648
G1 X0.9745 Y0.5858
G3 X1.0163 Y0.5639 I0.0247 J-0.0037
G1 X1.0751 Y0.6227 F26.
G1 X1.0821 Y0.6304
G1 X1.0876 Y0.6397
G1 X1.0907 Y0.65
G1 X1.0913 Y0.6607
G1 X1.0894 Y0.6713
G1 X1.0849 Y0.6811
G1 X1.0783 Y0.6896
G3 X1.0363 Y0.6739 I-0.0171 J-0.0183 F40.
G1 X1.0332 Y0.6435
G3 X1.0751 Y0.6227 I0.0249 J-0.0026
G1 X1.0939 Y0.6416 F26.
G1 X1.0966 Y0.6459
G1 X1.0989 Y0.6522
G1 X1.0996 Y0.6564
G1 X1.0995 Y0.6606
G1 X1.0979 Y0.6669
G1 X1.0959 Y0.6711
G1 X1.0919 Y0.6759
G1 X0.7725 Y0.9954
G1 X0.767 Y1.0004
G1 X0.7587 Y1.005
G1 X0.7495 Y1.0071
G1 X0.74 Y1.0065
G1 X0.7311 Y1.0032
G1 X0.7235 Y0.9976
G3 X0.7135 Y0.9736 I0.0275 J-0.0256 F40.
G3 X0.7817 Y0.9706 I0.0341 J-0.0015
G3 X0.7725 Y0.9954 I-0.0341 J0.0015
G1 X0.7641 Y1.0038 F26.
G1 X0.7599 Y1.0069
G1 X0.7542 Y1.0094
G1 X0.7508 Y1.0101
G1 X0.7473 Y1.0104
G1 X0.7438 Y1.0101
G1 X0.7389 Y1.009
G1 X0.7347 Y1.0072
G1 X0.7305 Y1.0044
G1 X0.6834 Y0.9575
G1 X0.6813 Y0.9549 F40.
G1 X0.6796 Y0.9522
G1 X0.6783 Y0.9492
G1 X0.6769 Y0.9455 Z-0.0997
G1 X0.6756 Y0.9419 Z-0.0988
G1 X0.6743 Y0.9385 Z-0.0973
G1 X0.6731 Y0.9354 Z-0.0952
G1 X0.6721 Y0.9326 Z-0.0927
G1 X0.6712 Y0.9302 Z-0.0897
G1 X0.6705 Y0.9283 Z-0.0863
G1 X0.67 Y0.9269 Z-0.0827
G1 X0.6696 Y0.926 Z-0.0789
G1 X0.6695 Y0.9258 Z-0.075
G0 Z0.2
G0 X-0.7234 Y-0.3892
G0 Z-0.05
G1 Z-0.075 F40.
G1 X-0.7237 Z-0.0789
G1 X-0.7246 Y-0.3894 Z-0.0827
G1 X-0.7261 Y-0.3898 Z-0.0863
G1 X-0.7281 Y-0.3903 Z-0.0897
G1 X-0.7305 Y-0.3909 Z-0.0927
G1 X-0.7334 Y-0.3915 Z-0.0952
G1 X-0.7367 Y-0.3923 Z-0.0973
G1 X-0.7402 Y-0.3932 Z-0.0988
G1 X-0.7439 Y-0.394 Z-0.0997
G1 X-0.7477 Y-0.3949 Z-0.1
G1 X-0.7497 Y-0.3957
G1 X-0.7514 Y-0.397
G1 X-0.7527 Y-0.3986
G1 X-0.7535 Y-0.4006
G1 X-0.7537 Y-0.4027
G1 X-0.7528 Y-0.4195 F26.
G1 X-0.7542 Y-0.4363
G1 X-0.7552 Y-0.4447
G1 X-0.7623 Y-0.47
G1 X-0.7628 Y-0.4711
G1 X-0.7649 Y-0.4761
G1 X-0.7672 Y-0.4843
G1 X-0.769 Y-0.4939
G1 X-0.7703 Y-0.5056
G1 X-0.7707 Y-0.5183
G1 X-0.7699 Y-0.5333
G1 X-0.7677 Y-0.5504
G1 X-0.7635 Y-0.5698
G1 X-0.7569 Y-0.5918
G1 X-0.7469 Y-0.6174
G1 X-0.7331 Y-0.6458
G1 X-0.7143 Y-0.6777
G1 X-0.693 Y-0.708
G1 X-0.6698 Y-0.7368
G1 X-0.6449 Y-0.7642
G1 X-0.6187 Y-0.7903
G1 X-0.5912 Y-0.8151
G1 X-0.5627 Y-0.8387
G1 X-0.5332 Y-0.8611
G1 X-0.5031 Y-0.882
G1 X-0.4953 Y-0.8866
G1 X-0.4843 Y-0.8916
G1 X-0.4726 Y-0.8942
G1 X-0.4606 Y-0.8943
G1 X-0.4489 Y-0.892
G1 X-0.4378 Y-0.8874
G1 X-0.428 Y-0.8805
G1 X-0.421 Y-0.8746
G3 X-0.4185 Y-0.8404 I-0.0169 J0.0184 F40.
G1 X-0.7212 Y-0.4669
G3 X-0.7628 Y-0.4711 I-0.0194 J-0.0157
G1 X-0.7703 Y-0.4868 F26.
G1 X-0.7749 Y-0.4952
G1 X-0.7824 Y-0.5061
G1 X-0.7908 Y-0.5161
G1 X-0.7943 Y-0.5203
G1 X-0.798 Y-0.5259
G1 X-0.8018 Y-0.5329
G1 X-0.8051 Y-0.5404
G1 X-0.8084 Y-0.5498
G1 X-0.8111 Y-0.5601
G1 X-0.8132 Y-0.5719
G1 X-0.8146 Y-0.5859
G1 X-0.8148 Y-0.6005
G1 X-0.8137 Y-0.6184
G1 X-0.811 Y-0.6367
G1 X-0.806 Y-0.6587
G1 X-0.7988 Y-0.6814
G1 X-0.7881 Y-0.7078
G1 X-0.7733 Y-0.7372
G1 X-0.7541 Y-0.7688
G1 X-0.7324 Y-0.7988
G1 X-0.7089 Y-0.8273
G1 X-0.6836 Y-0.8544
G1 X-0.657 Y-0.8801
G1 X-0.6292 Y-0.9046
G1 X-0.6045 Y-0.924
G1 X-0.585 Y-0.9369
G1 X-0.5684 Y-0.9461
G1 X-0.5495 Y-0.9544
G1 X-0.5367 Y-0.9574
G1 X-0.5235
G1 X-0.5107 Y-0.9546
G1 X-0.4989 Y-0.9489
G1 X-0.4886 Y-0.9407
G1 X-0.4294 Y-0.8818
G1 X-0.428 Y-0.8805
G3 X-0.4272 Y-0.8444 I-0.0169 J0.0184 F40.
G1 X-0.7555 Y-0.5161
G3 X-0.7908 I-0.0177 J-0.0177
G1 X-0.8368 Y-0.5624 F26.
G1 X-0.8411 Y-0.5671
G1 X-0.8458 Y-0.5732
G1 X-0.8501 Y-0.58
G1 X-0.8547 Y-0.5884
G1 X-0.8587 Y-0.5975
G1 X-0.8625 Y-0.6086
G1 X-0.8656 Y-0.6203
G1 X-0.868 Y-0.6344
G1 X-0.8694 Y-0.6494
G1 X-0.8696 Y-0.6669
G1 X-0.8684 Y-0.6857
G1 X-0.8651 Y-0.7075
G1 X-0.8598 Y-0.7303
G1 X-0.8514 Y-0.7566
G1 X-0.8399 Y-0.7845
G1 X-0.8245 Y-0.8149
G1 X-0.8052 Y-0.8465
G1 X-0.7835 Y-0.8765
G1 X-0.76 Y-0.905
G1 X-0.7348 Y-0.9322
G1 X-0.708 Y-0.9577
G1 X-0.6809 Y-0.9802
G1 X-0.6593 Y-0.9953
G1 X-0.6401 Y-1.0065
G1 X-0.6231 Y-1.0148
G1 X-0.615 Y-1.0179
G1 X-0.6042 Y-1.0209
G1 X-0.593 Y-1.0218
G1 X-0.5819 Y-1.0206
G1 X-0.5712 Y-1.0172
G1 X-0.5613 Y-1.0119
G1 X-0.5527 Y-1.0048
G1 X-0.4886 Y-0.9407
G3 X-0.4884 Y-0.9068 I-0.0183 J0.0171 F40.
G1 X-0.8013 Y-0.5638
G3 X-0.8368 Y-0.5624 I-0.0185 J-0.0168
G1 X-0.8917 Y-0.6173 F26.
G1 X-0.8974 Y-0.6235
G1 X-0.9022 Y-0.6298
G1 X-0.9072 Y-0.6376
G1 X-0.9118 Y-0.6461
G1 X-0.9164 Y-0.6566
G1 X-0.9202 Y-0.6677
G1 X-0.9238 Y-0.6812
G1 X-0.9263 Y-0.6955
G1 X-0.9279 Y-0.7127
G1 X-0.9281 Y-0.7304
G1 X-0.9266 Y-0.7517
G1 X-0.9234 Y-0.7734
G1 X-0.9175 Y-0.7988
G1 X-0.9088 Y-0.8261
G1 X-0.8968 Y-0.8552
G1 X-0.8844 Y-0.8798
G1 X-0.8813 Y-0.8851
G1 X-0.8777 Y-0.89
G1 X-0.8736 Y-0.8946
G3 X-0.8316 Y-0.8744 I0.0171 J0.0183 F40.
G1 X-0.8405 Y-0.7559
G1 X-0.8497 Y-0.6337
G3 X-0.8917 Y-0.6173 I-0.0249 J-0.0019
G1 X-0.9505 Y-0.6761 F26.
G1 X-0.9565 Y-0.6827
G1 X-0.9615 Y-0.6892
G1 X-0.9667 Y-0.6972
G1 X-0.9715 Y-0.7061
G1 X-0.9761 Y-0.7167
G1 X-0.9803 Y-0.7287
G1 X-0.9838 Y-0.7424
G1 X-0.9849 Y-0.7482
G1 X-0.9857 Y-0.7594
G1 X-0.9845 Y-0.7705
G1 X-0.9811 Y-0.7811
G1 X-0.9758 Y-0.7909
G1 X-0.9687 Y-0.7995
G3 X-0.9271 Y-0.7863 I0.0171 J0.0183 F40.
G1 X-0.909 Y-0.6995
G3 X-0.9505 Y-0.6761 I-0.0245 J0.0051
G1 X-1.0048 Y-0.7305 F26.
G1 X-1.0086 Y-0.7367
G1 X-1.0094 Y-0.7389
G1 X-1.0105 Y-0.7431
G1 X-1.0108 Y-0.7473
G1 X-1.0104 Y-0.7513
G1 X-1.0092 Y-0.7557
G1 X-1.0072 Y-0.7599
G1 X-1.004 Y-0.7641
G1 X-0.7435 Y-1.0247
G1 X-0.7187 Y-1.0471
G1 X-0.7048 Y-1.0578
G1 X-0.6911 Y-1.0667
G1 X-0.6784 Y-1.0736
G1 X-0.6754 Y-1.0749
G1 X-0.6643 Y-1.0785
G1 X-0.6527 Y-1.0798
G1 X-0.6411 Y-1.0788
G1 X-0.63 Y-1.0755
G1 X-0.6197 Y-1.0701
G1 X-0.6107 Y-1.0627
G3 X-0.6198 Y-1.0224 I-0.0183 J0.0171 F40.
G1 X-0.7161 Y-0.9844
G3 X-0.7435 Y-1.0247 I-0.0092 J-0.0233
G1 X-0.6763 Y-1.0919 F26.
G1 X-0.6711 Y-1.0961
G1 X-0.6669 Y-1.0982
G1 X-0.6606 Y-1.0997
G1 X-0.6564
G1 X-0.6501 Y-1.0985
G1 X-0.6459 Y-1.0966
G1 X-0.6419 Y-1.0938
G1 X-0.5527 Y-1.0048
G1 X-0.5515 Y-1.0029 Z-0.0997 F40.
G1 X-0.5504 Y-1.0012 Z-0.099
G1 X-0.5494 Y-0.9997 Z-0.0979
G1 X-0.5485 Y-0.9984 Z-0.0963
G1 X-0.5479 Y-0.9974 Z-0.0945
G1 X-0.5476 Y-0.9967 Z-0.0924
G1 X-0.5475 Y-0.9965 Z-0.0902
G0 Z0.2
G0 X-0.9741 Y-0.7391
G0 Z-0.04
G1 Z-0.065 F40.
G1 X-0.9744 Y-0.7392 Z-0.0689
G1 X-0.9752 Y-0.7396 Z-0.0727
G1 X-0.9766 Y-0.7402 Z-0.0763
G1 X-0.9784 Y-0.7411 Z-0.0797
G1 X-0.9807 Y-0.7422 Z-0.0827
G1 X-0.9834 Y-0.7435 Z-0.0852
G1 X-0.9864 Y-0.7449 Z-0.0873
G1 X-0.9897 Y-0.7464 Z-0.0888
G1 X-0.9932 Y-0.7481 Z-0.0897
G1 X-0.9967 Y-0.7497 Z-0.09
G1 X-1.001 Y-0.752
G1 X-1.0051 Y-0.7548
G1 X-1.007 Y-0.7564 F26.
G1 X-1.0076 Y-0.7588
G1 X-1.0068 Y-0.7611
G1 X-1.0045 Y-0.7641
G1 X-0.6768 Y-1.0919
G1 X-0.6732 Y-1.0951
G1 X-0.669 Y-1.0976
G1 X-0.6648 Y-1.0991
G1 X-0.6606 Y-1.0999
G1 X-0.6564 Y-1.1
G1 X-0.6501 Y-1.0988
G1 X-0.6459 Y-1.097
G1 X-0.6416 Y-1.0941
G1 X-0.4294 Y-0.8823
G1 X-0.4273 Y-0.8798 F40.
G1 X-0.4256 Y-0.877
G1 X-0.4242 Y-0.874
G1 X-0.4227 Y-0.8704 Z-0.0897
G1 X-0.4214 Y-0.8668 Z-0.0888
G1 X-0.42 Y-0.8635 Z-0.0873
G1 X-0.4188 Y-0.8603 Z-0.0852
G1 X-0.4177 Y-0.8576 Z-0.0827
G1 X-0.4168 Y-0.8552 Z-0.0797
G1 X-0.4161 Y-0.8533 Z-0.0763
G1 X-0.4155 Y-0.8519 Z-0.0727
G1 X-0.4152 Y-0.851 Z-0.0689
G1 X-0.4151 Y-0.8507 Z-0.065
G0 Z0.2
G0 X-0.251 Y-0.8501
G0 Z-0.04
G1 Z-0.065 F40.
G1 X-0.2513 Z-0.0689
G1 X-0.2522 Y-0.8498 Z-0.0727
G1 X-0.2536 Y-0.8494 Z-0.0763
G1 X-0.2556 Y-0.8488 Z-0.0797
G1 X-0.258 Y-0.848 Z-0.0827
G1 X-0.2609 Y-0.8472 Z-0.0852
G1 X-0.2641 Y-0.8462 Z-0.0873
G1 X-0.2676 Y-0.8452 Z-0.0888
G1 X-0.2712 Y-0.844 Z-0.0897
G1 X-0.275 Y-0.8429 Z-0.09
G1 X-0.2766 Y-0.8427
G1 X-0.2782 Y-0.8431
G1 X-0.2797 Y-0.844
G1 X-0.2807 Y-0.8453
G1 X-0.2812 Y-0.8468
G1 Y-0.8485
G1 X-0.2806 Y-0.8501
G1 X-0.2796 Y-0.8514
G1 X-0.2781 Y-0.8522
G1 X-0.2025 Y-0.8778 F26.
G1 X-0.1773 Y-0.8845
G1 X-0.1604 Y-0.8884
G1 X-0.0848 Y-0.9045
G1 X-0.0007 Y-0.9121
G1 X0.0329 Y-0.914
G1 X0.1169 Y-0.9107
G1 X0.1421 Y-0.9083
G1 X0.1674 Y-0.9044
G1 X0.2346 Y-0.8931
G1 X0.2682 Y-0.8841
G1 X0.3355 Y-0.8641
G1 X0.3439 Y-0.8612
G1 X0.3607 Y-0.8543
G1 X0.4323 Y-0.823
G1 X0.4633 Y-0.8062
G1 X0.5204 Y-0.7721
G1 X0.5456 Y-0.755
G1 X0.5792 Y-0.7292
G1 X0.6096 Y-0.7053
G1 X0.6212 Y-0.6957
G1 X0.6297 Y-0.6879
G1 X0.6885 Y-0.6291
G1 X0.6969 Y-0.6198
G1 X0.7161 Y-0.596
G1 X0.7488 Y-0.554
G1 X0.7607 Y-0.5372
G1 X0.7725 Y-0.5198
G1 X0.8072 Y-0.4615
G1 X0.823 Y-0.4323
G1 X0.858 Y-0.3523
G1 X0.8612 Y-0.3439
G1 X0.8667 Y-0.3271
G1 X0.8865 Y-0.2598
G1 X0.8931 Y-0.2346
G1 X0.9044 Y-0.1674
G1 X0.9083 Y-0.1421
G1 X0.9107 Y-0.1169
G1 X0.914 Y-0.0329
G1 X0.912 Y0.0007
G1 X0.9045 Y0.0848
G1 X0.8866 Y0.1689
G1 X0.8802 Y0.1941
G1 X0.875 Y0.2109
G1 X0.8522 Y0.2781
G1 X0.8482 Y0.2928
G1 X0.8454 Y0.3047
G1 X0.8442 Y0.3131
G1 X0.8437 Y0.3201
G1 X0.8432 Y0.3234 F40.
G1 X0.8429 Y0.3254
G1 X0.8428 Y0.3275
G1 X0.8427 Y0.3299
G1 X0.8399 Y0.4015
G2 X0.8723 Y0.4264 I0.025 J0.001
G1 X0.8743 Y0.426
G1 X0.8763
G1 X0.8783 Y0.4265
G1 X0.8802 Y0.4274
G1 X0.8818 Y0.4287
G1 X1.0945 Y0.6416 F26.
G1 X1.0973 Y0.6459
G1 X1.0991 Y0.6501
G1 X1.1002 Y0.6564
G1 X1.1001 Y0.6606
G1 X1.0985 Y0.6669
G1 X1.0964 Y0.6711
G1 X1.0919 Y0.6764
G1 X0.7641 Y1.0043
G1 X0.7601 Y1.0074
G1 X0.7557 Y1.0095
G1 X0.7515 Y1.0107
G1 X0.7473 Y1.0111
G1 X0.7431 Y1.0108
G1 X0.7379 Y1.0094
G1 X0.7324 Y1.0064
G1 X0.7264 Y1.001
G1 X0.5204 Y0.795
G1 X0.5067 Y0.7832
G1 X0.4936 Y0.774
G1 X0.4731 Y0.764
G1 X0.4686 Y0.7621
G1 X0.4447 Y0.7555
G1 X0.4317 Y0.754
G3 X0.4161 Y0.7453 I0.0036 J-0.0247
G2 X0.3722 Y0.7576 I-0.0192 J0.016
G1 X0.3717 Y0.7592
G1 X0.3706 Y0.7605
G1 X0.3691 Y0.7614
G1 X0.2934 Y0.7867
G1 X0.2598 Y0.7957
G1 X0.1758 Y0.8135
G1 X0.1253 Y0.8182
G1 X0.0749 Y0.8222
G1 X0.0581 Y0.8231
G1 X-0.026 Y0.8197
G1 X-0.0512 Y0.8174
G1 X-0.068 Y0.8149
G1 X-0.1436 Y0.8021
G1 X-0.1773 Y0.7932
G1 X-0.2445 Y0.7731
G1 X-0.2529 Y0.7703
G1 X-0.2697 Y0.7634
G1 X-0.3413 Y0.732
G1 X-0.3723 Y0.7152
G1 X-0.4294 Y0.6812
G1 X-0.4546 Y0.664
G1 X-0.4883 Y0.6382
G1 X-0.5187 Y0.6143
G1 X-0.5303 Y0.6047
G1 X-0.5387 Y0.597
G1 X-0.5975 Y0.5381
G1 X-0.6059 Y0.5288
G1 X-0.6251 Y0.5051
G1 X-0.6578 Y0.463
G1 X-0.6648 Y0.4536
G1 X-0.6816 Y0.4288
G1 X-0.7163 Y0.3706
G1 X-0.732 Y0.3413
G1 X-0.7671 Y0.2613
G1 X-0.7703 Y0.2529
G1 X-0.7807 Y0.2193
G1 X-0.7956 Y0.1689
G1 X-0.8021 Y0.1436
G1 X-0.8163 Y0.0596
G1 X-0.8181 Y0.0428
G1 X-0.8197 Y0.026
G1 X-0.8231 Y-0.0581
G1 X-0.8203 Y-0.1001
G1 X-0.8152 Y-0.159
G1 X-0.8134 Y-0.1758
G1 X-0.7958 Y-0.2598
G1 X-0.7867 Y-0.2934
G1 X-0.7614 Y-0.3691
G1 X-0.7601 Y-0.3721 F40.
G1 X-0.7584 Y-0.3748
G1 X-0.7563 Y-0.3774
G1 X-0.7536 Y-0.3802 Z-0.0897
G1 X-0.751 Y-0.383 Z-0.0888
G1 X-0.7485 Y-0.3857 Z-0.0873
G1 X-0.7463 Y-0.3881 Z-0.0852
G1 X-0.7442 Y-0.3903 Z-0.0827
G1 X-0.7425 Y-0.3922 Z-0.0797
G1 X-0.7411 Y-0.3937 Z-0.0763
G1 X-0.7401 Y-0.3948 Z-0.0727
G1 X-0.7394 Y-0.3954 Z-0.0689
G1 X-0.7392 Y-0.3956 Z-0.065
G0 Z0.2
G0 X-0.8053 Y-0.5456
G0 Z-0.04
G1 Z-0.065 F40.
G1 X-0.8051 Y-0.5454 Z-0.0689
G1 X-0.8045 Y-0.5447 Z-0.0727
G1 X-0.8035 Y-0.5436 Z-0.0763
G1 X-0.8021 Y-0.5421 Z-0.0797
G1 X-0.8003 Y-0.5403 Z-0.0827
G1 X-0.7983 Y-0.5381 Z-0.0852
G1 X-0.796 Y-0.5356 Z-0.0873
G1 X-0.7936 Y-0.533 Z-0.0888
G1 X-0.791 Y-0.5302 Z-0.0897
G1 X-0.7883 Y-0.5273 Z-0.09
G1 X-0.7874 Y-0.5259
G1 X-0.787 Y-0.5243
G1 X-0.7872 Y-0.5226
G1 X-0.7879 Y-0.5211
G1 X-0.7891 Y-0.5199
G1 X-0.7906 Y-0.5192
G1 X-0.7923 Y-0.5191
G1 X-0.7939 Y-0.5195
G1 X-0.7953 Y-0.5204
G1 X-1.0053 Y-0.7305 F26.
G1 X-1.0077 Y-0.7338
G1 X-1.0101 Y-0.7389
G1 X-1.0111 Y-0.7431
G1 X-1.0114 Y-0.7473
G1 X-1.0104 Y-0.7536
G1 X-1.0094 Y-0.7566
G1 X-1.0068 Y-0.7611
G1 X-1.0052 Y-0.7625 Z-0.0897 F40.
G1 X-1.0036 Y-0.7638 Z-0.089
G1 X-1.0022 Y-0.765 Z-0.0879
G1 X-1.001 Y-0.766 Z-0.0863
G1 X-1.0001 Y-0.7668 Z-0.0845
G1 X-0.9995 Y-0.7671 Z-0.0824
G1 X-0.9993 Y-0.7673 Z-0.0802
G0 Z0.2
G0 X-0.974 Y-0.74
G0 Z-0.03
G1 Z-0.055 F40.
G1 X-0.9743 Y-0.7402 Z-0.0589
G1 X-0.9751 Y-0.7405 Z-0.0627
G1 X-0.9765 Y-0.7412 Z-0.0663
G1 X-0.9784 Y-0.742 Z-0.0697
G1 X-0.9807 Y-0.7431 Z-0.0727
G1 X-0.9834 Y-0.7444 Z-0.0752
G1 X-0.9864 Y-0.7458 Z-0.0773
G1 X-0.9897 Y-0.7473 Z-0.0788
G1 X-0.9931 Y-0.7489 Z-0.0797
G1 X-0.9967 Y-0.7506 Z-0.08
G1 X-1.001 Y-0.7529
G1 X-1.0051 Y-0.7557
G1 X-1.007 Y-0.7572 F26.
G1 X-1.0076 Y-0.7595
G1 X-1.0068 Y-0.7618
G1 X-1.005 Y-0.7641
G1 X-0.6773 Y-1.0919
G1 X-0.6732 Y-1.0957
G1 X-0.669 Y-1.0982
G1 X-0.6648 Y-1.0998
G1 X-0.6593 Y-1.1006
G1 X-0.6543 Y-1.1003
G1 X-0.6511 Y-1.0996
G1 X-0.648 Y-1.0985
G1 X-0.6437 Y-1.0961
G1 X-0.6389 Y-1.0919
G1 X-0.4294 Y-0.8827
G1 X-0.4273 Y-0.8802 F40.
G1 X-0.4256 Y-0.8775
G1 X-0.4242 Y-0.8745
G1 X-0.4227 Y-0.8709 Z-0.0797
G1 X-0.4214 Y-0.8673 Z-0.0788
G1 X-0.42 Y-0.8639 Z-0.0773
G1 X-0.4188 Y-0.8608 Z-0.0752
G1 X-0.4177 Y-0.858 Z-0.0727
G1 X-0.4168 Y-0.8557 Z-0.0697
G1 X-0.4161 Y-0.8538 Z-0.0663
G1 X-0.4155 Y-0.8524 Z-0.0627
G1 X-0.4152 Y-0.8515 Z-0.0589
G1 X-0.4151 Y-0.8512 Z-0.055
G0 Z0.2
G0 X-0.251 Y-0.8505
G0 Z-0.03
G1 Z-0.055 F40.
G1 X-0.2513 Y-0.8504 Z-0.0589
G1 X-0.2522 Y-0.8502 Z-0.0627
G1 X-0.2536 Y-0.8497 Z-0.0663
G1 X-0.2556 Y-0.8491 Z-0.0697
G1 X-0.258 Y-0.8484 Z-0.0727
G1 X-0.2609 Y-0.8475 Z-0.0752
G1 X-0.2641 Y-0.8466 Z-0.0773
G1 X-0.2676 Y-0.8455 Z-0.0788
G1 X-0.2712 Y-0.8444 Z-0.0797
G1 X-0.275 Y-0.8433 Z-0.08
G1 X-0.2766 Y-0.8431
G1 X-0.2782 Y-0.8435
G1 X-0.2797 Y-0.8443
G1 X-0.2807 Y-0.8457
G1 X-0.2812 Y-0.8472
G1 Y-0.8489
G1 X-0.2806 Y-0.8505
G1 X-0.2796 Y-0.8517
G1 X-0.2781 Y-0.8526
G1 X-0.2025 Y-0.8782 F26.
G1 X-0.1773 Y-0.8849
G1 X-0.1537 Y-0.8902
G1 X-0.0848 Y-0.9049
G1 X-0.0007 Y-0.9124
G1 X0.0329 Y-0.9143
G1 X0.1169 Y-0.9111
G1 X0.1421 Y-0.9086
G1 X0.1674 Y-0.9048
G1 X0.2346 Y-0.8936
G1 X0.2682 Y-0.8845
G1 X0.3355 Y-0.8645
G1 X0.3439 Y-0.8616
G1 X0.3607 Y-0.8547
G1 X0.4332 Y-0.823
G1 X0.4639 Y-0.8062
G1 X0.5204 Y-0.7725
G1 X0.5456 Y-0.7554
G1 X0.5792 Y-0.7296
G1 X0.6102 Y-0.7053
G1 X0.6212 Y-0.6961
G1 X0.6297 Y-0.6884
G1 X0.6885 Y-0.6296
G1 X0.6969 Y-0.6203
G1 X0.7137 Y-0.5997
G1 X0.7492 Y-0.554
G1 X0.7557 Y-0.5451
G1 X0.7725 Y-0.5204
G1 X0.8076 Y-0.4615
G1 X0.823 Y-0.4332
G1 X0.8583 Y-0.3523
G1 X0.8616 Y-0.3439
G1 X0.867 Y-0.3271
G1 X0.8869 Y-0.2598
G1 X0.8936 Y-0.2346
G1 X0.9076 Y-0.1506
G1 X0.9103 Y-0.1253
G1 X0.911 Y-0.1169
G1 X0.9143 Y-0.0329
G1 X0.9124 Y0.0007
G1 X0.9049 Y0.0848
G1 X0.887 Y0.1689
G1 X0.8806 Y0.1941
G1 X0.8753 Y0.2109
G1 X0.8526 Y0.2781
G1 X0.8501 Y0.2865
G1 X0.8458 Y0.3047
G1 X0.8446 Y0.3131
G1 X0.8441 Y0.3201
G1 X0.8437 Y0.3234 F40.
G1 X0.8433 Y0.326
G1 X0.8429 Y0.3299
G1 X0.8312 Y0.4492
G2 X0.881 Y0.454 I0.0249 J0.0024
G2 X0.8747 Y0.435 I-0.0249 J-0.0024
G1 X0.8738 Y0.4335
G1 X0.8735 Y0.4319
G1 X0.8737 Y0.4303
G1 X0.8744 Y0.4288
G1 X0.8756 Y0.4276
G1 X0.8772 Y0.4269
G1 X0.8788 Y0.4268
G1 X0.8804 Y0.4272
G1 X0.8818 Y0.4282
G1 X1.0949 Y0.6416 F26.
G1 X1.0977 Y0.6459
G1 X1.0997 Y0.6512
G1 X1.1005 Y0.6564
G1 X1.1003 Y0.6603
G1 X1.0988 Y0.6669
G1 X1.0968 Y0.6711
G1 X1.0954 Y0.6732
G1 X1.0705 Y0.6984
G1 X0.7641 Y1.0047
G1 X0.7604 Y1.0075
G1 X0.7557 Y1.0097
G1 X0.7515 Y1.011
G1 X0.7473 Y1.0114
G1 X0.7431 Y1.0112
G1 X0.7369 Y1.0094
G1 X0.7337 Y1.0077
G1 X0.7305 Y1.0054
G1 X0.5204 Y0.7955
G1 X0.5153 Y0.7908
G1 X0.5131 Y0.7884 F40.
G1 X0.5113 Y0.7857
G1 X0.5098 Y0.7828
G1 X0.5083 Y0.7792 Z-0.0797
G1 X0.5068 Y0.7757 Z-0.0788
G1 X0.5054 Y0.7723 Z-0.0773
G1 X0.504 Y0.7693 Z-0.0752
G1 X0.5029 Y0.7665 Z-0.0727
G1 X0.5019 Y0.7642 Z-0.0697
G1 X0.5011 Y0.7623 Z-0.0663
G1 X0.5005 Y0.7609 Z-0.0627
G1 X0.5001 Y0.7601 Z-0.0589
G1 X0.5 Y0.7598 Z-0.055
G0 Z0.2
G0 X0.342 Y0.7596
G0 Z-0.03
G1 Z-0.055 F40.
G1 X0.3423 Y0.7595 Z-0.0589
G1 X0.3432 Y0.7593 Z-0.0627
G1 X0.3446 Y0.7589 Z-0.0663
G1 X0.3466 Y0.7583 Z-0.0697
G1 X0.349 Y0.7575 Z-0.0727
G1 X0.3519 Y0.7567 Z-0.0752
G1 X0.3551 Y0.7557 Z-0.0773
G1 X0.3586 Y0.7547 Z-0.0788
G1 X0.3622 Y0.7536 Z-0.0797
G1 X0.366 Y0.7525 Z-0.08
G1 X0.3676 Y0.7523
G1 X0.3692 Y0.7527
G1 X0.3707 Y0.7536
G1 X0.3717 Y0.7549
G1 X0.3722 Y0.7564
G1 Y0.7581
G1 X0.3716 Y0.7597
G1 X0.3705 Y0.761
G1 X0.3691 Y0.7618
G1 X0.2934 Y0.7871 F26.
G1 X0.2598 Y0.7961
G1 X0.1758 Y0.8138
G1 X0.1253 Y0.8186
G1 X0.0749 Y0.8225
G1 X0.0581 Y0.8234
G1 X-0.026 Y0.82
G1 X-0.0512 Y0.8177
G1 X-0.068 Y0.8153
G1 X-0.1436 Y0.8025
G1 X-0.1773 Y0.7935
G1 X-0.2445 Y0.7735
G1 X-0.2529 Y0.7707
G1 X-0.2697 Y0.7637
G1 X-0.3421 Y0.732
G1 X-0.373 Y0.7152
G1 X-0.4294 Y0.6816
G1 X-0.4546 Y0.6645
G1 X-0.4871 Y0.6395
G1 X-0.5192 Y0.6143
G1 X-0.5303 Y0.6051
G1 X-0.5387 Y0.5975
G1 X-0.5975 Y0.5386
G1 X-0.6059 Y0.5293
G1 X-0.6227 Y0.5087
G1 X-0.6583 Y0.463
G1 X-0.6648 Y0.4542
G1 X-0.6816 Y0.4294
G1 X-0.7166 Y0.3706
G1 X-0.732 Y0.3421
G1 X-0.7674 Y0.2613
G1 X-0.7707 Y0.2529
G1 X-0.781 Y0.2193
G1 X-0.796 Y0.1689
G1 X-0.8025 Y0.1436
G1 X-0.8167 Y0.0596
G1 X-0.8185 Y0.0428
G1 X-0.82 Y0.026
G1 X-0.8235 Y-0.0581
G1 X-0.8207 Y-0.1001
G1 X-0.8156 Y-0.159
G1 X-0.8138 Y-0.1758
G1 X-0.7961 Y-0.2598
G1 X-0.7871 Y-0.2934
G1 X-0.7618 Y-0.3691
G1 X-0.7594 Y-0.3775
G1 X-0.7572 Y-0.3873
G1 X-0.7563 Y-0.3905 F40.
G1 X-0.7553 Y-0.3939
G1 X-0.7548 Y-0.3975
G1 X-0.7469 Y-0.5217
G1 X-0.7456 Y-0.5428
G2 X-0.7955 Y-0.5459 I-0.0249 J-0.0016
G2 X-0.7888 Y-0.5273 I0.0249 J0.0016
G1 X-0.7879 Y-0.5259
G1 X-0.7875 Y-0.5243
G1 X-0.7877 Y-0.5226
G1 X-0.7884 Y-0.5211
G1 X-0.7896 Y-0.52
G1 X-0.7911 Y-0.5192
G1 X-0.7928 Y-0.5191
G1 X-0.7944 Y-0.5195
G1 X-0.7958 Y-0.5204
G1 X-1.0058 Y-0.7305 F26.
G1 X-1.0079 Y-0.7334
G1 X-1.0104 Y-0.7389
G1 X-1.0114 Y-0.7431
G1 X-1.0116 Y-0.7473
G1 X-1.0111 Y-0.7515
G1 X-1.0094 Y-0.7574
G1 X-1.0068 Y-0.7618
G1 X-1.0051 Y-0.7632 Z-0.0797 F40.
G1 X-1.0036 Y-0.7645 Z-0.079
G1 X-1.0022 Y-0.7657 Z-0.0779
G1 X-1.001 Y-0.7667 Z-0.0763
G1 X-1.0001 Y-0.7675 Z-0.0745
G1 X-0.9995 Y-0.7678 Z-0.0724
G1 X-0.9992 Y-0.768 Z-0.0702
G0 Z0.2
G0 X-0.9747 Y-0.7401
G0 Z-0.02
G1 Z-0.045 F40.
G1 X-0.975 Y-0.7402 Z-0.0489
G1 X-0.9758 Y-0.7406 Z-0.0527
G1 X-0.9771 Y-0.7413 Z-0.0563
G1 X-0.9789 Y-0.7422 Z-0.0597
G1 X-0.9812 Y-0.7434 Z-0.0627
G1 X-0.9839 Y-0.7447 Z-0.0652
G1 X-0.9869 Y-0.7463 Z-0.0673
G1 X-0.9901 Y-0.7479 Z-0.0688
G1 X-0.9935 Y-0.7496 Z-0.0697
G1 X-0.997 Y-0.7514 Z-0.07
G1 X-1.0012 Y-0.7539
G1 X-1.0052 Y-0.7568
G1 X-1.0069 Y-0.7583 F26.
G1 X-1.0075 Y-0.7606
G1 X-1.0066 Y-0.7627
G1 X-0.787 Y-0.9827
G1 X-0.6778 Y-1.0919
G1 X-0.6732 Y-1.0961
G1 X-0.669 Y-1.0987
G1 X-0.6645 Y-1.1003
G1 X-0.6604 Y-1.1011
G1 X-0.6539 Y-1.1009
G1 X-0.648 Y-1.0991
G1 X-0.6437 Y-1.0967
G1 X-0.6384 Y-1.0919
G1 X-0.4279 Y-0.8818
G1 X-0.4177 Y-0.8734
G1 X-0.4126 Y-0.8696
G1 X-0.4042 Y-0.8642
G1 X-0.3899 Y-0.8566
G1 X-0.379 Y-0.8522
G1 X-0.3538 Y-0.8457
G1 X-0.3323 Y-0.844
G1 X-0.3272 Y-0.8439
G1 X-0.3103 Y-0.8453
G1 X-0.3033 Y-0.8464
G1 X-0.2865 Y-0.8505
G1 X-0.2675 Y-0.8566
G1 X-0.2025 Y-0.8785
G1 X-0.1773 Y-0.8852
G1 X-0.1553 Y-0.8902
G1 X-0.0848 Y-0.9053
G1 X-0.0007 Y-0.9128
G1 X0.0329 Y-0.9147
G1 X0.1169 Y-0.9114
G1 X0.1421 Y-0.909
G1 X0.1674 Y-0.9051
G1 X0.2346 Y-0.8941
G1 X0.2682 Y-0.8848
G1 X0.3355 Y-0.8649
G1 X0.3439 Y-0.862
G1 X0.3607 Y-0.855
G1 X0.434 Y-0.823
G1 X0.4646 Y-0.8062
G1 X0.521 Y-0.7725
G1 X0.5458 Y-0.7557
G1 X0.5792 Y-0.73
G1 X0.6107 Y-0.7053
G1 X0.6212 Y-0.6965
G1 X0.6301 Y-0.6885
G1 X0.6889 Y-0.6297
G1 X0.6969 Y-0.6208
G1 X0.7137 Y-0.6002
G1 X0.7497 Y-0.554
G1 X0.7559 Y-0.5456
G1 X0.7729 Y-0.5204
G1 X0.8079 Y-0.4615
G1 X0.823 Y-0.4339
G1 X0.8587 Y-0.3523
G1 X0.862 Y-0.3439
G1 X0.8674 Y-0.3271
G1 X0.8902 Y-0.2491
G1 X0.8941 Y-0.2346
G1 X0.9079 Y-0.1506
G1 X0.9106 Y-0.1253
G1 X0.9114 Y-0.1169
G1 X0.9147 Y-0.0329
G1 X0.9127 Y0.0007
G1 X0.9052 Y0.0848
G1 X0.8873 Y0.1689
G1 X0.8809 Y0.1941
G1 X0.8757 Y0.2109
G1 X0.853 Y0.2781
G1 X0.8516 Y0.2811 F40.
G1 X0.8499 Y0.2839
G1 X0.8478 Y0.2864
G1 X0.8451 Y0.2892 Z-0.0697
G1 X0.8425 Y0.292 Z-0.0688
G1 X0.84 Y0.2947 Z-0.0673
G1 X0.8377 Y0.2971 Z-0.0652
G1 X0.8357 Y0.2993 Z-0.0627
G1 X0.834 Y0.3011 Z-0.0597
G1 X0.8326 Y0.3026 Z-0.0563
G1 X0.8315 Y0.3037 Z-0.0527
G1 X0.8309 Y0.3044 Z-0.0489
G1 X0.8307 Y0.3046 Z-0.045
G0 Z0.2
G0 X0.8914 Y0.4531
G0 Z-0.02
G1 Z-0.045 F40.
G1 X0.8912 Y0.4529 Z-0.0489
G1 X0.8905 Y0.4522 Z-0.0527
G1 X0.8895 Y0.4511 Z-0.0563
G1 X0.8882 Y0.4495 Z-0.0597
G1 X0.8865 Y0.4476 Z-0.0627
G1 X0.8845 Y0.4454 Z-0.0652
G1 X0.8823 Y0.4429 Z-0.0673
G1 X0.8799 Y0.4402 Z-0.0688
G1 X0.8773 Y0.4374 Z-0.0697
G1 X0.8747 Y0.4344 Z-0.07
G1 X0.8738 Y0.433
G1 X0.8735 Y0.4314
G1 X0.8737 Y0.4297
G1 X0.8744 Y0.4282
G1 X0.8756 Y0.4271
G1 X0.8772 Y0.4264
G1 X0.8788 Y0.4263
G1 X0.8804 Y0.4267
G1 X0.8818 Y0.4277
G1 X1.0954 Y0.6416 F26.
G1 X1.0969 Y0.6437
G1 X1.0991 Y0.648
G1 X1.1009 Y0.6539
G1 X1.101 Y0.6602
G1 X1.1002 Y0.6648
G1 X1.0985 Y0.669
G1 X1.0959 Y0.6732
G1 X0.7641 Y1.0052
G1 X0.7611 Y1.0076
G1 X0.7557 Y1.0103
G1 X0.7515 Y1.0114
G1 X0.7473 Y1.0118
G1 X0.7431 Y1.0115
G1 X0.7389 Y1.0105
G1 X0.7333 Y1.0079
G1 X0.7305 Y1.0059
G1 X0.5204 Y0.796
G1 X0.5183 Y0.7934 F40.
G1 X0.5166 Y0.7907
G1 X0.5152 Y0.7877
G1 X0.5139 Y0.784 Z-0.0697
G1 X0.5125 Y0.7805 Z-0.0688
G1 X0.5112 Y0.7771 Z-0.0673
G1 X0.5101 Y0.7739 Z-0.0652
G1 X0.509 Y0.7711 Z-0.0627
G1 X0.5081 Y0.7687 Z-0.0597
G1 X0.5074 Y0.7668 Z-0.0563
G1 X0.5069 Y0.7654 Z-0.0527
G1 X0.5065 Y0.7646 Z-0.0489
G1 X0.5064 Y0.7643 Z-0.045
G0 Z0.2
G0 X0.342 Y0.76
G0 Z-0.02
G1 Z-0.045 F40.
G1 X0.3423 Y0.7599 Z-0.0489
G1 X0.3432 Y0.7597 Z-0.0527
G1 X0.3446 Y0.7592 Z-0.0563
G1 X0.3466 Y0.7586 Z-0.0597
G1 X0.349 Y0.7579 Z-0.0627
G1 X0.3519 Y0.7571 Z-0.0652
G1 X0.3551 Y0.7561 Z-0.0673
G1 X0.3586 Y0.7551 Z-0.0688
G1 X0.3622 Y0.754 Z-0.0697
G1 X0.366 Y0.7529 Z-0.07
G1 X0.3676 Y0.7527
G1 X0.3692 Y0.753
G1 X0.3707 Y0.7539
G1 X0.3717 Y0.7552
G1 X0.3722 Y0.7568
G1 Y0.7585
G1 X0.3716 Y0.7601
G1 X0.3705 Y0.7613
G1 X0.3691 Y0.7622
G1 X0.2934 Y0.7875 F26.
G1 X0.2598 Y0.7965
G1 X0.1758 Y0.8142
G1 X0.1253 Y0.8189
G1 X0.0749 Y0.8229
G1 X0.0581 Y0.8238
G1 X-0.026 Y0.8204
G1 X-0.0512 Y0.8181
G1 X-0.068 Y0.8156
G1 X-0.1436 Y0.803
G1 X-0.1773 Y0.7939
G1 X-0.2445 Y0.7739
G1 X-0.2529 Y0.7711
G1 X-0.2697 Y0.7641
G1 X-0.3429 Y0.732
G1 X-0.3737 Y0.7152
G1 X-0.43 Y0.6816
G1 X-0.4548 Y0.6648
G1 X-0.4883 Y0.6391
G1 X-0.5197 Y0.6143
G1 X-0.5303 Y0.6055
G1 X-0.5391 Y0.5975
G1 X-0.598 Y0.5387
G1 X-0.6059 Y0.5298
G1 X-0.6227 Y0.5093
G1 X-0.6587 Y0.463
G1 X-0.6649 Y0.4546
G1 X-0.682 Y0.4294
G1 X-0.717 Y0.3706
G1 X-0.732 Y0.3429
G1 X-0.7678 Y0.2613
G1 X-0.7711 Y0.2529
G1 X-0.7824 Y0.2158
G1 X-0.7963 Y0.1689
G1 X-0.803 Y0.1436
G1 X-0.817 Y0.0596
G1 X-0.8189 Y0.0428
G1 X-0.8204 Y0.026
G1 X-0.8238 Y-0.0581
G1 X-0.821 Y-0.1001
G1 X-0.8159 Y-0.159
G1 X-0.8142 Y-0.1758
G1 X-0.7965 Y-0.2598
G1 X-0.7875 Y-0.2934
G1 X-0.7622 Y-0.3691
G1 X-0.7598 Y-0.3775
G1 X-0.7559 Y-0.3957
G1 X-0.7549 Y-0.4027
G1 X-0.7541 Y-0.4209
G1 X-0.7558 Y-0.4389
G1 X-0.7567 Y-0.4457
G1 X-0.7636 Y-0.47
G1 X-0.774 Y-0.4917
G1 X-0.7835 Y-0.5055
G1 X-0.7908 Y-0.5144
G1 X-0.7992 Y-0.5234
G1 X-1.0062 Y-0.7305
G1 X-1.0094 Y-0.7354
G1 X-1.0108 Y-0.7389
G1 X-1.0119 Y-0.7431
G1 X-1.0122 Y-0.7473
G1 X-1.0118 Y-0.7515
G1 X-1.0107 Y-0.7557
G1 X-1.0094 Y-0.7586
G1 X-1.0066 Y-0.7627
G1 X-1.0049 Y-0.7641 Z-0.0697 F40.
G1 X-1.0033 Y-0.7654 Z-0.069
G1 X-1.0019 Y-0.7666 Z-0.0679
G1 X-1.0007 Y-0.7675 Z-0.0663
G1 X-0.9998 Y-0.7683 Z-0.0645
G1 X-0.9991 Y-0.7686 Z-0.0624
G1 X-0.9989 Y-0.7687 Z-0.0602
G0 Z0.2
G0 X-0.9761 Y-0.7388
G0 Z-0.01
G1 Z-0.035 F40.
G1 X-0.9763 Y-0.7389 Z-0.0389
G1 X-0.9771 Y-0.7394 Z-0.0427
G1 X-0.9784 Y-0.7402 Z-0.0463
G1 X-0.9802 Y-0.7412 Z-0.0497
G1 X-0.9823 Y-0.7425 Z-0.0527
G1 X-0.9849 Y-0.7441 Z-0.0552
G1 X-0.9878 Y-0.7458 Z-0.0573
G1 X-0.9909 Y-0.7476 Z-0.0588
G1 X-0.9942 Y-0.7496 Z-0.0597
G1 X-0.9975 Y-0.7516 Z-0.06
G1 X-1.0016 Y-0.7543
G1 X-1.0053 Y-0.7575
G1 X-1.007 Y-0.7592 F26.
G1 X-1.0074 Y-0.7614
G1 X-1.0065 Y-0.7636
G1 X-0.6783 Y-1.0919
G1 X-0.6732 Y-1.0966
G1 X-0.6695 Y-1.0989
G1 X-0.6648 Y-1.1006
G1 X-0.6606 Y-1.1014
G1 X-0.6564
G1 X-0.6504 Y-1.1003
G1 X-0.6459 Y-1.0984
G1 X-0.6416 Y-1.0956
G1 X-0.4294 Y-0.8837
G1 X-0.4273 Y-0.8812 F40.
G1 X-0.4256 Y-0.8784
G1 X-0.4242 Y-0.8755
G1 X-0.4227 Y-0.8718 Z-0.0597
G1 X-0.4214 Y-0.8683 Z-0.0588
G1 X-0.42 Y-0.8649 Z-0.0573
G1 X-0.4188 Y-0.8618 Z-0.0552
G1 X-0.4177 Y-0.859 Z-0.0527
G1 X-0.4168 Y-0.8566 Z-0.0497
G1 X-0.4161 Y-0.8547 Z-0.0463
G1 X-0.4155 Y-0.8533 Z-0.0427
G1 X-0.4152 Y-0.8525 Z-0.0389
G1 X-0.4151 Y-0.8522 Z-0.035
G0 Z0.2
G0 X-0.251 Y-0.8513
G0 Z-0.01
G1 Z-0.035 F40.
G1 X-0.2513 Y-0.8512 Z-0.0389
G1 X-0.2522 Y-0.8509 Z-0.0427
G1 X-0.2536 Y-0.8505 Z-0.0463
G1 X-0.2556 Y-0.8499 Z-0.0497
G1 X-0.258 Y-0.8492 Z-0.0527
G1 X-0.2609 Y-0.8483 Z-0.0552
G1 X-0.2641 Y-0.8473 Z-0.0573
G1 X-0.2676 Y-0.8463 Z-0.0588
G1 X-0.2712 Y-0.8452 Z-0.0597
G1 X-0.275 Y-0.8441 Z-0.06
G1 X-0.2766 Y-0.8439
G1 X-0.2782 Y-0.8442
G1 X-0.2797 Y-0.8451
G1 X-0.2807 Y-0.8464
G1 X-0.2812 Y-0.848
G1 Y-0.8497
G1 X-0.2806 Y-0.8512
G1 X-0.2796 Y-0.8525
G1 X-0.2781 Y-0.8534
G1 X-0.2025 Y-0.8789 F26.
G1 X-0.1773 Y-0.8856
G1 X-0.152 Y-0.8913
G1 X-0.0848 Y-0.9056
G1 X-0.0007 Y-0.9131
G1 X0.0329 Y-0.915
G1 X0.1169 Y-0.9118
G1 X0.1421 Y-0.9093
G1 X0.1674 Y-0.9055
G1 X0.2346 Y-0.8944
G1 X0.2514 Y-0.89
G1 X0.3363 Y-0.865
G1 X0.3523 Y-0.8591
G1 X0.4347 Y-0.823
G1 X0.4653 Y-0.8062
G1 X0.5216 Y-0.7725
G1 X0.5464 Y-0.7557
G1 X0.6044 Y-0.7109
G1 X0.6213 Y-0.6969
G1 X0.6306 Y-0.6885
G1 X0.6894 Y-0.6297
G1 X0.7039 Y-0.6128
G1 X0.7221 Y-0.59
G1 X0.7557 Y-0.5464
G1 X0.7734 Y-0.5204
G1 X0.8083 Y-0.4615
G1 X0.823 Y-0.4347
G1 X0.8591 Y-0.3523
G1 X0.865 Y-0.3363
G1 X0.8924 Y-0.243
G1 X0.8944 Y-0.2346
G1 X0.9083 Y-0.1506
G1 X0.911 Y-0.1253
G1 X0.9117 Y-0.1169
G1 X0.915 Y-0.0329
G1 X0.9131 Y0.0007
G1 X0.9056 Y0.0848
G1 X0.8877 Y0.1689
G1 X0.8813 Y0.1941
G1 X0.8761 Y0.2109
G1 X0.8534 Y0.2781
G1 X0.8509 Y0.2865
G1 X0.8466 Y0.3047
G1 X0.8455 Y0.3117
G1 X0.8444 Y0.3299
G1 X0.8447 Y0.337
G1 X0.8466 Y0.3551
G1 X0.8528 Y0.379
G1 X0.8588 Y0.392
G3 X0.8608 Y0.4026 I-0.023 J0.0097 F40.
G1 X0.8603 Y0.4157
G2 X0.8723 Y0.4248 I0.0092 J0.0003
G1 X0.8743 Y0.4244
G1 X0.8763 Y0.4245
G1 X0.8783 Y0.425
G1 X0.8802 Y0.4259
G1 X0.8818 Y0.4272
G1 X1.0959 Y0.6416 F26.
G1 X1.0988 Y0.6459
G1 X1.1003 Y0.6495
G1 X1.1013 Y0.6529
G1 X1.1017 Y0.6564
G1 X1.1015 Y0.6606
G1 X1.1003 Y0.6657
G1 X1.0987 Y0.6694
G1 X1.0963 Y0.6732
G1 X1.0799 Y0.69
G1 X0.7641 Y1.0058
G1 X0.7592 Y1.0094
G1 X0.7536 Y1.0116
G1 X0.7473 Y1.0125
G1 X0.7431 Y1.0122
G1 X0.7369 Y1.0104
G1 X0.7327 Y1.008
G1 X0.7305 Y1.0063
G1 X0.5204 Y0.7965
G1 X0.5075 Y0.7854
G1 X0.5036 Y0.7822
G1 X0.4913 Y0.774
G1 X0.47 Y0.7638
G1 X0.4447 Y0.7567
G1 X0.4233 Y0.7546
G1 X0.4181 Y0.7544
G1 X0.4013 Y0.7555
G1 X0.3943 Y0.7564
G1 X0.3775 Y0.7602
G1 X0.3691 Y0.7626
G1 X0.2934 Y0.7878
G1 X0.2598 Y0.7968
G1 X0.1758 Y0.8145
G1 X0.1253 Y0.8193
G1 X0.0749 Y0.8232
G1 X0.0581 Y0.8241
G1 X-0.026 Y0.8207
G1 X-0.0512 Y0.8184
G1 X-0.068 Y0.816
G1 X-0.1436 Y0.8034
G1 X-0.1604 Y0.799
G1 X-0.2452 Y0.774
G1 X-0.2529 Y0.7715
G1 X-0.2697 Y0.7645
G1 X-0.3436 Y0.732
G1 X-0.3744 Y0.7152
G1 X-0.4306 Y0.6816
G1 X-0.4555 Y0.6648
G1 X-0.5135 Y0.6199
G1 X-0.5303 Y0.6059
G1 X-0.5396 Y0.5975
G1 X-0.5985 Y0.5387
G1 X-0.613 Y0.5219
G1 X-0.6311 Y0.499
G1 X-0.6648 Y0.4555
G1 X-0.6824 Y0.4294
G1 X-0.7174 Y0.3706
G1 X-0.732 Y0.3436
G1 X-0.7682 Y0.2613
G1 X-0.7715 Y0.2529
G1 X-0.7818 Y0.2193
G1 X-0.7992 Y0.1597
G1 X-0.8034 Y0.1436
G1 X-0.8174 Y0.0596
G1 X-0.8192 Y0.0428
G1 X-0.8207 Y0.026
G1 X-0.8241 Y-0.0581
G1 X-0.8214 Y-0.1001
G1 X-0.8161 Y-0.161
G1 X-0.8145 Y-0.1758
G1 X-0.7968 Y-0.2598
G1 X-0.7878 Y-0.2934
G1 X-0.7626 Y-0.3691
G1 X-0.7612 Y-0.3721 F40.
G1 X-0.7595 Y-0.3748
G1 X-0.7574 Y-0.3774
G1 X-0.7548 Y-0.3802 Z-0.0597
G1 X-0.7522 Y-0.383 Z-0.0588
G1 X-0.7497 Y-0.3857 Z-0.0573
G1 X-0.7474 Y-0.3881 Z-0.0552
G1 X-0.7454 Y-0.3903 Z-0.0527
G1 X-0.7436 Y-0.3922 Z-0.0497
G1 X-0.7422 Y-0.3937 Z-0.0463
G1 X-0.7412 Y-0.3948 Z-0.0427
G1 X-0.7406 Y-0.3954 Z-0.0389
G1 X-0.7404 Y-0.3957 Z-0.035
G0 Z0.2
G0 X-0.7634 Y-0.5262
G0 Z-0.01
G1 Z-0.035 F40.
G1 X-0.7637 Y-0.5261 Z-0.0389
G1 X-0.7646 Y-0.5258 Z-0.0427
G1 X-0.766 Y-0.5254 Z-0.0463
G1 X-0.768 Y-0.5247 Z-0.0497
G1 X-0.7704 Y-0.5239 Z-0.0527
G1 X-0.7732 Y-0.523 Z-0.0552
G1 X-0.7764 Y-0.5219 Z-0.0573
G1 X-0.7798 Y-0.5207 Z-0.0588
G1 X-0.7834 Y-0.5195 Z-0.0597
G1 X-0.7872 Y-0.5183 Z-0.06
G1 X-0.7892 Y-0.5179
G1 X-0.7912
G1 X-0.7932 Y-0.5183
G1 X-0.7951 Y-0.5192
G1 X-0.7967 Y-0.5204
G1 X-1.0068 Y-0.7305 F26.
G1 X-1.0094 Y-0.7341
G1 X-1.0116 Y-0.7389
G1 X-1.0126 Y-0.7431
G1 X-1.0129 Y-0.7473
G1 X-1.012 Y-0.7536
G1 X-1.0094 Y-0.7597
G1 X-1.0065 Y-0.7636
G1 X-1.0048 Y-0.7649 Z-0.0597 F40.
G1 X-1.0031 Y-0.7661 Z-0.059
G1 X-1.0017 Y-0.7673 Z-0.0579
G1 X-1.0004 Y-0.7682 Z-0.0563
G1 X-0.9995 Y-0.7689 Z-0.0545
G1 X-0.9989 Y-0.7692 Z-0.0524
G1 X-0.9986 Y-0.7694 Z-0.0502
G0 Z0.2
G0 X0.8912 Y0.4521
G0 Z0.
G1 Z-0.025 F40.
G1 X0.891 Y0.4519 Z-0.0289
G1 X0.8904 Y0.4512 Z-0.0327
G1 X0.8894 Y0.4501 Z-0.0363
G1 X0.888 Y0.4485 Z-0.0397
G1 X0.8863 Y0.4466 Z-0.0427
G1 X0.8844 Y0.4444 Z-0.0452
G1 X0.8822 Y0.4419 Z-0.0473
G1 X0.8798 Y0.4392 Z-0.0488
G1 X0.8773 Y0.4363 Z-0.0497
G1 X0.8747 Y0.4334 Z-0.05
G1 X0.8738 Y0.4319
G1 X0.8734 Y0.4303
G1 X0.8737 Y0.4286
G1 X0.8744 Y0.4272
G1 X0.8756 Y0.426
G1 X0.8772 Y0.4253
G1 X0.8788 Y0.4252
G1 X0.8804 Y0.4257
G1 X0.8818 Y0.4266
G1 X0.9743 Y0.5194 F26.
G1 X1.0964 Y0.6416
G1 X1.0991 Y0.6459
G1 X1.1003 Y0.6485
G1 X1.1015 Y0.6524
G1 X1.102 Y0.6564
G1 X1.1018 Y0.6606
G1 X1.1003 Y0.6668
G1 X1.0989 Y0.67
G1 X1.0968 Y0.6732
G1 X1.0635 Y0.7068
G1 X0.7641 Y1.0062
G1 X0.7598 Y1.0094
G1 X0.7557 Y1.0113
G1 X0.7515 Y1.0125
G1 X0.7473 Y1.013
G1 X0.7431 Y1.0127
G1 X0.7389 Y1.0117
G1 X0.7339 Y1.0094
G1 X0.7305 Y1.0069
G1 X0.5227 Y0.7992
G1 X0.5206 Y0.7967 F40.
G1 X0.5189 Y0.7939
G1 X0.5175 Y0.791
G1 X0.5162 Y0.7873 Z-0.0497
G1 X0.5148 Y0.7837 Z-0.0488
G1 X0.5136 Y0.7803 Z-0.0473
G1 X0.5124 Y0.7772 Z-0.0452
G1 X0.5114 Y0.7744 Z-0.0427
G1 X0.5105 Y0.772 Z-0.0397
G1 X0.5097 Y0.7701 Z-0.0363
G1 X0.5092 Y0.7687 Z-0.0327
G1 X0.5089 Y0.7678 Z-0.0289
G1 X0.5088 Y0.7675 Z-0.025
G0 Z0.2
G0 X0.3787 Y0.7305
G0 Z0.
G1 Z-0.025 F40.
G1 Y0.7308 Z-0.0289
G1 X0.3785 Y0.7317 Z-0.0327
G1 X0.3783 Y0.7332 Z-0.0363
G1 X0.378 Y0.7353 Z-0.0397
G1 X0.3777 Y0.7378 Z-0.0427
G1 X0.3773 Y0.7407 Z-0.0452
G1 X0.3768 Y0.744 Z-0.0473
G1 X0.3763 Y0.7476 Z-0.0488
G1 X0.3758 Y0.7514 Z-0.0497
G1 X0.3752 Y0.7553 Z-0.05
G1 X0.3747 Y0.7573
G1 X0.3738 Y0.7591
G1 X0.3725 Y0.7607
G1 X0.3709 Y0.762
G1 X0.3691 Y0.7629
G1 X0.2934 Y0.7882 F26.
G1 X0.2598 Y0.7972
G1 X0.1758 Y0.8149
G1 X0.1253 Y0.8196
G1 X0.0749 Y0.8236
G1 X0.0575 Y0.8245
G1 X-0.026 Y0.8211
G1 X-0.0512 Y0.8188
G1 X-0.0696 Y0.8161
G1 X-0.1436 Y0.8037
G1 X-0.152 Y0.802
G1 X-0.2464 Y0.774
G1 X-0.2613 Y0.7686
G1 X-0.3443 Y0.732
G1 X-0.3751 Y0.7152
G1 X-0.4312 Y0.6816
G1 X-0.4561 Y0.6648
G1 X-0.5135 Y0.6204
G1 X-0.5308 Y0.6059
G1 X-0.5401 Y0.5975
G1 X-0.5989 Y0.5387
G1 X-0.6143 Y0.5208
G1 X-0.6334 Y0.4967
G1 X-0.6648 Y0.4561
G1 X-0.6828 Y0.4294
G1 X-0.7178 Y0.3706
G1 X-0.732 Y0.3443
G1 X-0.7686 Y0.2613
G1 X-0.774 Y0.2464
G1 X-0.8019 Y0.152
G1 X-0.8051 Y0.1352
G1 X-0.8177 Y0.0596
G1 X-0.8196 Y0.0428
G1 X-0.8211 Y0.026
G1 X-0.8245 Y-0.0613
G1 X-0.821 Y-0.1085
G1 X-0.8158 Y-0.1674
G1 X-0.8149 Y-0.1758
G1 X-0.7972 Y-0.2598
G1 X-0.7882 Y-0.2934
G1 X-0.763 Y-0.3691
G1 X-0.7606 Y-0.3775
G1 X-0.7579 Y-0.3896
G1 X-0.757 Y-0.3927 F40.
G1 X-0.756 Y-0.3962
G1 X-0.7555 Y-0.3998
G1 X-0.7471 Y-0.5429
G2 X-0.797 Y-0.5459 I-0.025 J-0.0015
G2 X-0.7903 Y-0.5273 I0.025 J0.0015
G1 X-0.7894 Y-0.5259
G1 X-0.789 Y-0.5243
G1 X-0.7892 Y-0.5227
G1 X-0.7899 Y-0.5211
G1 X-0.7911 Y-0.52
G1 X-0.7926 Y-0.5192
G1 X-0.7942 Y-0.5191
G1 X-0.7958 Y-0.5195
G1 X-0.7972 Y-0.5204
G1 X-1.0073 Y-0.7305 F26.
G1 X-1.0094 Y-0.7334
G1 X-1.012 Y-0.7389
G1 X-1.013 Y-0.7431
G1 X-1.0132 Y-0.7473
G1 X-1.0128 Y-0.7515
G1 X-1.0117 Y-0.7557
G1 X-1.0094 Y-0.7604
G1 X-1.0065 Y-0.7641
G1 X-0.6788 Y-1.0919
G1 X-0.6732 Y-1.0972
G1 X-0.6703 Y-1.099
G1 X-0.6648 Y-1.1013
G1 X-0.6606 Y-1.102
G1 X-0.6564 Y-1.1021
G1 X-0.6526 Y-1.1015
G1 X-0.648 Y-1.0999
G1 X-0.6437 Y-1.0976
G1 X-0.6395 Y-1.0941
G1 X-0.4294 Y-0.8842
G1 X-0.4273 Y-0.8817 F40.
G1 X-0.4256 Y-0.8789
G1 X-0.4242 Y-0.8759
G1 X-0.4227 Y-0.8723 Z-0.0497
G1 X-0.4214 Y-0.8688 Z-0.0488
G1 X-0.4201 Y-0.8654 Z-0.0473
G1 X-0.4188 Y-0.8623 Z-0.0452
G1 X-0.4178 Y-0.8595 Z-0.0427
G1 X-0.4168 Y-0.8571 Z-0.0397
G1 X-0.4161 Y-0.8552 Z-0.0363
G1 X-0.4155 Y-0.8538 Z-0.0327
G1 X-0.4152 Y-0.8529 Z-0.0289
G1 X-0.4151 Y-0.8527 Z-0.025
G0 Z0.2
G0 X-0.251 Y-0.8517
G0 Z0.
G1 Z-0.025 F40.
G1 X-0.2513 Y-0.8516 Z-0.0289
G1 X-0.2522 Y-0.8513 Z-0.0327
G1 X-0.2536 Y-0.8509 Z-0.0363
G1 X-0.2556 Y-0.8503 Z-0.0397
G1 X-0.258 Y-0.8495 Z-0.0427
G1 X-0.2609 Y-0.8487 Z-0.0452
G1 X-0.2641 Y-0.8477 Z-0.0473
G1 X-0.2676 Y-0.8467 Z-0.0488
G1 X-0.2712 Y-0.8456 Z-0.0497
G1 X-0.275 Y-0.8444 Z-0.05
G1 X-0.2766 Y-0.8442
G1 X-0.2782 Y-0.8446
G1 X-0.2797 Y-0.8455
G1 X-0.2807 Y-0.8468
G1 X-0.2812 Y-0.8484
G1 Y-0.85
G1 X-0.2806 Y-0.8516
G1 X-0.2796 Y-0.8529
G1 X-0.2781 Y-0.8537
G1 X-0.2025 Y-0.8793 F26.
G1 X-0.1773 Y-0.8859
G1 X-0.152 Y-0.8916
G1 X-0.0848 Y-0.906
G1 X-0.0007 Y-0.9135
G1 X0.0329 Y-0.9154
G1 X0.1169 Y-0.9121
G1 X0.1421 Y-0.9097
G1 X0.1674 Y-0.9058
G1 X0.2346 Y-0.8948
G1 X0.243 Y-0.893
G1 X0.3375 Y-0.865
G1 X0.3523 Y-0.8595
G1 X0.4354 Y-0.823
G1 X0.466 Y-0.8062
G1 X0.5222 Y-0.7725
G1 X0.5471 Y-0.7557
G1 X0.6044 Y-0.7113
G1 X0.6218 Y-0.6969
G1 X0.6311 Y-0.6885
G1 X0.6899 Y-0.6297
G1 X0.7053 Y-0.6117
G1 X0.7244 Y-0.5876
G1 X0.7557 Y-0.5471
G1 X0.7738 Y-0.5204
G1 X0.8087 Y-0.4615
G1 X0.823 Y-0.4354
G1 X0.8595 Y-0.3523
G1 X0.865 Y-0.3375
G1 X0.893 Y-0.243
G1 X0.8962 Y-0.2262
G1 X0.9086 Y-0.1506
G1 X0.9113 Y-0.1253
G1 X0.9121 Y-0.1169
G1 X0.9154 Y-0.0329
G1 X0.9134 Y0.0007
G1 X0.906 Y0.0848
G1 X0.8881 Y0.1689
G1 X0.8817 Y0.1941
G1 X0.8764 Y0.2109
G1 X0.8537 Y0.2781
G1 X0.8513 Y0.2865
G1 X0.847 Y0.3047
G1 X0.8458 Y0.3131
G1 X0.8453 Y0.3201
G1 X0.8447 Y0.3222 Z-0.0497 F40.
G1 X0.8441 Y0.3242 Z-0.049
G1 X0.8436 Y0.326 Z-0.0479
G1 X0.8432 Y0.3275 Z-0.0463
G1 X0.8429 Y0.3286 Z-0.0445
G1 X0.8425 Y0.3292 Z-0.0424
G1 X0.8424 Y0.3295 Z-0.0402
G0 Z0.2
G0 X0.2185 Y0.7683
G0 Z0.02
G1 Z-0.005 F40.
G1 Y0.7686 Z-0.0089
G1 X0.2187 Y0.7695 Z-0.0127
G1 X0.219 Y0.771 Z-0.0163
G1 X0.2194 Y0.773 Z-0.0197
G1 X0.2199 Y0.7755 Z-0.0227
G1 X0.2205 Y0.7784 Z-0.0252
G1 X0.2211 Y0.7817 Z-0.0273
G1 X0.2218 Y0.7853 Z-0.0288
G1 X0.2226 Y0.789 Z-0.0297
G1 X0.2233 Y0.7928 Z-0.03
G1 X0.224 Y0.7977
G1 X0.2242 Y0.8026
G1 X0.2241 Y0.804 F26.
G1 X0.2234 Y0.8052
G1 X0.2221 Y0.8058
G1 X0.1758 Y0.8156
G1 X0.1253 Y0.8203
G1 X0.0749 Y0.8243
G1 X0.0581 Y0.8252
G1 X-0.026 Y0.8218
G1 X-0.0512 Y0.8195
G1 X-0.068 Y0.817
G1 X-0.1436 Y0.8044
G1 X-0.152 Y0.8028
G1 X-0.2488 Y0.774
G1 X-0.2613 Y0.7693
G1 X-0.337 Y0.7362
G1 X-0.3458 Y0.732
G1 X-0.3764 Y0.7152
G1 X-0.4324 Y0.6816
G1 X-0.4574 Y0.6648
G1 X-0.5135 Y0.6212
G1 X-0.5387 Y0.5999
G1 X-0.5999 Y0.5387
G1 X-0.6227 Y0.5115
G1 X-0.6648 Y0.4575
G1 X-0.6836 Y0.4294
G1 X-0.7186 Y0.3706
G1 X-0.7322 Y0.3454
G1 X-0.7472 Y0.3117
G1 X-0.7693 Y0.2613
G1 X-0.774 Y0.2488
G1 X-0.8028 Y0.152
G1 X-0.8184 Y0.0596
G1 X-0.8203 Y0.0428
G1 X-0.8218 Y0.026
G1 X-0.8252 Y-0.0581
G1 X-0.8224 Y-0.1001
G1 X-0.8165 Y-0.1674
G1 X-0.8156 Y-0.1758
G1 X-0.7979 Y-0.2598
G1 X-0.7908 Y-0.2871
G1 X-0.7637 Y-0.3691
G1 X-0.7614 Y-0.3775
G1 X-0.7571 Y-0.3972
G1 X-0.7559 Y-0.4157
G1 X-0.7558 Y-0.4209
G1 X-0.7572 Y-0.4367
G1 X-0.7585 Y-0.4461
G1 X-0.7656 Y-0.4707
G1 X-0.774 Y-0.4885
G1 X-0.7781 Y-0.4952
G1 X-0.7838 Y-0.5036
G1 X-0.7908 Y-0.5121
G1 X-0.7992 Y-0.5214
G1 X-1.0083 Y-0.7305
G1 X-1.0115 Y-0.7354
G1 X-1.0129 Y-0.7389
G1 X-1.0139 Y-0.7431
G1 X-1.0142 Y-0.7473
G1 X-1.0138 Y-0.7515
G1 X-1.0127 Y-0.7557
G1 X-1.0113 Y-0.7588
G1 X-1.0094 Y-0.7618
G1 X-1.0075 Y-0.7641
G1 X-0.6798 Y-1.0919
G1 X-0.6732 Y-1.0981
G1 X-0.6694 Y-1.1003
G1 X-0.6648 Y-1.102
G1 X-0.6606 Y-1.1028
G1 X-0.6564 Y-1.103
G1 X-0.6501 Y-1.1018
G1 X-0.6466 Y-1.1003
G1 X-0.6431 Y-1.0982
G1 X-0.6364 Y-1.0919
G1 X-0.4294 Y-0.8851
G1 X-0.4154 Y-0.8734
G1 X-0.4027 Y-0.865
G1 X-0.379 Y-0.854
G1 X-0.3538 Y-0.8474
G1 X-0.337 Y-0.8458
G1 X-0.3286 Y-0.8455
G1 X-0.3117 Y-0.8466
G1 X-0.3023 Y-0.8482
G1 X-0.2865 Y-0.852
G1 X-0.2697 Y-0.8573
G1 X-0.1965 Y-0.8818
G1 X-0.1689 Y-0.8888
G1 X-0.0822 Y-0.907
G1 X0.0077 Y-0.9147
G1 X0.0329 Y-0.9161
G1 X0.1169 Y-0.9128
G1 X0.1421 Y-0.9104
G1 X0.1674 Y-0.9066
G1 X0.2346 Y-0.8954
G1 X0.243 Y-0.8937
G1 X0.34 Y-0.865
G1 X0.3523 Y-0.8602
G1 X0.4279 Y-0.8272
G1 X0.4368 Y-0.823
G1 X0.4673 Y-0.8062
G1 X0.5234 Y-0.7725
G1 X0.5484 Y-0.7557
G1 X0.6044 Y-0.7122
G1 X0.6297 Y-0.6909
G1 X0.6909 Y-0.6297
G1 X0.7137 Y-0.6025
G1 X0.7557 Y-0.5484
G1 X0.7746 Y-0.5204
G1 X0.8096 Y-0.4615
G1 X0.8232 Y-0.4363
G1 X0.8345 Y-0.4111
G1 X0.8603 Y-0.3523
G1 X0.865 Y-0.3399
G1 X0.8937 Y-0.243
G1 X0.8996 Y-0.2094
G1 X0.9093 Y-0.1506
G1 X0.912 Y-0.1253
G1 X0.9128 Y-0.1169
G1 X0.9161 Y-0.0329
G1 X0.9141 Y0.0007
G1 X0.9067 Y0.0848
G1 X0.8888 Y0.1689
G1 X0.8818 Y0.1964
G1 X0.8545 Y0.2781
G1 X0.852 Y0.2865
G1 X0.8478 Y0.3047
G1 X0.8467 Y0.3117
G1 X0.8456 Y0.3299
G1 X0.8459 Y0.337
G1 X0.8477 Y0.3548
G1 X0.8545 Y0.3799
G1 X0.865 Y0.4024
G1 X0.8734 Y0.4151
G1 X0.8854 Y0.4294
G1 X1.0955 Y0.6395
G1 X1.0983 Y0.6428
G1 X1.1013 Y0.648
G1 X1.1026 Y0.6522
G1 X1.1032 Y0.6564
G1 X1.1031 Y0.6606
G1 X1.1022 Y0.6648
G1 X1.1003 Y0.6693
G1 X1.0978 Y0.6732
G1 X1.0225 Y0.7488
G1 X0.7641 Y1.0072
G1 X0.7614 Y1.0094
G1 X0.7586 Y1.0111
G1 X0.7557 Y1.0123
G1 X0.7515 Y1.0135
G1 X0.7473 Y1.0139
G1 X0.7431 Y1.0137
G1 X0.7389 Y1.0127
G1 X0.7357 Y1.0113
G1 X0.7305 Y1.0079
G1 X0.5204 Y0.798
G1 X0.5074 Y0.7867
G1 X0.5018 Y0.7824
G1 X0.4888 Y0.774
G1 X0.47 Y0.7651
G1 X0.4447 Y0.758
G1 X0.4233 Y0.7558
G1 X0.4181 Y0.7556
G1 X0.4027 Y0.7565
G1 X0.3943 Y0.7576
G1 X0.3775 Y0.7613
G1 X0.3633 Y0.7656
G1 X0.2871 Y0.7908
G1 X0.2598 Y0.7979
G1 X0.2221 Y0.8058
G1 X0.2199 Y0.806 Z-0.0297 F40.
G1 X0.2178 Y0.8062 Z-0.029
G1 X0.216 Y0.806 Z-0.0278
G1 X0.2145 Y0.8058 Z-0.0263
G1 X0.2133 Y0.8057 Z-0.0244
G1 X0.2126 Y0.8056 Z-0.0224
G1 X0.2124 Z-0.0202
G0 Z0.2
G0 X0.8771 Y-0.0409
G0 Z0.03
G1 Z0.005 F40.
G1 X0.8774 Z0.0011
G1 X0.8783 Z-0.0027
G1 X0.8798 Z-0.0063
G1 X0.8819 Y-0.041 Z-0.0097
G1 X0.8844 Y-0.0411 Z-0.0127
G1 X0.8874 Z-0.0152
G1 X0.8907 Y-0.0412 Z-0.0173
G1 X0.8943 Y-0.0413 Z-0.0188
G1 X0.8982 Y-0.0414 Z-0.0197
G1 X0.9021 Y-0.0416 Z-0.02
G1 X0.907 Y-0.0414
G1 X0.9119 Y-0.0408
G1 X0.914 Y-0.0403 F26.
G1 X0.9156 Y-0.0388
G1 X0.9163 Y-0.0367
G1 X0.9164 Y-0.0329
G1 X0.9145 Y0.0007
G1 X0.907 Y0.0848
G1 X0.8891 Y0.1689
G1 X0.8818 Y0.1976
G1 X0.8549 Y0.2781
G1 X0.8524 Y0.2865
G1 X0.8504 Y0.2949
G1 X0.8493 Y0.298 F40.
G1 X0.8479 Y0.3009
G1 X0.846 Y0.3036
G1 X0.8436 Y0.3067 Z-0.0197
G1 X0.8413 Y0.3097 Z-0.0188
G1 X0.839 Y0.3126 Z-0.0173
G1 X0.837 Y0.3152 Z-0.0152
G1 X0.8351 Y0.3176 Z-0.0127
G1 X0.8336 Y0.3196 Z-0.0097
G1 X0.8323 Y0.3212 Z-0.0063
G1 X0.8314 Y0.3224 Z-0.0027
G1 X0.8308 Y0.3231 Z0.0011
G1 X0.8306 Y0.3233 Z0.005
G0 Z0.2
G0 X0.8525 Y0.4349
G0 Z0.03
G1 Z0.005 F40.
G1 X0.8528 Y0.4348 Z0.0011
G1 X0.8537 Y0.4345 Z-0.0027
G1 X0.8551 Y0.4341 Z-0.0063
G1 X0.8571 Y0.4334 Z-0.0097
G1 X0.8595 Y0.4327 Z-0.0127
G1 X0.8623 Y0.4317 Z-0.0152
G1 X0.8655 Y0.4307 Z-0.0173
G1 X0.869 Y0.4296 Z-0.0188
G1 X0.8726 Y0.4284 Z-0.0197
G1 X0.8763 Y0.4272 Z-0.02
G1 X0.8783 Y0.4268
G1 X0.8804
G1 X0.8824 Y0.4273
G1 X0.8842 Y0.4282
G1 X0.8859 Y0.4294
G1 X1.096 Y0.6395 F26.
G1 X1.0985 Y0.6424
G1 X1.1003 Y0.6453
G1 X1.1024 Y0.6501
G1 X1.1035 Y0.6564
G1 X1.1033 Y0.6606
G1 X1.1024 Y0.6648
G1 X1.1003 Y0.6699
G1 X1.0983 Y0.6732
G1 X1.0734 Y0.6984
G1 X0.7641 Y1.0077
G1 X0.759 Y1.0115
G1 X0.7536 Y1.0136
G1 X0.7473 Y1.0145
G1 X0.7431 Y1.0142
G1 X0.7389 Y1.0132
G1 X0.7354 Y1.0117
G1 X0.7305 Y1.0084
G1 X0.5212 Y0.7992
G1 X0.5191 Y0.7967 F40.
G1 X0.5174 Y0.7939
G1 X0.516 Y0.791
G1 X0.5147 Y0.7873 Z-0.0197
G1 X0.5133 Y0.7837 Z-0.0188
G1 X0.512 Y0.7803 Z-0.0173
G1 X0.5109 Y0.7772 Z-0.0152
G1 X0.5098 Y0.7744 Z-0.0127
G1 X0.5089 Y0.772 Z-0.0097
G1 X0.5082 Y0.7701 Z-0.0063
G1 X0.5077 Y0.7687 Z-0.0027
G1 X0.5074 Y0.7678 Z0.0011
G1 X0.5072 Y0.7676 Z0.005
G0 Z0.2
G0 X0.3788 Y0.7317
G0 Z0.03
G1 Z0.005 F40.
G1 X0.3787 Y0.732 Z0.0011
G1 X0.3786 Y0.7329 Z-0.0027
G1 X0.3784 Y0.7344 Z-0.0063
G1 X0.3781 Y0.7364 Z-0.0097
G1 X0.3777 Y0.7389 Z-0.0127
G1 X0.3773 Y0.7419 Z-0.0152
G1 X0.3768 Y0.7452 Z-0.0173
G1 X0.3763 Y0.7488 Z-0.0188
G1 X0.3758 Y0.7526 Z-0.0197
G1 X0.3752 Y0.7564 Z-0.02
G1 X0.3747 Y0.7584
G1 X0.3738 Y0.7603
G1 X0.3725 Y0.7619
G1 X0.3709 Y0.7632
G1 X0.3691 Y0.7641
G1 X0.2884 Y0.7908 F26.
G1 X0.2551 Y0.7992
G1 X0.1751 Y0.8161
G1 X0.1169 Y0.8214
G1 X0.0749 Y0.8246
G1 X0.0581 Y0.8255
G1 X-0.026 Y0.8221
G1 X-0.0512 Y0.8198
G1 X-0.068 Y0.8174
G1 X-0.1436 Y0.8047
G1 X-0.152 Y0.8031
G1 X-0.2529 Y0.773
G1 X-0.2706 Y0.7656
G1 X-0.337 Y0.7366
G1 X-0.3465 Y0.732
G1 X-0.3706 Y0.719
G1 X-0.4294 Y0.684
G1 X-0.4581 Y0.6648
G1 X-0.5135 Y0.6217
G1 X-0.5387 Y0.6004
G1 X-0.6004 Y0.5387
G1 X-0.6227 Y0.5121
G1 X-0.6648 Y0.4581
G1 X-0.684 Y0.4294
G1 X-0.719 Y0.3706
G1 X-0.7326 Y0.3454
G1 X-0.7488 Y0.309
G1 X-0.7697 Y0.2613
G1 X-0.774 Y0.25
G1 X-0.8031 Y0.152
G1 X-0.8104 Y0.11
G1 X-0.8188 Y0.0596
G1 X-0.8206 Y0.0428
G1 X-0.8221 Y0.026
G1 X-0.8255 Y-0.0581
G1 X-0.8228 Y-0.1001
G1 X-0.8169 Y-0.1674
G1 X-0.8159 Y-0.1758
G1 X-0.7983 Y-0.2598
G1 X-0.7908 Y-0.2883
G1 X-0.7656 Y-0.3645
G1 X-0.7643 Y-0.3675 F40.
G1 X-0.7626 Y-0.3702
G1 X-0.7605 Y-0.3728
G1 X-0.7578 Y-0.3756 Z-0.0197
G1 X-0.7552 Y-0.3784 Z-0.0188
G1 X-0.7528 Y-0.3811 Z-0.0173
G1 X-0.7505 Y-0.3835 Z-0.0152
G1 X-0.7485 Y-0.3857 Z-0.0127
G1 X-0.7467 Y-0.3876 Z-0.0097
G1 X-0.7453 Y-0.3891 Z-0.0063
G1 X-0.7443 Y-0.3902 Z-0.0027
G1 X-0.7437 Y-0.3909 Z0.0011
G1 X-0.7435 Y-0.3911 Z0.005
G0 Z0.2
G0 X-0.7654 Y-0.5262
G0 Z0.03
G1 Z0.005 F40.
G1 X-0.7657 Y-0.5261 Z0.0011
G1 X-0.7666 Y-0.5258 Z-0.0027
G1 X-0.768 Y-0.5253 Z-0.0063
G1 X-0.77 Y-0.5247 Z-0.0097
G1 X-0.7724 Y-0.5239 Z-0.0127
G1 X-0.7752 Y-0.5229 Z-0.0152
G1 X-0.7784 Y-0.5219 Z-0.0173
G1 X-0.7818 Y-0.5207 Z-0.0188
G1 X-0.7854 Y-0.5195 Z-0.0197
G1 X-0.7892 Y-0.5183 Z-0.02
G1 X-0.7912 Y-0.5178
G1 X-0.7932 Y-0.5179
G1 X-0.7952 Y-0.5183
G1 X-0.7971 Y-0.5191
G1 X-0.7987 Y-0.5204
G1 X-1.0094 Y-0.7312 F26.
G1 X-1.0119 Y-0.7351
G1 X-1.0136 Y-0.7389
G1 X-1.0146 Y-0.7431
G1 X-1.0149 Y-0.7473
G1 X-1.0139 Y-0.7536
G1 X-1.0117 Y-0.7591
G1 X-1.0079 Y-0.7641
G1 X-0.6802 Y-1.0919
G1 X-0.6732 Y-1.0986
G1 X-0.6705 Y-1.1003
G1 X-0.6648 Y-1.1027
G1 X-0.6606 Y-1.1034
G1 X-0.6564
G1 X-0.6522 Y-1.1027
G1 X-0.6459 Y-1.1003
G1 X-0.6427 Y-1.0984
G1 X-0.6311 Y-1.0872
G1 X-0.4341 Y-0.8902
G1 X-0.4294 Y-0.8856
G1 X-0.4273 Y-0.8831 F40.
G1 X-0.4256 Y-0.8803
G1 X-0.4242 Y-0.8774
G1 X-0.4228 Y-0.8737 Z-0.0197
G1 X-0.4214 Y-0.8702 Z-0.0188
G1 X-0.4201 Y-0.8668 Z-0.0173
G1 X-0.4189 Y-0.8637 Z-0.0152
G1 X-0.4178 Y-0.8609 Z-0.0127
G1 X-0.4169 Y-0.8585 Z-0.0097
G1 X-0.4161 Y-0.8566 Z-0.0063
G1 X-0.4156 Y-0.8552 Z-0.0027
G1 X-0.4153 Y-0.8543 Z0.0011
G1 X-0.4152 Y-0.8541 Z0.005
G0 Z0.2
G0 X-0.251 Y-0.8528
G0 Z0.03
G1 Z0.005 F40.
G1 X-0.2513 Y-0.8527 Z0.0011
G1 X-0.2522 Y-0.8524 Z-0.0027
G1 X-0.2536 Y-0.852 Z-0.0063
G1 X-0.2556 Y-0.8514 Z-0.0097
G1 X-0.258 Y-0.8506 Z-0.0127
G1 X-0.2609 Y-0.8498 Z-0.0152
G1 X-0.2641 Y-0.8488 Z-0.0173
G1 X-0.2676 Y-0.8478 Z-0.0188
G1 X-0.2712 Y-0.8467 Z-0.0197
G1 X-0.275 Y-0.8456 Z-0.02
G1 X-0.2766 Y-0.8454
G1 X-0.2783 Y-0.8457
G1 X-0.2797 Y-0.8466
G1 X-0.2807 Y-0.8479
G1 X-0.2812 Y-0.8495
G1 Y-0.8512
G1 X-0.2806 Y-0.8527
G1 X-0.2796 Y-0.854
G1 X-0.2781 Y-0.8549
G1 X-0.1976 Y-0.8818 F26.
G1 X-0.1637 Y-0.8902
G1 X-0.0848 Y-0.907
G1 X-0.0007 Y-0.9145
G1 X0.0329 Y-0.9164
G1 X0.1169 Y-0.9131
G1 X0.1421 Y-0.9108
G1 X0.1674 Y-0.9069
G1 X0.2346 Y-0.8957
G1 X0.243 Y-0.894
G1 X0.3412 Y-0.865
G1 X0.3615 Y-0.8566
G1 X0.4279 Y-0.8276
G1 X0.4375 Y-0.823
G1 X0.468 Y-0.8062
G1 X0.5204 Y-0.775
G1 X0.549 Y-0.7557
G1 X0.6044 Y-0.7126
G1 X0.6297 Y-0.6914
G1 X0.6914 Y-0.6297
G1 X0.7137 Y-0.6031
G1 X0.7557 Y-0.549
G1 X0.775 Y-0.5204
G1 X0.81 Y-0.4615
G1 X0.8236 Y-0.4363
G1 X0.8386 Y-0.4027
G1 X0.8606 Y-0.3523
G1 X0.865 Y-0.3412
G1 X0.894 Y-0.243
G1 X0.8986 Y-0.2177
G1 X0.9097 Y-0.1506
G1 X0.9124 Y-0.1253
G1 X0.9131 Y-0.1169
G1 X0.9163 Y-0.0367
G1 Y-0.0366 F40.
G1 X0.9159 Y-0.0344 Z-0.0197
G1 X0.9155 Y-0.0324 Z-0.019
G1 X0.9152 Y-0.0306 Z-0.0177
G1 X0.9149 Y-0.0291 Z-0.0161
G1 X0.9147 Y-0.0279 Z-0.0142
G1 X0.9145 Y-0.0273 Z-0.0123
G1 X0.9144 Y-0.0271 Z-0.0102
G0 Z0.2
G0 X0.8774 Y-0.0405
G0 Z0.04
G1 Z0.015 F40.
G1 X0.8777 Z0.0111
G1 X0.8786 Z0.0073
G1 X0.8801 Y-0.0406 Z0.0037
G1 X0.8822 Z0.0003
G1 X0.8847 Y-0.0407 Z-0.0027
G1 X0.8877 Y-0.0408 Z-0.0052
G1 X0.8911 Y-0.0409 Z-0.0073
G1 X0.8947 Y-0.041 Z-0.0088
G1 X0.8985 Y-0.0411 Z-0.0097
G1 X0.9024 Y-0.0412 Z-0.01
G1 X0.9073 Y-0.0411
G1 X0.9122 Y-0.0404
G1 X0.9144 Y-0.0399 F26.
G1 X0.916 Y-0.0384
G1 X0.9166 Y-0.0363
G1 X0.9164 Y-0.0245
G1 X0.9141 Y0.0091
G1 X0.9089 Y0.068
G1 X0.907 Y0.085
G1 X0.8895 Y0.1689
G1 X0.8803 Y0.2025
G1 X0.8553 Y0.2781
G1 X0.8528 Y0.2865
G1 X0.8497 Y0.2996
G1 X0.8487 Y0.3027 F40.
G1 X0.8477 Y0.3061
G1 X0.8471 Y0.3097
G1 X0.836 Y0.4512
G2 X0.8859 Y0.4552 I0.0249 J0.002
G2 X0.8794 Y0.4363 I-0.0249 J-0.002
G1 X0.8785 Y0.4349
G1 X0.8781 Y0.4333
G1 X0.8783 Y0.4316
G1 X0.879 Y0.4301
G1 X0.8802 Y0.4289
G1 X0.8817 Y0.4282
G1 X0.8834 Y0.4281
G1 X0.885 Y0.4285
G1 X0.8864 Y0.4294
G1 X1.0965 Y0.6395 F26.
G1 X1.0987 Y0.6421
G1 X1.1003 Y0.6446
G1 X1.1028 Y0.6501
G1 X1.1039 Y0.6564
G1 X1.1038 Y0.6606
G1 X1.103 Y0.6648
G1 X1.1019 Y0.6678
G1 X1.0988 Y0.6732
G1 X1.0247 Y0.7476
G1 X0.7628 Y1.0094
G1 X0.7592 Y1.0117
G1 X0.7557 Y1.0133
G1 X0.7515 Y1.0145
G1 X0.7473 Y1.0149
G1 X0.7431 Y1.0147
G1 X0.7389 Y1.0137
G1 X0.733 Y1.0108
G1 X0.7305 Y1.0089
G1 X0.5204 Y0.799
G1 X0.507 Y0.7874
G1 X0.5005 Y0.7824
G1 X0.4902 Y0.7758
G1 X0.4854 Y0.7731
G1 X0.4687 Y0.7656
G1 X0.4447 Y0.7589
G1 X0.4227 Y0.7566
G1 X0.4181 Y0.7565
G1 X0.4013 Y0.7575
G1 X0.3943 Y0.7584
G1 X0.3775 Y0.7621
G1 X0.3656 Y0.7656
G1 X0.2884 Y0.7908
G1 X0.2567 Y0.7992
G1 X0.1756 Y0.8161
G1 X0.1337 Y0.8203
G1 X0.0749 Y0.825
G1 X0.0581 Y0.8259
G1 X-0.026 Y0.8225
G1 X-0.0512 Y0.8202
G1 X-0.068 Y0.8177
G1 X-0.1436 Y0.805
G1 X-0.152 Y0.8033
G1 X-0.1949 Y0.7908
G1 X-0.2529 Y0.7734
G1 X-0.2781 Y0.7627
G1 X-0.337 Y0.7369
G1 X-0.3472 Y0.732
G1 X-0.3706 Y0.7194
G1 X-0.4294 Y0.6844
G1 X-0.4587 Y0.6648
G1 X-0.5135 Y0.6221
G1 X-0.5387 Y0.6009
G1 X-0.6009 Y0.5387
G1 X-0.6227 Y0.5127
G1 X-0.6648 Y0.4587
G1 X-0.6844 Y0.4294
G1 X-0.7194 Y0.3706
G1 X-0.733 Y0.3454
G1 X-0.7488 Y0.3099
G1 X-0.7701 Y0.2613
G1 X-0.774 Y0.2512
G1 X-0.8011 Y0.1604
G1 X-0.8033 Y0.152
G1 X-0.8079 Y0.1268
G1 X-0.8191 Y0.0596
G1 X-0.821 Y0.0428
G1 X-0.8225 Y0.026
G1 X-0.8259 Y-0.0581
G1 X-0.8231 Y-0.1001
G1 X-0.8188 Y-0.1506
G1 X-0.816 Y-0.1758
G1 X-0.7986 Y-0.2598
G1 X-0.7893 Y-0.2934
G1 X-0.7645 Y-0.3691
G1 X-0.7621 Y-0.3775
G1 X-0.7582 Y-0.3957
G1 X-0.7572 Y-0.4051
G1 X-0.7566 Y-0.4209
G1 X-0.7585 Y-0.4406
G1 X-0.7594 Y-0.4461
G1 X-0.7662 Y-0.47
G1 X-0.7749 Y-0.4882
G1 X-0.779 Y-0.4952
G1 X-0.7858 Y-0.5048
G1 X-0.7917 Y-0.512
G1 X-0.7993 Y-0.5204
G1 X-1.0094 Y-0.7307
G1 X-1.0122 Y-0.7348
G1 X-1.0139 Y-0.7389
G1 X-1.0149 Y-0.7431
G1 X-1.0152 Y-0.7473
G1 X-1.0148 Y-0.7515
G1 X-1.0136 Y-0.7557
G1 X-1.0108 Y-0.7613
G1 X-1.0085 Y-0.7641
G1 X-0.6807 Y-1.0919
G1 X-0.6732 Y-1.0992
G1 X-0.6681 Y-1.1021
G1 X-0.6648 Y-1.1033
G1 X-0.6606 Y-1.1041
G1 X-0.6564
G1 X-0.6501 Y-1.1029
G1 X-0.6448 Y-1.1003
G1 X-0.6395 Y-1.0961
G1 X-0.4294 Y-0.8861
G1 X-0.4141 Y-0.8734
G1 X-0.4011 Y-0.865
G1 X-0.379 Y-0.8548
G1 X-0.3538 Y-0.8482
G1 X-0.3356 Y-0.8466
G1 X-0.3272 Y-0.8464
G1 X-0.3079 Y-0.8479
G1 X-0.3033 Y-0.8487
G1 X-0.2865 Y-0.8528
G1 X-0.2697 Y-0.8581
G1 X-0.1977 Y-0.8818
G1 X-0.1653 Y-0.8902
G1 X-0.0848 Y-0.9071
G1 X-0.0344 Y-0.912
G1 X0.0079 Y-0.9154
G1 X0.0329 Y-0.9168
G1 X0.1169 Y-0.9135
G1 X0.1421 Y-0.9111
G1 X0.1674 Y-0.9073
G1 X0.2346 Y-0.8961
G1 X0.243 Y-0.8942
G1 X0.3439 Y-0.8645
G1 X0.4279 Y-0.8279
G1 X0.4382 Y-0.823
G1 X0.4615 Y-0.8104
G1 X0.5204 Y-0.7754
G1 X0.5496 Y-0.7557
G1 X0.6044 Y-0.7131
G1 X0.6297 Y-0.6919
G1 X0.6919 Y-0.6297
G1 X0.7137 Y-0.6036
G1 X0.7557 Y-0.5496
G1 X0.7754 Y-0.5204
G1 X0.8104 Y-0.4615
G1 X0.824 Y-0.4363
G1 X0.839 Y-0.4027
G1 X0.8644 Y-0.3439
G1 X0.892 Y-0.2514
G1 X0.8942 Y-0.243
G1 X0.8976 Y-0.2262
G1 X0.91 Y-0.1506
G1 X0.9127 Y-0.1253
G1 X0.9135 Y-0.1169
G1 X0.9166 Y-0.0363
G1 Y-0.0362 F40.
G1 X0.9162 Y-0.034 Z-0.0097
G1 X0.9159 Y-0.032 Z-0.009
G1 X0.9156 Y-0.0302 Z-0.0077
G1 X0.9153 Y-0.0287 Z-0.0061
G1 X0.9151 Y-0.0275 Z-0.0042
G1 X0.9148 Y-0.0269 Z-0.0023
G1 Y-0.0267 Z-0.0002
G0 Z0.2
G0 X-0.0078 Y0.0606
G0 Z0.
G3 X0.0987 Y-0.1516 Z-0.013 I0.0533 J-0.1061 F13.3
G3 X-0.0078 Y0.0606 Z-0.0261 I-0.0533 J0.1061
G3 X0.0987 Y-0.1516 Z-0.0391 I0.0533 J-0.1061
G3 X-0.0078 Y0.0606 Z-0.0521 I-0.0533 J0.1061
G3 X0.0987 Y-0.1516 Z-0.0651 I0.0533 J-0.1061
G3 X-0.0078 Y0.0606 Z-0.0782 I-0.0533 J0.1061
G3 X0.0987 Y-0.1516 Z-0.0912 I0.0533 J-0.1061
G3 X-0.0078 Y0.0606 Z-0.1042 I-0.0533 J0.1061
G3 X0.0987 Y-0.1516 Z-0.1172 I0.0533 J-0.1061
G3 X-0.0078 Y0.0606 Z-0.1303 I-0.0533 J0.1061
G3 X0.0987 Y-0.1516 Z-0.1433 I0.0533 J-0.1061
G3 X-0.0078 Y0.0606 Z-0.1563 I-0.0533 J0.1061
G3 X0.0987 Y-0.1516 Z-0.1694 I0.0533 J-0.1061
G3 X-0.0078 Y0.0606 Z-0.1824 I-0.0533 J0.1061
G3 X0.0987 Y-0.1516 Z-0.1954 I0.0533 J-0.1061
G3 X0.1642 Y-0.0455 Z-0.2 I-0.0533 J0.1061
G3 X-0.0733 I-0.1188 J0.
G3 X0.1642 I0.1188 J0.
G1 X0.1644 Y-0.0362 F26.
G1 X0.1708 Y0.0002
G1 X0.1724 Y0.0046
G1 X0.1737 Y0.0098
G1 X0.1746 Y0.0151
G1 X0.175 Y0.0208
G1 Y0.0269
G1 X0.1745 Y0.0334
G1 X0.1733 Y0.0404
G1 X0.1715 Y0.0476
G1 X0.169 Y0.0552
G1 X0.1657 Y0.0629
G1 X0.1615 Y0.0707
G1 X0.1565 Y0.0786
G1 X0.1507 Y0.0864
G1 X0.144 Y0.0939
G1 X0.1363 Y0.1012
G1 X0.1279 Y0.1081
G1 X0.1185 Y0.1146
G1 X0.1084 Y0.1204
G1 X0.0976 Y0.1255
G1 X0.0861 Y0.1299
G1 X0.074 Y0.1334
G1 X0.0614 Y0.136
G1 X0.0484 Y0.1376
G1 X0.035 Y0.1381
G1 X0.0215 Y0.1376
G1 X0.0079 Y0.1359
G1 X-0.0058 Y0.1332
G1 X-0.0193 Y0.1293
G1 X-0.0326 Y0.1243
G1 X-0.0456 Y0.1181
G1 X-0.0581 Y0.111
G1 X-0.0701 Y0.1027
G1 X-0.0814 Y0.0935
G1 X-0.0921 Y0.0833
G1 X-0.1019 Y0.0723
G1 X-0.1109 Y0.0605
G1 X-0.1189 Y0.0479
G1 X-0.1258 Y0.0347
G1 X-0.1318 Y0.021
G1 X-0.1366 Y0.0067
G1 X-0.1403 Y-0.0079
G1 X-0.1427 Y-0.0227
G1 X-0.144 Y-0.0378
G1 X-0.1441 Y-0.0529
G1 X-0.143 Y-0.068
G1 X-0.1406 Y-0.083
G1 X-0.1371 Y-0.0977
G1 X-0.1323 Y-0.1122
G1 X-0.1265 Y-0.1262
G1 X-0.1195 Y-0.1397
G1 X-0.1114 Y-0.1526
G1 X-0.1024 Y-0.1648
G1 X-0.0924 Y-0.1763
G1 X-0.0814 Y-0.1869
G1 X-0.0697 Y-0.1967
G1 X-0.0572 Y-0.2054
G1 X-0.0441 Y-0.2132
G1 X-0.0304 Y-0.2198
G1 X-0.0161 Y-0.2253
G1 X-0.0015 Y-0.2297
G1 X0.0134 Y-0.2329
G1 X0.0285 Y-0.2348
G1 X0.0438 Y-0.2356
G1 X0.059 Y-0.2351
G1 X0.0742 Y-0.2334
G1 X0.0892 Y-0.2305
G1 X0.1039 Y-0.2264
G1 X0.1182 Y-0.2211
G1 X0.1321 Y-0.2147
G1 X0.1454 Y-0.2072
G1 X0.1581 Y-0.1987
G1 X0.17 Y-0.1892
G1 X0.1811 Y-0.1787
G1 X0.1914 Y-0.1674
G1 X0.2007 Y-0.1553
G1 X0.2094 Y-0.1419
G1 X0.2246 Y-0.1137
G1 X0.2362 Y-0.0874
G1 X0.2438 Y-0.0657
G1 X0.2489 Y-0.046
G1 X0.2521 Y-0.0276
G1 X0.2538 Y-0.0097
G1 X0.254 Y0.0076
G1 X0.2529 Y0.0245
G1 X0.2504 Y0.0409
G1 X0.2467 Y0.057
G1 X0.2417 Y0.0726
G1 X0.2355 Y0.0879
G1 X0.228 Y0.1027
G1 X0.2193 Y0.1169
G1 X0.2094 Y0.1305
G1 X0.1983 Y0.1434
G1 X0.1861 Y0.1555
G1 X0.1728 Y0.1667
G1 X0.1584 Y0.1769
G1 X0.1431 Y0.1861
G1 X0.1268 Y0.1942
G1 X0.1097 Y0.201
G1 X0.0919 Y0.2065
G1 X0.0735 Y0.2105
G1 X0.0546 Y0.2132
G1 X0.0353 Y0.2143
G1 X0.0158 Y0.2138
G1 X-0.0038 Y0.2118
G1 X-0.0233 Y0.2082
G1 X-0.0427 Y0.203
G1 X-0.0617 Y0.1961
G1 X-0.0802 Y0.1878
G1 X-0.0981 Y0.1779
G1 X-0.1153 Y0.1665
G1 X-0.1315 Y0.1537
G1 X-0.1468 Y0.1396
G1 X-0.161 Y0.1243
G1 X-0.1739 Y0.1078
G1 X-0.1855 Y0.0902
G1 X-0.1957 Y0.0717
G1 X-0.2044 Y0.0524
G1 X-0.2115 Y0.0324
G1 X-0.217 Y0.0118
G1 X-0.2209 Y-0.0092
G1 X-0.2231 Y-0.0305
G1 X-0.2235 Y-0.0519
G1 X-0.2223 Y-0.0733
G1 X-0.2193 Y-0.0945
G1 X-0.2146 Y-0.1155
G1 X-0.2083 Y-0.1361
G1 X-0.2003 Y-0.1561
G1 X-0.1907 Y-0.1754
G1 X-0.1796 Y-0.1939
G1 X-0.167 Y-0.2115
G1 X-0.1531 Y-0.2279
G1 X-0.1378 Y-0.2433
G1 X-0.1214 Y-0.2573
G1 X-0.1039 Y-0.2701
G1 X-0.0855 Y-0.2813
G1 X-0.0661 Y-0.2911
G1 X-0.0461 Y-0.2992
G1 X-0.0255 Y-0.3058
G1 X-0.0044 Y-0.3106
G1 X0.0171 Y-0.3138
G1 X0.0387 Y-0.3152
G1 X0.0603 Y-0.3149
G1 X0.0819 Y-0.3128
G1 X0.1032 Y-0.3091
G1 X0.1242 Y-0.3036
G1 X0.1446 Y-0.2964
G1 X0.1644 Y-0.2877
G1 X0.1835 Y-0.2774
G1 X0.2017 Y-0.2655
G1 X0.2189 Y-0.2522
G1 X0.2375 Y-0.2353
G1 X0.2556 Y-0.216
G1 X0.2727 Y-0.1946
G1 X0.2882 Y-0.1715
G1 X0.3017 Y-0.1474
G1 X0.313 Y-0.1229
G1 X0.3221 Y-0.0982
G1 X0.3289 Y-0.0735
G1 X0.3337 Y-0.0488
G1 X0.3364 Y-0.0242
G1 X0.3371 Y0.0002
G1 X0.3359 Y0.0243
G1 X0.3328 Y0.048
G1 X0.3278 Y0.0713
G1 X0.321 Y0.094
G1 X0.3123 Y0.1161
G1 X0.302 Y0.1374
G1 X0.2899 Y0.1578
G1 X0.2762 Y0.1773
G1 X0.2609 Y0.1957
G1 X0.2441 Y0.213
G1 X0.2258 Y0.2289
G1 X0.2061 Y0.2434
G1 X0.1852 Y0.2565
G1 X0.163 Y0.2678
G1 X0.1399 Y0.2775
G1 X0.1159 Y0.2853
G1 X0.0911 Y0.2913
G1 X0.0657 Y0.2952
G1 X0.0399 Y0.2971
G1 X0.0138 Y0.297
G1 X-0.0124 Y0.2947
G1 X-0.0384 Y0.2903
G1 X-0.0642 Y0.2838
G1 X-0.0895 Y0.2752
G1 X-0.1142 Y0.2645
G1 X-0.1381 Y0.2518
G1 X-0.161 Y0.2372
G1 X-0.1827 Y0.2207
G1 X-0.2032 Y0.2024
G1 X-0.2222 Y0.1825
G1 X-0.2396 Y0.161
G1 X-0.2552 Y0.1381
G1 X-0.269 Y0.114
G1 X-0.2809 Y0.0887
G1 X-0.2907 Y0.0625
G1 X-0.2985 Y0.0356
G1 X-0.304 Y0.0081
G1 X-0.3073 Y-0.0199
G1 X-0.3084 Y-0.048
G1 X-0.3072 Y-0.0762
G1 X-0.3037 Y-0.1042
G1 X-0.298 Y-0.1319
G1 X-0.2901 Y-0.1591
G1 X-0.28 Y-0.1856
G1 X-0.2678 Y-0.2112
G1 X-0.2536 Y-0.2358
G1 X-0.2375 Y-0.2591
G1 X-0.2195 Y-0.2811
G1 X-0.1998 Y-0.3016
G1 X-0.1785 Y-0.3204
G1 X-0.1558 Y-0.3375
G1 X-0.1318 Y-0.3527
G1 X-0.1066 Y-0.366
G1 X-0.0804 Y-0.3772
G1 X-0.0534 Y-0.3862
G1 X-0.0258 Y-0.393
G1 X0.0023 Y-0.3977
G1 X0.0307 Y-0.4
G1 X0.0592
G1 X0.0876 Y-0.3978
G1 X0.1157 Y-0.3933
G1 X0.1434 Y-0.3866
G1 X0.1704 Y-0.3776
G1 X0.1967 Y-0.3665
G1 X0.2227 Y-0.3529
G1 X0.2484 Y-0.3368
G1 X0.2735 Y-0.3181
G1 X0.2976 Y-0.2969
G1 X0.3204 Y-0.2734
G1 X0.3414 Y-0.2479
G1 X0.3603 Y-0.2207
G1 X0.377 Y-0.1922
G1 X0.3912 Y-0.1627
G1 X0.4028 Y-0.1323
G1 X0.412 Y-0.1013
G1 X0.4186 Y-0.07
G1 X0.4226 Y-0.0386
G1 X0.424 Y-0.0071
G1 X0.4229 Y0.0242
G1 X0.4194 Y0.0551
G1 X0.4134 Y0.0855
G1 X0.405 Y0.1153
G1 X0.3942 Y0.1443
G1 X0.3812 Y0.1723
G1 X0.3659 Y0.1992
G1 X0.3485 Y0.2248
G1 X0.329 Y0.249
G1 X0.3076 Y0.2717
G1 X0.2843 Y0.2927
G1 X0.2592 Y0.3119
G1 X0.2326 Y0.329
G1 X0.2045 Y0.3441
G1 X0.1751 Y0.3569
G1 X0.1446 Y0.3674
G1 X0.1131 Y0.3755
G1 X0.081 Y0.381
G1 X0.0483 Y0.384
G1 X0.0152 Y0.3843
G1 X-0.0179 Y0.382
G1 X-0.0509 Y0.377
G1 X-0.0835 Y0.3693
G1 X-0.1156 Y0.359
G1 X-0.1469 Y0.3461
G1 X-0.1772 Y0.3306
G1 X-0.2063 Y0.3127
G1 X-0.234 Y0.2924
G1 X-0.26 Y0.2699
G1 X-0.2842 Y0.2453
G1 X-0.3065 Y0.2187
G1 X-0.3266 Y0.1904
G1 X-0.3444 Y0.1605
G1 X-0.3597 Y0.1291
G1 X-0.3726 Y0.0966
G1 X-0.3828 Y0.063
G1 X-0.3903 Y0.0287
G1 X-0.395 Y-0.0062
G1 X-0.3969 Y-0.0414
G1 X-0.396 Y-0.0766
G1 X-0.3923 Y-0.1117
G1 X-0.3857 Y-0.1465
G1 X-0.3764 Y-0.1806
G1 X-0.3643 Y-0.2139
G1 X-0.3496 Y-0.2462
G1 X-0.3323 Y-0.2772
G1 X-0.3126 Y-0.3067
G1 X-0.2906 Y-0.3346
G1 X-0.2664 Y-0.3606
G1 X-0.2402 Y-0.3846
G1 X-0.2121 Y-0.4064
G1 X-0.1824 Y-0.4259
G1 X-0.1512 Y-0.443
G1 X-0.1187 Y-0.4575
G1 X-0.0852 Y-0.4694
G1 X-0.0508 Y-0.4785
G1 X-0.0157 Y-0.4848
G1 X0.0197 Y-0.4883
G1 X0.0553 Y-0.489
G1 X0.0909 Y-0.4868
G1 X0.1261 Y-0.4817
G1 X0.161 Y-0.4738
G1 X0.1954 Y-0.4631
G1 X0.2293 Y-0.4494
G1 X0.2623 Y-0.4329
G1 X0.294 Y-0.4137
G1 X0.3241 Y-0.3921
G1 X0.3523 Y-0.3683
G1 X0.3787 Y-0.3423
G1 X0.4031 Y-0.3145
G1 X0.4254 Y-0.2849
G1 X0.4453 Y-0.2538
G1 X0.4629 Y-0.2212
G1 X0.4781 Y-0.1875
G1 X0.4906 Y-0.1527
G1 X0.5006 Y-0.117
G1 X0.5078 Y-0.0807
G1 X0.5122 Y-0.044
G1 X0.5138 Y-0.007
G1 X0.5125 Y0.03
G1 X0.5084 Y0.0667
G1 X0.5014 Y0.1031
G1 X0.4916 Y0.1388
G1 X0.4791 Y0.1736
G1 X0.4639 Y0.2073
G1 X0.4461 Y0.2398
G1 X0.4258 Y0.2707
G1 X0.4032 Y0.3
G1 X0.3784 Y0.3275
G1 X0.3516 Y0.353
G1 X0.3229 Y0.3763
G1 X0.2924 Y0.3974
G1 X0.2605 Y0.416
G1 X0.2272 Y0.4323
G1 X0.1929 Y0.4459
G1 X0.1575 Y0.457
G1 X0.1215 Y0.4653
G1 X0.0849 Y0.471
G1 X0.0481 Y0.474
G1 X0.0111 Y0.4743
G1 X-0.0259 Y0.4717
G1 X-0.0625 Y0.4665
G1 X-0.0986 Y0.4585
G1 X-0.1341 Y0.448
G1 X-0.1687 Y0.4349
G1 X-0.2023 Y0.4193
G1 X-0.2347 Y0.4014
G1 X-0.2657 Y0.3812
G1 X-0.2952 Y0.3589
G1 X-0.3231 Y0.3346
G1 X-0.3491 Y0.3082
G1 X-0.3731 Y0.2801
G1 X-0.3951 Y0.2503
G1 X-0.4149 Y0.2191
G1 X-0.4325 Y0.1865
G1 X-0.4478 Y0.1528
G1 X-0.4607 Y0.1182
G1 X-0.4711 Y0.0827
G1 X-0.479 Y0.0465
G1 X-0.4843 Y0.0099
G1 X-0.487 Y-0.027
G1 X-0.4871 Y-0.064
G1 X-0.4846 Y-0.1009
G1 X-0.4797 Y-0.1376
G1 X-0.4722 Y-0.1738
G1 X-0.4622 Y-0.2095
G1 X-0.4497 Y-0.2443
G1 X-0.4347 Y-0.2781
G1 X-0.4175 Y-0.3109
G1 X-0.398 Y-0.3423
G1 X-0.3764 Y-0.3724
G1 X-0.3528 Y-0.4009
G1 X-0.3273 Y-0.4277
G1 X-0.3 Y-0.4526
G1 X-0.2709 Y-0.4756
G1 X-0.2404 Y-0.4965
G1 X-0.2085 Y-0.5152
G1 X-0.1753 Y-0.5317
G1 X-0.1412 Y-0.5458
G1 X-0.1061 Y-0.5577
G1 X-0.0703 Y-0.5669
G1 X-0.0339 Y-0.5737
G1 X0.0029 Y-0.5779
G1 X0.0398 Y-0.5795
G1 X0.0768 Y-0.5786
G1 X0.1137 Y-0.5752
G1 X0.1502 Y-0.5693
G1 X0.1862 Y-0.5609
G1 X0.2216 Y-0.5499
G1 X0.2561 Y-0.5366
G1 X0.2896 Y-0.5209
G1 X0.3221 Y-0.5032
G1 X0.3533 Y-0.4833
G1 X0.3831 Y-0.4614
G1 X0.4114 Y-0.4376
G1 X0.4381 Y-0.412
G1 X0.4632 Y-0.3847
G1 X0.4864 Y-0.3559
G1 X0.5079 Y-0.3258
G1 X0.5274 Y-0.2943
G1 X0.5448 Y-0.2617
G1 X0.5601 Y-0.228
G1 X0.5732 Y-0.1934
G1 X0.5842 Y-0.1581
G1 X0.5929 Y-0.1221
G1 X0.5993 Y-0.0857
G1 X0.6033 Y-0.0489
G1 X0.6049 Y-0.0119
G1 X0.6041 Y0.0251
G1 X0.6008 Y0.062
G1 X0.5953 Y0.0985
G1 X0.5874 Y0.1347
G1 X0.5772 Y0.1703
G1 X0.5646 Y0.205
G1 X0.5497 Y0.2389
G1 X0.5327 Y0.2718
G1 X0.5136 Y0.3035
G1 X0.4925 Y0.3339
G1 X0.4695 Y0.3628
G1 X0.4445 Y0.3902
G1 X0.4179 Y0.4159
G1 X0.3896 Y0.4398
G1 X0.3599 Y0.4618
G1 X0.3289 Y0.482
G1 X0.2966 Y0.5001
G1 X0.2633 Y0.5161
G1 X0.2289 Y0.5299
G1 X0.1938 Y0.5415
G1 X0.158 Y0.5509
G1 X0.1217 Y0.558
G1 X0.085 Y0.5629
G1 X0.0481 Y0.5655
G1 X0.0111 Y0.5657
G1 X-0.0258 Y0.5635
G1 X-0.0626 Y0.559
G1 X-0.099 Y0.5523
G1 X-0.1349 Y0.5434
G1 X-0.1702 Y0.5323
G1 X-0.2047 Y0.519
G1 X-0.2384 Y0.5036
G1 X-0.271 Y0.4862
G1 X-0.3025 Y0.4669
G1 X-0.3329 Y0.4456
G1 X-0.3618 Y0.4227
G1 X-0.3894 Y0.3979
G1 X-0.4153 Y0.3715
G1 X-0.4396 Y0.3436
G1 X-0.4621 Y0.3142
G1 X-0.4828 Y0.2836
G1 X-0.5018 Y0.2518
G1 X-0.5188 Y0.2189
G1 X-0.5338 Y0.1851
G1 X-0.5467 Y0.1504
G1 X-0.5574 Y0.115
G1 X-0.566 Y0.079
G1 X-0.5725 Y0.0426
G1 X-0.5768 Y0.0058
G1 X-0.5789 Y-0.0311
G1 X-0.5788 Y-0.0681
G1 X-0.5765 Y-0.105
G1 X-0.572 Y-0.1418
G1 X-0.5653 Y-0.1781
G1 X-0.5565 Y-0.2141
G1 X-0.5455 Y-0.2494
G1 X-0.5326 Y-0.2841
G1 X-0.5175 Y-0.3179
G1 X-0.5004 Y-0.3507
G1 X-0.4814 Y-0.3825
G1 X-0.4606 Y-0.4131
G1 X-0.4381 Y-0.4424
G1 X-0.4138 Y-0.4703
G1 X-0.388 Y-0.4968
G1 X-0.3605 Y-0.5217
G1 X-0.3317 Y-0.5448
G1 X-0.3015 Y-0.5662
G1 X-0.2701 Y-0.5858
G1 X-0.2376 Y-0.6035
G1 X-0.2042 Y-0.6194
G1 X-0.1699 Y-0.6332
G1 X-0.1348 Y-0.6449
G1 X-0.099 Y-0.6545
G1 X-0.0628 Y-0.6619
G1 X-0.0261 Y-0.6672
G1 X0.0107 Y-0.6704
G1 X0.0477 Y-0.6714
G1 X0.0847 Y-0.6703
G1 X0.1215 Y-0.6669
G1 X0.1581 Y-0.6613
G1 X0.1943 Y-0.6536
G1 X0.23 Y-0.6437
G1 X0.265 Y-0.6319
G1 X0.2994 Y-0.6181
G1 X0.3328 Y-0.6023
G1 X0.3653 Y-0.5846
G1 X0.3968 Y-0.5651
G1 X0.427 Y-0.5438
G1 X0.456 Y-0.5208
G1 X0.4838 Y-0.4963
G1 X0.5101 Y-0.4703
G1 X0.535 Y-0.4429
G1 X0.5583 Y-0.4142
G1 X0.58 Y-0.3842
G1 X0.6 Y-0.3531
G1 X0.6182 Y-0.3209
G1 X0.6347 Y-0.2877
G1 X0.6494 Y-0.2538
G1 X0.6622 Y-0.2191
G1 X0.673 Y-0.1837
G1 X0.6819 Y-0.1478
G1 X0.6888 Y-0.1114
G1 X0.6936 Y-0.0747
G1 X0.6964 Y-0.0378
G1 X0.6971 Y-0.0008
G1 X0.6959 Y0.0362
G1 X0.6926 Y0.073
G1 X0.6871 Y0.1096
G1 X0.6796 Y0.1459
G1 X0.6701 Y0.1816
G1 X0.6586 Y0.2168
G1 X0.6452 Y0.2513
G1 X0.6299 Y0.285
G1 X0.6127 Y0.3177
G1 X0.5937 Y0.3495
G1 X0.5729 Y0.3801
G1 X0.5505 Y0.4095
G1 X0.5264 Y0.4376
G1 X0.5008 Y0.4643
G1 X0.4738 Y0.4896
G1 X0.4454 Y0.5134
G1 X0.4158 Y0.5355
G1 X0.3849 Y0.5559
G1 X0.353 Y0.5746
G1 X0.3201 Y0.5915
G1 X0.2863 Y0.6066
G1 X0.2517 Y0.6198
G1 X0.2165 Y0.6312
G1 X0.1807 Y0.6406
G1 X0.1445 Y0.648
G1 X0.1079 Y0.6534
G1 X0.071 Y0.6568
G1 X0.034 Y0.6582
G1 X-0.003 Y0.6576
G1 X-0.0399 Y0.6551
G1 X-0.0766 Y0.6505
G1 X-0.113 Y0.644
G1 X-0.149 Y0.6355
G1 X-0.1845 Y0.6251
G1 X-0.2194 Y0.6128
G1 X-0.2537 Y0.5987
G1 X-0.2871 Y0.5828
G1 X-0.3196 Y0.5652
G1 X-0.3512 Y0.5459
G1 X-0.3816 Y0.5249
G1 X-0.411 Y0.5023
G1 X-0.439 Y0.4782
G1 X-0.4658 Y0.4526
G1 X-0.4912 Y0.4257
G1 X-0.5152 Y0.3975
G1 X-0.5376 Y0.3681
G1 X-0.5585 Y0.3376
G1 X-0.5777 Y0.306
G1 X-0.5953 Y0.2734
G1 X-0.6111 Y0.2399
G1 X-0.6252 Y0.2057
G1 X-0.6375 Y0.1708
G1 X-0.648 Y0.1353
G1 X-0.6566 Y0.0993
G1 X-0.6633 Y0.063
G1 X-0.668 Y0.0263
G1 X-0.6709 Y-0.0106
G1 X-0.6719 Y-0.0476
G1 X-0.6709 Y-0.0846
G1 X-0.6681 Y-0.1215
G1 X-0.6634 Y-0.1582
G1 X-0.6567 Y-0.1946
G1 X-0.6482 Y-0.2306
G1 X-0.6378 Y-0.2661
G1 X-0.6255 Y-0.301
G1 X-0.6115 Y-0.3353
G1 X-0.5958 Y-0.3688
G1 X-0.5784 Y-0.4014
G1 X-0.5593 Y-0.4331
G1 X-0.5386 Y-0.4638
G1 X-0.5163 Y-0.4933
G1 X-0.4925 Y-0.5217
G1 X-0.4673 Y-0.5487
G1 X-0.4407 Y-0.5745
G1 X-0.4128 Y-0.5988
G1 X-0.3838 Y-0.6218
G1 X-0.3536 Y-0.6431
G1 X-0.3223 Y-0.6629
G1 X-0.29 Y-0.681
G1 X-0.2569 Y-0.6974
G1 X-0.2229 Y-0.7121
G1 X-0.1883 Y-0.7251
G1 X-0.153 Y-0.7363
G1 X-0.1172 Y-0.7456
G1 X-0.0809 Y-0.753
G1 X-0.0444 Y-0.7586
G1 X-0.0075 Y-0.7623
G1 X0.0294 Y-0.7641
G1 X0.0664 Y-0.7639
G1 X0.1034 Y-0.7619
G1 X0.1402 Y-0.7581
G1 X0.1767 Y-0.7523
G1 X0.2129 Y-0.7447
G1 X0.2487 Y-0.7352
G1 X0.2839 Y-0.7239
G1 X0.3186 Y-0.7108
G1 X0.3525 Y-0.696
G1 X0.3856 Y-0.6796
G1 X0.4179 Y-0.6615
G1 X0.4493 Y-0.6419
G1 X0.4796 Y-0.6207
G1 X0.5089 Y-0.598
G1 X0.537 Y-0.5739
G1 X0.5639 Y-0.5485
G1 X0.5895 Y-0.5218
G1 X0.6138 Y-0.494
G1 X0.6368 Y-0.4649
G1 X0.6583 Y-0.4349
G1 X0.6783 Y-0.4037
G1 X0.6968 Y-0.3717
G1 X0.7137 Y-0.3388
G1 X0.7291 Y-0.3051
G1 X0.7428 Y-0.2707
G1 X0.7548 Y-0.2357
G1 X0.7651 Y-0.2002
G1 X0.7738 Y-0.1642
G1 X0.7806 Y-0.1279
G1 X0.7856 Y-0.0912
G1 X0.7888 Y-0.0543
G1 X0.7903 Y-0.0174
G1 X0.7899 Y0.0196
G1 X0.7878 Y0.0566
G1 X0.7839 Y0.0934
G1 X0.7781 Y0.1299
G1 X0.7706 Y0.1662
G1 X0.7613 Y0.202
G1 X0.7502 Y0.2373
G1 X0.7374 Y0.272
G1 X0.7229 Y0.306
G1 X0.7068 Y0.3393
G1 X0.6891 Y0.3718
G1 X0.6698 Y0.4034
G1 X0.649 Y0.434
G1 X0.6266 Y0.4635
G1 X0.6029 Y0.4919
G1 X0.5778 Y0.5191
G1 X0.5514 Y0.545
G1 X0.5238 Y0.5696
G1 X0.495 Y0.5929
G1 X0.4651 Y0.6147
G1 X0.4342 Y0.6351
G1 X0.4023 Y0.6539
G1 X0.3696 Y0.6711
G1 X0.3361 Y0.6868
G1 X0.3018 Y0.7008
G1 X0.2669 Y0.7132
G1 X0.2315 Y0.7239
G1 X0.1956 Y0.7329
G1 X0.1594 Y0.7401
G1 X0.1228 Y0.7456
G1 X0.0859 Y0.7493
G1 X0.049 Y0.7512
G1 X0.012 Y0.7514
G1 X-0.025 Y0.7499
G1 X-0.0618 Y0.7466
G1 X-0.0985 Y0.7416
G1 X-0.1349 Y0.7348
G1 X-0.1709 Y0.7263
G1 X-0.2065 Y0.7161
G1 X-0.2415 Y0.7043
G1 X-0.276 Y0.6908
G1 X-0.3098 Y0.6757
G1 X-0.3428 Y0.6591
G1 X-0.3751 Y0.641
G1 X-0.4065 Y0.6214
G1 X-0.4369 Y0.6003
G1 X-0.4663 Y0.5778
G1 X-0.4946 Y0.5539
G1 X-0.5217 Y0.5288
G1 X-0.5477 Y0.5024
G1 X-0.5724 Y0.4749
G1 X-0.5958 Y0.4463
G1 X-0.6179 Y0.4166
G1 X-0.6386 Y0.3859
G1 X-0.6579 Y0.3543
G1 X-0.6756 Y0.3219
G1 X-0.6918 Y0.2886
G1 X-0.7065 Y0.2546
G1 X-0.7196 Y0.22
G1 X-0.7311 Y0.1849
G1 X-0.741 Y0.1492
G1 X-0.7493 Y0.1131
G1 X-0.7559 Y0.0767
G1 X-0.7607 Y0.04
G1 X-0.7639 Y0.0032
G1 X-0.7654 Y-0.0338
G1 X-0.7651 Y-0.0708
G1 X-0.7633 Y-0.1078
G1 X-0.7597 Y-0.1446
G1 X-0.7544 Y-0.1812
G1 X-0.7475 Y-0.2176
G1 X-0.739 Y-0.2536
G1 X-0.7287 Y-0.2891
G1 X-0.7168 Y-0.3242
G1 X-0.7034 Y-0.3586
G1 X-0.6884 Y-0.3925
G1 X-0.6718 Y-0.4256
G1 X-0.6538 Y-0.4579
G1 X-0.6344 Y-0.4894
G1 X-0.6135 Y-0.5199
G1 X-0.5913 Y-0.5495
G1 X-0.5676 Y-0.578
G1 X-0.5428 Y-0.6054
G1 X-0.5166 Y-0.6316
G1 X-0.4894 Y-0.6566
G1 X-0.461 Y-0.6803
G1 X-0.4316 Y-0.7028
G1 X-0.4012 Y-0.7239
G1 X-0.3699 Y-0.7436
G1 X-0.3376 Y-0.7618
G1 X-0.3046 Y-0.7785
G1 X-0.2709 Y-0.7936
G1 X-0.2365 Y-0.8073
G1 X-0.2015 Y-0.8193
G1 X-0.166 Y-0.8298
G1 X-0.1301 Y-0.8386
G1 X-0.0938 Y-0.8459
G1 X-0.0572 Y-0.8514
G1 X-0.0204 Y-0.8552
G1 X0.0166 Y-0.8574
G1 X0.0536 Y-0.8578
G1 X0.0905 Y-0.8566
G1 X0.1274 Y-0.8538
G1 X0.1642 Y-0.8492
G1 X0.2006 Y-0.8431
G1 X0.2368 Y-0.8353
G1 X0.2726 Y-0.8258
G1 X0.3079 Y-0.8147
G1 X0.3427 Y-0.8021
G1 X0.3768 Y-0.7879
G1 X0.4104 Y-0.7722
G1 X0.4432 Y-0.7551
G1 X0.4752 Y-0.7365
G1 X0.5063 Y-0.7166
G1 X0.5366 Y-0.6953
G1 X0.5659 Y-0.6727
G1 X0.5941 Y-0.6488
G1 X0.6213 Y-0.6237
G1 X0.6474 Y-0.5974
G1 X0.6723 Y-0.5701
G1 X0.6961 Y-0.5417
G1 X0.7186 Y-0.5123
G1 X0.7398 Y-0.482
G1 X0.7597 Y-0.4508
G1 X0.7782 Y-0.4188
G1 X0.7953 Y-0.386
G1 X0.811 Y-0.3525
G1 X0.8252 Y-0.3183
G1 X0.838 Y-0.2835
G1 X0.8492 Y-0.2483
G1 X0.8589 Y-0.2126
G1 X0.8671 Y-0.1765
G1 X0.8738 Y-0.1401
G1 X0.8788 Y-0.1035
G1 X0.8822 Y-0.0666
G1 X0.884 Y-0.0296
G1 X0.8842 Y0.0074
G1 X0.8828 Y0.0443
G1 X0.8798 Y0.0812
G1 X0.8752 Y0.1179
G1 X0.8691 Y0.1544
G1 X0.8613 Y0.1906
G1 X0.852 Y0.2264
G1 X0.841 Y0.2618
G1 X0.8286 Y0.2966
G1 X0.8146 Y0.3309
G1 X0.7992 Y0.3645
G1 X0.7823 Y0.3974
G1 X0.764 Y0.4296
G1 X0.7443 Y0.4609
G1 X0.7233 Y0.4914
G1 X0.701 Y0.5209
G1 X0.6774 Y0.5494
G1 X0.6525 Y0.5768
G1 X0.6265 Y0.6031
G1 X0.5994 Y0.6283
G1 X0.5712 Y0.6523
G1 X0.542 Y0.675
G1 X0.5119 Y0.6965
G1 X0.4809 Y0.7167
G1 X0.449 Y0.7355
G1 X0.4361 Y0.7424
G1 X0.4285 Y0.7457
G1 X0.4205 Y0.748
G1 X0.4123 Y0.7491
G1 X0.4027 Y0.7497
G1 X0.3943 Y0.7509
G1 X0.3775 Y0.7548
G1 X0.3607 Y0.76
G1 X0.2934 Y0.7827
G1 X0.2598 Y0.7918
G1 X0.1758 Y0.8095
G1 X0.1337 Y0.8137
G1 X0.0749 Y0.8183
G1 X0.0581 Y0.8193
G1 X-0.026 Y0.8158
G1 X-0.0512 Y0.8135
G1 X-0.068 Y0.811
G1 X-0.1388 Y0.7992
G1 X-0.1689 Y0.7916
G1 X-0.2361 Y0.7715
G1 X-0.2544 Y0.7656
G1 X-0.2865 Y0.7518
G1 X-0.337 Y0.7297
G1 X-0.3494 Y0.7236
G1 X-0.3648 Y0.7152
G1 X-0.4294 Y0.6767
G1 X-0.4546 Y0.6594
G1 X-0.5232 Y0.6059
G1 X-0.5303 Y0.5999
G1 X-0.6 Y0.5303
G1 X-0.6143 Y0.5127
G1 X-0.6595 Y0.4546
G1 X-0.6767 Y0.4294
G1 X-0.7168 Y0.3622
G1 X-0.7258 Y0.3454
G1 X-0.7408 Y0.3117
G1 X-0.7629 Y0.2613
G1 X-0.7661 Y0.2529
G1 X-0.7767 Y0.2193
G1 X-0.7916 Y0.1689
G1 X-0.7992 Y0.1388
G1 X-0.8124 Y0.0596
G1 X-0.8143 Y0.0428
G1 X-0.8158 Y0.026
G1 X-0.8193 Y-0.0581
G1 X-0.8165 Y-0.1001
G1 X-0.8113 Y-0.159
G1 X-0.8095 Y-0.1758
G1 X-0.7908 Y-0.2638
G1 X-0.7824 Y-0.2941
G1 X-0.7572 Y-0.3691
G1 X-0.7548 Y-0.3775
G1 X-0.7509 Y-0.3943
G1 X-0.7496 Y-0.4041
G1 X-0.7483 Y-0.4157
G1 X-0.7439 Y-0.4389
G1 X-0.7364 Y-0.4655
G1 X-0.7254 Y-0.4955
G1 X-0.7099 Y-0.5291
G1 X-0.6918 Y-0.5614
G1 X-0.6716 Y-0.5924
G1 X-0.6497 Y-0.6222
G1 X-0.6262 Y-0.6508
G1 X-0.6014 Y-0.6782
G1 X-0.5753 Y-0.7045
G1 X-0.5481 Y-0.7296
G1 X-0.5199 Y-0.7534
G1 X-0.4906 Y-0.7761
G1 X-0.4604 Y-0.7975
G1 X-0.4293 Y-0.8175
G1 X-0.4005 Y-0.8345
G1 X-0.3904 Y-0.8392
G1 X-0.3795 Y-0.8419
G1 X-0.3683 Y-0.8425
G1 X-0.3573 Y-0.841
G1 X-0.351 Y-0.8398
G1 X-0.337 Y-0.8384
G1 X-0.3286 Y-0.8383
G1 X-0.3201 Y-0.8387
G1 X-0.3106 Y-0.8398
G1 X-0.2949 Y-0.8434
G1 X-0.2781 Y-0.848
G1 X-0.2025 Y-0.8737
G1 X-0.1724 Y-0.8818
G1 X-0.0848 Y-0.9006
G1 X-0.0091 Y-0.9075
G1 X0.0245 Y-0.9098
G1 X0.0329 Y-0.9101
G1 X0.1169 Y-0.9069
G1 X0.1421 Y-0.9044
G1 X0.1674 Y-0.9006
G1 X0.2302 Y-0.8902
G1 X0.2624 Y-0.8818
G1 X0.3271 Y-0.8624
G1 X0.3452 Y-0.8566
G1 X0.3775 Y-0.8428
G1 X0.4279 Y-0.8207
G1 X0.4404 Y-0.8146
G1 X0.4557 Y-0.8062
G1 X0.5204 Y-0.7677
G1 X0.5456 Y-0.7504
G1 X0.6142 Y-0.6969
G1 X0.6212 Y-0.6909
G1 X0.6909 Y-0.6212
G1 X0.7053 Y-0.6037
G1 X0.7504 Y-0.5456
G1 X0.7677 Y-0.5204
G1 X0.8077 Y-0.4531
G1 X0.8167 Y-0.4363
G1 X0.8317 Y-0.4027
G1 X0.8538 Y-0.3523
G1 X0.857 Y-0.3439
G1 X0.8677 Y-0.3103
G1 X0.8825 Y-0.2598
G1 X0.8902 Y-0.2301
G1 X0.9033 Y-0.1506
G1 X0.9061 Y-0.1253
G1 X0.907 Y-0.1128
G1 X0.9101 Y-0.0329
G1 X0.9082 Y0.0007
G1 X0.9015 Y0.0764
G1 X0.9006 Y0.0848
G1 X0.8818 Y0.1724
G1 X0.8737 Y0.2025
G1 X0.848 Y0.2781
G1 X0.8455 Y0.2865
G1 X0.8413 Y0.3033
G1 X0.8397 Y0.3117
G1 X0.8388 Y0.3201
G1 X0.8384 Y0.3286
G1 X0.8385 Y0.337
G1 X0.8406 Y0.3552
G1 X0.8416 Y0.3605
G1 X0.8429 Y0.3725
G1 X0.8432 Y0.3859
G1 X0.8423 Y0.4022
G1 X0.8398 Y0.4203
G1 X0.835 Y0.4421
G1 X0.8276 Y0.4664
G1 X0.8165 Y0.4946
G1 X0.8005 Y0.5271
G1 X0.7815 Y0.5589
G1 X0.7605 Y0.5893
G1 X0.7377 Y0.6185
G1 X0.7133 Y0.6464
G1 X0.6877 Y0.673
G1 X0.6609 Y0.6986
G1 X0.633 Y0.7229
G1 X0.6041 Y0.746
G1 X0.5743 Y0.7679
G1 X0.5655 Y0.7738
G1 X0.5551 Y0.7793
G1 X0.5437 Y0.7826
G1 X0.532 Y0.7836
G1 X0.5203 Y0.7822
G1 X0.5091 Y0.7785
G1 X0.4989 Y0.7726
G3 X0.4944 Y0.7375 I0.0153 J-0.0197 F40.
G1 X0.7967 Y0.3466
G3 X0.8406 Y0.3552 I0.0198 J0.0153
G1 X0.8466 Y0.379 F26.
G1 X0.85 Y0.3874
G1 X0.8566 Y0.4011
G1 X0.8583 Y0.4042
G1 X0.8638 Y0.4126
G1 X0.8668 Y0.4171
G1 X0.8701 Y0.424
G1 X0.8734 Y0.4326
G1 X0.876 Y0.4417
G1 X0.8783 Y0.4526
G1 X0.8799 Y0.4658
G1 X0.8805 Y0.4795
G1 X0.8799 Y0.496
G1 X0.8778 Y0.514
G1 X0.8736 Y0.5349
G1 X0.8671 Y0.5575
G1 X0.8572 Y0.5839
G1 X0.8433 Y0.6135
G1 X0.8249 Y0.6456
G1 X0.8041 Y0.6762
G1 X0.7812 Y0.7053
G1 X0.7568 Y0.7331
G1 X0.7309 Y0.7596
G1 X0.7038 Y0.7848
G1 X0.6776 Y0.8069
G1 X0.6576 Y0.8212
G1 X0.6408 Y0.8314
G1 X0.6246 Y0.8394
G1 X0.6215 Y0.8406
G1 X0.6106 Y0.8438
G1 X0.5993 Y0.8448
G1 X0.5881 Y0.8436
G1 X0.5773 Y0.8403
G1 X0.5673 Y0.8349
G1 X0.5586 Y0.8277
G1 X0.5204 Y0.7897
G1 X0.5117 Y0.7824
G1 X0.4989 Y0.7726
G3 X0.4967 Y0.735 I0.0153 J-0.0197 F40.
G1 X0.827 Y0.4107
G3 X0.8638 Y0.4126 I0.0175 J0.0178
G1 X0.8734 Y0.4251 F26.
G1 X0.8854 Y0.4378
G1 X0.8986 Y0.4511
G1 X0.9055 Y0.4587
G1 X0.9097 Y0.4643
G1 X0.9142 Y0.4712
G1 X0.9183 Y0.4787
G1 X0.9224 Y0.4881
G1 X0.9259 Y0.4981
G1 X0.929 Y0.5102
G1 X0.9313 Y0.5234
G1 X0.9327 Y0.5385
G1 X0.9329 Y0.5556
G1 X0.9316 Y0.5744
G1 X0.9285 Y0.5957
G1 X0.923 Y0.6191
G1 X0.9149 Y0.6444
G1 X0.9031 Y0.6732
G1 X0.887 Y0.7049
G1 X0.8677 Y0.7364
G1 X0.8461 Y0.7665
G1 X0.8227 Y0.7951
G1 X0.7977 Y0.8224
G1 X0.7711 Y0.8481
G1 X0.7454 Y0.8692
G1 X0.7247 Y0.8837
G1 X0.7071 Y0.8939
G1 X0.691 Y0.9017
G1 X0.6842 Y0.9043
G1 X0.6734 Y0.9073
G1 X0.6623 Y0.9082
G1 X0.6511 Y0.9069
G1 X0.6405 Y0.9036
G1 X0.6306 Y0.8982
G1 X0.622 Y0.8911
G1 X0.5586 Y0.8277
G3 X0.5582 Y0.794 I0.0183 J-0.0171 F40.
G1 X0.8629 Y0.4528
G3 X0.8986 Y0.4511 I0.0186 J0.0167
G1 X0.9575 Y0.51 F26.
G1 X0.9611 Y0.514
G1 X0.966 Y0.5205
G1 X0.9709 Y0.5282
G1 X0.9754 Y0.5369
G1 X0.9799 Y0.5474
G1 X0.9837 Y0.5587
G1 X0.9871 Y0.5724
G1 X0.9895 Y0.5868
G1 X0.9909 Y0.6041
G1 Y0.6221
G1 X0.9892 Y0.6437
G1 X0.9857 Y0.6659
G1 X0.9795 Y0.6915
G1 X0.9701 Y0.7199
G1 X0.9575 Y0.7497
G1 X0.9404 Y0.7825
G1 X0.9207 Y0.8139
G1 X0.8989 Y0.8438
G1 X0.8751 Y0.8722
G1 X0.8495 Y0.8988
G1 X0.8232 Y0.9224
G1 X0.8005 Y0.9396
G1 X0.7807 Y0.9523
G1 X0.7631 Y0.9616
G1 X0.7459 Y0.9689
G1 X0.7332 Y0.9717
G1 X0.7202 Y0.9716
G1 X0.7076 Y0.9687
G1 X0.696 Y0.963
G1 X0.6858 Y0.9549
G1 X0.622 Y0.8911
G3 X0.6214 Y0.8577 I0.0183 J-0.0171 F40.
G1 X0.9215 Y0.5119
G3 X0.9575 Y0.51 I0.0189 J0.0164
G1 X1.0114 Y0.5639 F26.
G1 X1.0193 Y0.5727
G1 X1.0243 Y0.5792
G1 X1.0294 Y0.587
G1 X1.0343 Y0.5961
G1 X1.0389 Y0.6065
G1 X1.0431 Y0.6187
G1 X1.0466 Y0.632
G1 X1.0494 Y0.648
G1 X1.0509 Y0.6648
G1 X1.0512 Y0.6846
G1 X1.0507 Y0.6919
G1 X1.049 Y0.7022
G1 X1.0456 Y0.7121
G1 X1.0404 Y0.7212
G1 X1.0337 Y0.7292
G3 X0.992 Y0.7152 I-0.0171 J-0.0183 F40.
G1 X0.9801 Y0.6466
G1 X0.9697 Y0.5865
G3 X1.0114 Y0.5639 I0.0246 J-0.0043
G1 X1.0751 Y0.6276 F26.
G1 X1.0793 Y0.6322
G1 X1.0844 Y0.6408
G1 X1.0873 Y0.6504
G1 X1.0878 Y0.6604
G1 X1.086 Y0.6702
G1 X1.0819 Y0.6794
G1 X1.0757 Y0.6872
G3 X1.0336 Y0.6696 I-0.0171 J-0.0183 F40.
G1 X1.0331 Y0.6465
G3 X1.0751 Y0.6276 I0.025 J-0.0006
G1 X1.0871 Y0.6395 F26.
G1 X1.0899 Y0.6428
G1 X1.0929 Y0.648
G1 X1.0942 Y0.6522
G1 X1.0948 Y0.6564
G1 X1.0947 Y0.6606
G1 X1.0938 Y0.6648
G1 X1.0919 Y0.6694
G1 X1.0895 Y0.6732
G1 X0.7704 Y0.9926
G1 X0.7655 Y0.9971
G1 X0.7578 Y1.0013
G1 X0.7494 Y1.0032
G1 X0.7407 Y1.0027
G1 X0.7325 Y0.9997
G1 X0.7255 Y0.9945
G3 X0.7162 Y0.9726 I0.0249 J-0.0235 F40.
G3 X0.7788 Y0.9698 I0.0313 J-0.0014
G3 X0.7704 Y0.9926 I-0.0313 J0.0014
G1 X0.7641 Y0.9988 F26.
G1 X0.7616 Y1.001
G1 X0.7586 Y1.0028
G1 X0.7536 Y1.0048
G1 X0.7473 Y1.0057
G1 X0.7431 Y1.0054
G1 X0.7389 Y1.0044
G1 X0.7356 Y1.003
G1 X0.7305 Y0.9995
G1 X0.6858 Y0.9549
G1 X0.6838 Y0.9524 F40.
G1 X0.682 Y0.9496
G1 X0.6807 Y0.9466
G1 X0.6793 Y0.943 Z-0.1997
G1 X0.678 Y0.9394 Z-0.1988
G1 X0.6767 Y0.936 Z-0.1973
G1 X0.6755 Y0.9329 Z-0.1952
G1 X0.6745 Y0.9301 Z-0.1927
G1 X0.6736 Y0.9277 Z-0.1897
G1 X0.6729 Y0.9258 Z-0.1863
G1 X0.6724 Y0.9244 Z-0.1827
G1 X0.672 Y0.9235 Z-0.1789
G1 X0.6719 Y0.9232 Z-0.175
G0 Z0.2
G0 X-0.7194 Y-0.3904
G0 Z-0.15
G1 Z-0.175 F40.
G1 X-0.7197 Y-0.3905 Z-0.1789
G1 X-0.7206 Y-0.3907 Z-0.1827
G1 X-0.722 Y-0.391 Z-0.1863
G1 X-0.724 Y-0.3915 Z-0.1897
G1 X-0.7265 Y-0.3921 Z-0.1927
G1 X-0.7294 Y-0.3928 Z-0.1952
G1 X-0.7327 Y-0.3936 Z-0.1973
G1 X-0.7362 Y-0.3945 Z-0.1988
G1 X-0.7399 Y-0.3954 Z-0.1997
G1 X-0.7437 Y-0.3963 Z-0.2
G1 X-0.7457 Y-0.3971
G1 X-0.7473 Y-0.3984
G1 X-0.7486 Y-0.4
G1 X-0.7494 Y-0.402
G1 X-0.7496 Y-0.4041
G1 X-0.7487 Y-0.4195 F26.
G1 X-0.7492 Y-0.4279
G1 X-0.7509 Y-0.4447
G1 X-0.7578 Y-0.47
G1 X-0.7597 Y-0.4746
G1 X-0.7617 Y-0.4799
G1 X-0.7639 Y-0.488
G1 X-0.7658 Y-0.498
G1 X-0.7671 Y-0.5095
G1 X-0.7674 Y-0.5222
G1 X-0.7666 Y-0.5377
G1 X-0.7644 Y-0.5541
G1 X-0.7601 Y-0.5741
G1 X-0.7536 Y-0.5955
G1 X-0.7438 Y-0.6206
G1 X-0.7298 Y-0.6492
G1 X-0.711 Y-0.6811
G1 X-0.6897 Y-0.7113
G1 X-0.6664 Y-0.7401
G1 X-0.6414 Y-0.7674
G1 X-0.6151 Y-0.7934
G1 X-0.5876 Y-0.8181
G1 X-0.5589 Y-0.8416
G1 X-0.5294 Y-0.8638
G1 X-0.5033 Y-0.8814
G1 X-0.4982 Y-0.8843
G1 X-0.487 Y-0.8892
G1 X-0.4749 Y-0.8917
G1 X-0.4626
G1 X-0.4506 Y-0.8891
G1 X-0.4394 Y-0.8841
G1 X-0.4294 Y-0.877
G1 X-0.421 Y-0.87
G1 X-0.4174 Y-0.8673
G3 X-0.4141 Y-0.8319 I-0.0159 J0.0193 F40.
G1 X-0.7179 Y-0.4691
G3 X-0.7597 Y-0.4746 I-0.0192 J-0.016
G1 X-0.7656 Y-0.487 F26.
G1 X-0.7701 Y-0.4952
G1 X-0.7829 Y-0.512
G1 X-0.7868 Y-0.5166
G1 X-0.792 Y-0.5234
G1 X-0.7957 Y-0.5293
G1 X-0.7994 Y-0.5364
G1 X-0.8028 Y-0.5441
G1 X-0.806 Y-0.5538
G1 X-0.8086 Y-0.5642
G1 X-0.8107 Y-0.5763
G1 X-0.8119 Y-0.5905
G1 Y-0.6054
G1 X-0.8106 Y-0.6236
G1 X-0.8077 Y-0.6422
G1 X-0.8023 Y-0.6644
G1 X-0.7947 Y-0.6876
G1 X-0.7836 Y-0.7141
G1 X-0.7683 Y-0.7438
G1 X-0.7487 Y-0.7752
G1 X-0.7267 Y-0.805
G1 X-0.7029 Y-0.8333
G1 X-0.6775 Y-0.8601
G1 X-0.6506 Y-0.8856
G1 X-0.6226 Y-0.9097
G1 X-0.6007 Y-0.926
G1 X-0.5818 Y-0.9378
G1 X-0.5656 Y-0.9462
G1 X-0.5548 Y-0.9507
G1 X-0.5439 Y-0.9541
G1 X-0.5324 Y-0.9553
G1 X-0.521 Y-0.9542
G1 X-0.51 Y-0.9509
G1 X-0.4999 Y-0.9455
G1 X-0.491 Y-0.9382
G1 X-0.4294 Y-0.877
G3 X-0.4296 Y-0.8421 I-0.018 J0.0174 F40.
G1 X-0.7504 Y-0.5158
G3 X-0.7868 Y-0.5166 I-0.0178 J-0.0175
G1 X-0.7908 Y-0.5213 F26.
G1 X-0.8319 Y-0.5624
G1 X-0.8383 Y-0.5695
G1 X-0.843 Y-0.5757
G1 X-0.8474 Y-0.5824
G1 X-0.8519 Y-0.5907
G1 X-0.856 Y-0.6
G1 X-0.8597 Y-0.6108
G1 X-0.8628 Y-0.623
G1 X-0.8652 Y-0.6366
G1 X-0.8667 Y-0.6522
G1 X-0.8669 Y-0.6691
G1 X-0.8656 Y-0.6885
G1 X-0.8624 Y-0.7095
G1 X-0.857 Y-0.7328
G1 X-0.8486 Y-0.7591
G1 X-0.8374 Y-0.7864
G1 X-0.8219 Y-0.817
G1 X-0.8025 Y-0.8486
G1 X-0.7809 Y-0.8786
G1 X-0.7573 Y-0.9071
G1 X-0.7321 Y-0.9342
G1 X-0.7052 Y-0.9595
G1 X-0.6795 Y-0.9803
G1 X-0.6577 Y-0.9951
G1 X-0.6395 Y-1.0055
G1 X-0.6233 Y-1.0131
G1 X-0.6167 Y-1.0156
G1 X-0.606 Y-1.0184
G1 X-0.5949 Y-1.0192
G1 X-0.5839 Y-1.0179
G1 X-0.5733 Y-1.0145
G1 X-0.5636 Y-1.0092
G1 X-0.555 Y-1.0022
G1 X-0.491 Y-0.9382
G3 X-0.4907 Y-0.9044 I-0.0183 J0.0171 F40.
G1 X-0.7962 Y-0.564
G3 X-0.8319 Y-0.5624 I-0.0186 J-0.0167
G1 X-0.8907 Y-0.6212 F26.
G1 X-0.8947 Y-0.6256
G1 X-0.8995 Y-0.6319
G1 X-0.9045 Y-0.6397
G1 X-0.9091 Y-0.6482
G1 X-0.9137 Y-0.6587
G1 X-0.9176 Y-0.6698
G1 X-0.9211 Y-0.6834
G1 X-0.9236 Y-0.6977
G1 X-0.9252 Y-0.7148
G1 X-0.9254 Y-0.7325
G1 X-0.924 Y-0.7539
G1 X-0.9207 Y-0.7755
G1 X-0.9148 Y-0.8009
G1 X-0.9061 Y-0.8282
G1 X-0.8942 Y-0.8573
G1 X-0.8863 Y-0.8729
G1 X-0.8832 Y-0.8782
G1 X-0.8796 Y-0.8832
G1 X-0.8755 Y-0.8878
G3 X-0.8335 Y-0.8678 I0.0171 J0.0183 F40.
G1 X-0.841 Y-0.7545
G1 X-0.8487 Y-0.6379
G3 X-0.8907 Y-0.6212 I-0.0249 J-0.0017
G1 X-0.9496 Y-0.6801 F26.
G1 X-0.9539 Y-0.6848
G1 X-0.9588 Y-0.6913
G1 X-0.964 Y-0.6993
G1 X-0.9688 Y-0.7082
G1 X-0.9735 Y-0.7189
G1 X-0.9777 Y-0.7308
G1 X-0.9816 Y-0.7466
G1 X-0.9824 Y-0.7577
G1 X-0.9811 Y-0.7688
G1 X-0.9778 Y-0.7795
G1 X-0.9725 Y-0.7893
G1 X-0.9654 Y-0.7979
G3 X-0.9238 Y-0.7844 I0.0171 J0.0183 F40.
G1 X-0.908 Y-0.7031
G3 X-0.9496 Y-0.6801 I-0.0245 J0.0048
G1 X-0.9999 Y-0.7305 F26.
G1 X-1.0032 Y-0.7354
G1 X-1.0047 Y-0.7389
G1 X-1.0057 Y-0.7431
G1 X-1.006 Y-0.7473
G1 X-1.0051 Y-0.7536
G1 X-1.003 Y-0.7588
G1 X-1.001 Y-0.7619
G1 X-0.9907 Y-0.7725
G1 X-0.732 Y-1.0313
G1 X-0.716 Y-1.0458
G1 X-0.7032 Y-1.0556
G1 X-0.6901 Y-1.0641
G1 X-0.6766 Y-1.0712
G1 X-0.6656 Y-1.0748
G1 X-0.654 Y-1.0762
G1 X-0.6424 Y-1.0752
G1 X-0.6312 Y-1.0719
G1 X-0.6209 Y-1.0664
G1 X-0.6119 Y-1.0591
G3 X-0.6223 Y-1.0183 I-0.0183 J0.0171 F40.
G1 X-0.7058 Y-0.9905
G3 X-0.732 Y-1.0313 I-0.0079 J-0.0237
G1 X-0.6798 Y-1.0835 F26.
G1 X-0.6732 Y-1.0898
G1 X-0.6698 Y-1.0919
G1 X-0.6648 Y-1.094
G1 X-0.6606 Y-1.0947
G1 X-0.6564 Y-1.0948
G1 X-0.6501 Y-1.0935
G1 X-0.6464 Y-1.0919
G1 X-0.643 Y-1.0898
G1 X-0.6196 Y-1.0667
G1 X-0.555 Y-1.0022
G1 X-0.5538 Y-1.0003 Z-0.1997 F40.
G1 X-0.5527 Y-0.9986 Z-0.199
G1 X-0.5517 Y-0.9971 Z-0.1979
G1 X-0.5509 Y-0.9958 Z-0.1963
G1 X-0.5502 Y-0.9948 Z-0.1945
G1 X-0.55 Y-0.9941 Z-0.1924
G1 X-0.5499 Y-0.9939 Z-0.1902
G0 Z0.2
G0 X0.3798 Y0.7248
G0 Z-0.14
G1 Z-0.165 F40.
G1 X0.3797 Y0.7251 Z-0.1689
G1 X0.3796 Y0.726 Z-0.1727
G1 X0.3794 Y0.7275 Z-0.1763
G1 X0.3791 Y0.7295 Z-0.1797
G1 X0.3788 Y0.732 Z-0.1827
G1 X0.3784 Y0.735 Z-0.1852
G1 X0.3779 Y0.7383 Z-0.1873
G1 X0.3774 Y0.7419 Z-0.1888
G1 X0.3769 Y0.7457 Z-0.1897
G1 X0.3763 Y0.7496 Z-0.19
G1 X0.3758 Y0.7516
G1 X0.3749 Y0.7534
G1 X0.3736 Y0.755
G1 X0.372 Y0.7563
G1 X0.3702 Y0.7572
G1 X0.2934 Y0.7831 F26.
G1 X0.2598 Y0.7922
G1 X0.1758 Y0.8099
G1 X0.1337 Y0.814
G1 X0.0749 Y0.8187
G1 X0.0581 Y0.8196
G1 X-0.0275 Y0.8161
G1 X-0.0512 Y0.8139
G1 X-0.068 Y0.8114
G1 X-0.1409 Y0.7992
G1 X-0.1773 Y0.7895
G1 X-0.2361 Y0.7719
G1 X-0.2556 Y0.7656
G1 X-0.337 Y0.7301
G1 X-0.3501 Y0.7236
G1 X-0.3655 Y0.7152
G1 X-0.4294 Y0.6771
G1 X-0.4546 Y0.6598
G1 X-0.5237 Y0.6059
G1 X-0.5303 Y0.6004
G1 X-0.6005 Y0.5303
G1 X-0.6227 Y0.5024
G1 X-0.6598 Y0.4546
G1 X-0.6771 Y0.4294
G1 X-0.7171 Y0.3622
G1 X-0.7261 Y0.3454
G1 X-0.7411 Y0.3117
G1 X-0.7656 Y0.2556
G1 X-0.777 Y0.2193
G1 X-0.792 Y0.1689
G1 X-0.7992 Y0.1408
G1 X-0.8128 Y0.0596
G1 X-0.8146 Y0.0428
G1 X-0.8162 Y0.026
G1 X-0.8196 Y-0.0581
G1 X-0.8168 Y-0.1001
G1 X-0.8117 Y-0.159
G1 X-0.8099 Y-0.1758
G1 X-0.7922 Y-0.2598
G1 X-0.7831 Y-0.2934
G1 X-0.7576 Y-0.3691
G1 X-0.7563 Y-0.3721 F40.
G1 X-0.7545 Y-0.3748
G1 X-0.7525 Y-0.3774
G1 X-0.7498 Y-0.3802 Z-0.1897
G1 X-0.7472 Y-0.383 Z-0.1888
G1 X-0.7447 Y-0.3857 Z-0.1873
